(Name: LM317T_PCB.TXT_cnc)
(Type: G-code from Excellon)
(Units:  mm)

(Feedrate: 5.0 mm/min)
(Feedrate rapids 15.0 mm/min)

(Z_Cut: -1.5 mm)
(Z_Move: 2.0 mm)
(Z Toolchange: 1.0 mm)
(Z End 5.0 mm)
(Steps per circle: 64)
(Postprocessor Excellon: grbl_11)
(Spindle Speed: 20000 RPM)

G21
G90
G94
G17

G01 F5.00
G00 Z2.0000
M03 S20000
G4 P2
G00 X4.5000 Y-31.0000
G01 Z-1.5000
G01 Z0
G00 Z2.0000
G00 X4.5000 Y-25.0000
G01 Z-1.5000
G01 Z0
G00 Z2.0000
G00 X5.5000 Y-13.0000
G01 Z-1.5000
G01 Z0
G00 Z2.0000
G00 X11.5000 Y-13.0000
G01 Z-1.5000
G01 Z0
G00 Z2.0000
G00 X18.5000 Y-22.0000
G01 Z-1.5000
G01 Z0
G00 Z2.0000
G00 X24.5000 Y-25.0000
G01 Z-1.5000
G01 Z0
G00 Z2.0000
G00 X29.5000 Y-25.0000
G01 Z-1.5000
G01 Z0
G00 Z2.0000
G00 X34.5000 Y-25.0000
G01 Z-1.5000
G01 Z0
G00 Z2.0000
G00 X42.5000 Y-23.0000
G01 Z-1.5000
G01 Z0
G00 Z2.0000
G00 X48.5000 Y-23.0000
G01 Z-1.5000
G01 Z0
G00 Z2.0000
G00 X42.5000 Y-14.0000
G01 Z-1.5000
G01 Z0
G00 Z2.0000
G00 X36.0000 Y-14.0000
G01 Z-1.5000
G01 Z0
G00 Z2.0000
G00 X30.5000 Y-14.0000
G01 Z-1.5000
G01 Z0
G00 Z2.0000
G00 X25.0000 Y-14.0000
G01 Z-1.5000
G01 Z0
G00 Z2.0000
G00 X25.5000 Y-8.0000
G01 Z-1.5000
G01 Z0
G00 Z2.0000
G00 X35.5000 Y-8.0000
G01 Z-1.5000
G01 Z0
G00 Z2.0000
G00 X42.5000 Y-8.0000
G01 Z-1.5000
G01 Z0
G00 Z2.0000
G00 X52.5000 Y-8.0000
G01 Z-1.5000
G01 Z0
G00 Z2.0000
G00 X52.5000 Y-14.0000
G01 Z-1.5000
G01 Z0
G00 Z2.0000
G00 X64.5000 Y-25.0000
G01 Z-1.5000
G01 Z0
G00 Z2.0000
G00 X64.5000 Y-31.0000
G01 Z-1.5000
G01 Z0
G00 Z2.0000
G00 X55.5000 Y-27.0000
G01 Z-1.5000
G01 Z0
G00 Z2.0000
G00 X55.5000 Y-33.0000
G01 Z-1.5000
G01 Z0
G00 Z2.0000
G00 X48.5000 Y-33.0000
G01 Z-1.5000
G01 Z0
G00 Z2.0000
G00 X42.5000 Y-33.0000
G01 Z-1.5000
G01 Z0
G00 Z2.0000
G00 X34.5000 Y-36.0000
G01 Z-1.5000
G01 Z0
G00 Z2.0000
G00 X24.5000 Y-36.0000
G01 Z-1.5000
G01 Z0
G00 Z2.0000
G00 X18.5000 Y-32.0000
G01 Z-1.5000
G01 Z0
G00 Z2.0000
G00 X12.5000 Y-32.0000
G01 Z-1.5000
G01 Z0
G00 Z2.0000
G00 X12.5000 Y-26.0000
G01 Z-1.5000
G01 Z0
G00 Z2.0000
M03 S20000
G4 P2
G00 X3.0000 Y-37.0000
G01 Z-1.5000
G01 Z0
G00 Z2.0000
G00 X3.0000 Y-3.0000
G01 Z-1.5000
G01 Z0
G00 Z2.0000
G00 X67.0000 Y-3.0000
G01 Z-1.5000
G01 Z0
G00 Z2.0000
G00 X67.0000 Y-37.0000
G01 Z-1.5000
G01 Z0
G00 Z2.0000
M05
G00 Z5.00
G00 X0Y0