(Name: LM317T_PCB.GTL_iso_cnc)
(Type: G-code from Geometry)
(Units:  mm)

(TOOL DIAMETER: 0.7 mm)

(Feedrate: 40.0 mm/min)
(Feedrate_Z: 9.0 mm/min)
(Feedrate rapids 10.0 mm/min)

(Z_Cut: -0.045 mm)
(Z_Move: 2.0 mm)
(Z Toolchange: 0.787402 mm)
(Z End 5.0 mm)
(Steps per circle: 64)
(Postprocessor Geometry: grbl_11)
(Spindle Speed: 19000 RPM)

G21
G90
G94
G17

G01 F40.00
G00 Z2.0000
M03 S19000
G00 X4.8496 Y-2.9828
G01 F9.00
G01 Z-0.0450
G01 F40.00
G01 X4.8496 Y-3.0172 G01 F40.00
G01 X4.8410 Y-3.1819 G01 F40.00
G01 X4.8174 Y-3.3440 G01 F40.00
G01 X4.8128 Y-3.3686 G01 F40.00
G01 X4.7706 Y-3.5360 G01 F40.00
G01 X4.7154 Y-3.6919 G01 F40.00
G01 X4.7057 Y-3.7162 G01 F40.00
G01 X4.6359 Y-3.8636 G01 F40.00
G01 X4.6231 Y-3.8870 G01 F40.00
G01 X4.5384 Y-4.0275 G01 F40.00
G01 X4.4406 Y-4.1601 G01 F40.00
G01 X4.4253 Y-4.1794 G01 F40.00
G01 X4.3081 Y-4.3081 G01 F40.00
G01 X4.1794 Y-4.4253 G01 F40.00
G01 X4.1601 Y-4.4406 G01 F40.00
G01 X4.0275 Y-4.5384 G01 F40.00
G01 X3.8870 Y-4.6231 G01 F40.00
G01 X3.8636 Y-4.6359 G01 F40.00
G01 X3.7162 Y-4.7057 G01 F40.00
G01 X3.6919 Y-4.7154 G01 F40.00
G01 X3.5360 Y-4.7706 G01 F40.00
G01 X3.3686 Y-4.8128 G01 F40.00
G01 X3.3440 Y-4.8174 G01 F40.00
G01 X3.1819 Y-4.8410 G01 F40.00
G01 X3.0000 Y-4.8500 G01 F40.00
G01 X2.8181 Y-4.8410 G01 F40.00
G01 X2.6560 Y-4.8174 G01 F40.00
G01 X2.6314 Y-4.8128 G01 F40.00
G01 X2.4640 Y-4.7706 G01 F40.00
G01 X2.3081 Y-4.7154 G01 F40.00
G01 X2.2838 Y-4.7057 G01 F40.00
G01 X2.1364 Y-4.6359 G01 F40.00
G01 X2.1130 Y-4.6231 G01 F40.00
G01 X1.9725 Y-4.5384 G01 F40.00
G01 X1.8399 Y-4.4406 G01 F40.00
G01 X1.8206 Y-4.4253 G01 F40.00
G01 X1.6919 Y-4.3081 G01 F40.00
G01 X1.5747 Y-4.1794 G01 F40.00
G01 X1.5594 Y-4.1601 G01 F40.00
G01 X1.4616 Y-4.0275 G01 F40.00
G01 X1.3769 Y-3.8870 G01 F40.00
G01 X1.3641 Y-3.8636 G01 F40.00
G01 X1.2943 Y-3.7162 G01 F40.00
G01 X1.2846 Y-3.6919 G01 F40.00
G01 X1.2294 Y-3.5360 G01 F40.00
G01 X1.1872 Y-3.3686 G01 F40.00
G01 X1.1826 Y-3.3440 G01 F40.00
G01 X1.1590 Y-3.1819 G01 F40.00
G01 X1.1500 Y-3.0000 G01 F40.00
G01 X1.1590 Y-2.8181 G01 F40.00
G01 X1.1826 Y-2.6560 G01 F40.00
G01 X1.1872 Y-2.6314 G01 F40.00
G01 X1.2294 Y-2.4640 G01 F40.00
G01 X1.2846 Y-2.3081 G01 F40.00
G01 X1.2943 Y-2.2838 G01 F40.00
G01 X1.3641 Y-2.1364 G01 F40.00
G01 X1.3769 Y-2.1130 G01 F40.00
G01 X1.4616 Y-1.9725 G01 F40.00
G01 X1.5594 Y-1.8399 G01 F40.00
G01 X1.5747 Y-1.8206 G01 F40.00
G01 X1.6919 Y-1.6919 G01 F40.00
G01 X1.8206 Y-1.5747 G01 F40.00
G01 X1.8399 Y-1.5594 G01 F40.00
G01 X1.9725 Y-1.4616 G01 F40.00
G01 X2.1130 Y-1.3769 G01 F40.00
G01 X2.1364 Y-1.3641 G01 F40.00
G01 X2.2838 Y-1.2943 G01 F40.00
G01 X2.3081 Y-1.2846 G01 F40.00
G01 X2.4640 Y-1.2294 G01 F40.00
G01 X2.6314 Y-1.1872 G01 F40.00
G01 X2.6560 Y-1.1826 G01 F40.00
G01 X2.8181 Y-1.1590 G01 F40.00
G01 X3.0000 Y-1.1500 G01 F40.00
G01 X3.1819 Y-1.1590 G01 F40.00
G01 X3.3440 Y-1.1826 G01 F40.00
G01 X3.3686 Y-1.1872 G01 F40.00
G01 X3.5360 Y-1.2294 G01 F40.00
G01 X3.6919 Y-1.2846 G01 F40.00
G01 X3.7162 Y-1.2943 G01 F40.00
G01 X3.8636 Y-1.3641 G01 F40.00
G01 X3.8870 Y-1.3769 G01 F40.00
G01 X4.0275 Y-1.4616 G01 F40.00
G01 X4.1601 Y-1.5594 G01 F40.00
G01 X4.1794 Y-1.5747 G01 F40.00
G01 X4.3081 Y-1.6919 G01 F40.00
G01 X4.4253 Y-1.8206 G01 F40.00
G01 X4.4406 Y-1.8399 G01 F40.00
G01 X4.5384 Y-1.9725 G01 F40.00
G01 X4.6231 Y-2.1130 G01 F40.00
G01 X4.6359 Y-2.1364 G01 F40.00
G01 X4.7057 Y-2.2838 G01 F40.00
G01 X4.7154 Y-2.3081 G01 F40.00
G01 X4.7706 Y-2.4640 G01 F40.00
G01 X4.8128 Y-2.6314 G01 F40.00
G01 X4.8174 Y-2.6560 G01 F40.00
G01 X4.8410 Y-2.8181 G01 F40.00
G01 X4.8496 Y-2.9828 G01 F40.00
G00 Z2.0000
G00 X5.4439 Y-2.9536
G01 F9.00
G01 Z-0.0450
G01 F40.00
G01 X5.4450 Y-3.0000 G01 F40.00
G01 X5.4439 Y-3.0464 G01 F40.00
G01 X5.4366 Y-3.1934 G01 F40.00
G01 X5.4331 Y-3.2411 G01 F40.00
G01 X5.4275 Y-3.2857 G01 F40.00
G01 X5.4059 Y-3.4313 G01 F40.00
G01 X5.3937 Y-3.4976 G01 F40.00
G01 X5.3521 Y-3.6650 G01 F40.00
G01 X5.3406 Y-3.7070 G01 F40.00
G01 X5.3252 Y-3.7538 G01 F40.00
G01 X5.2756 Y-3.8924 G01 F40.00
G01 X5.2494 Y-3.9578 G01 F40.00
G01 X5.1681 Y-4.1297 G01 F40.00
G01 X5.1334 Y-4.1929 G01 F40.00
G01 X5.0578 Y-4.3192 G01 F40.00
G01 X5.0335 Y-4.3575 G01 F40.00
G01 X5.0062 Y-4.3963 G01 F40.00
G01 X4.9185 Y-4.5145 G01 F40.00
G01 X4.8770 Y-4.5666 G01 F40.00
G01 X4.7609 Y-4.6953 G01 F40.00
G01 X4.7289 Y-4.7289 G01 F40.00
G01 X4.6953 Y-4.7609 G01 F40.00
G01 X4.5666 Y-4.8770 G01 F40.00
G01 X4.5145 Y-4.9185 G01 F40.00
G01 X4.3963 Y-5.0062 G01 F40.00
G01 X4.3575 Y-5.0335 G01 F40.00
G01 X4.3192 Y-5.0578 G01 F40.00
G01 X4.1929 Y-5.1334 G01 F40.00
G01 X4.1297 Y-5.1681 G01 F40.00
G01 X3.9578 Y-5.2494 G01 F40.00
G01 X3.8924 Y-5.2756 G01 F40.00
G01 X3.7538 Y-5.3252 G01 F40.00
G01 X3.7070 Y-5.3406 G01 F40.00
G01 X3.6650 Y-5.3521 G01 F40.00
G01 X3.4976 Y-5.3937 G01 F40.00
G01 X3.4313 Y-5.4059 G01 F40.00
G01 X3.2857 Y-5.4275 G01 F40.00
G01 X3.2411 Y-5.4331 G01 F40.00
G01 X3.1934 Y-5.4366 G01 F40.00
G01 X3.0464 Y-5.4439 G01 F40.00
G01 X3.0000 Y-5.4450 G01 F40.00
G01 X2.9536 Y-5.4439 G01 F40.00
G01 X2.8066 Y-5.4366 G01 F40.00
G01 X2.7589 Y-5.4331 G01 F40.00
G01 X2.7143 Y-5.4275 G01 F40.00
G01 X2.5687 Y-5.4059 G01 F40.00
G01 X2.5024 Y-5.3937 G01 F40.00
G01 X2.3350 Y-5.3521 G01 F40.00
G01 X2.2930 Y-5.3406 G01 F40.00
G01 X2.2462 Y-5.3252 G01 F40.00
G01 X2.1076 Y-5.2756 G01 F40.00
G01 X2.0422 Y-5.2494 G01 F40.00
G01 X1.8703 Y-5.1681 G01 F40.00
G01 X1.8071 Y-5.1334 G01 F40.00
G01 X1.6808 Y-5.0578 G01 F40.00
G01 X1.6425 Y-5.0335 G01 F40.00
G01 X1.6037 Y-5.0062 G01 F40.00
G01 X1.4855 Y-4.9185 G01 F40.00
G01 X1.4334 Y-4.8770 G01 F40.00
G01 X1.3047 Y-4.7609 G01 F40.00
G01 X1.2711 Y-4.7289 G01 F40.00
G01 X1.2391 Y-4.6953 G01 F40.00
G01 X1.1230 Y-4.5666 G01 F40.00
G01 X1.0815 Y-4.5145 G01 F40.00
G01 X0.9938 Y-4.3963 G01 F40.00
G01 X0.9665 Y-4.3575 G01 F40.00
G01 X0.9422 Y-4.3192 G01 F40.00
G01 X0.8666 Y-4.1929 G01 F40.00
G01 X0.8319 Y-4.1297 G01 F40.00
G01 X0.7506 Y-3.9578 G01 F40.00
G01 X0.7244 Y-3.8924 G01 F40.00
G01 X0.6748 Y-3.7538 G01 F40.00
G01 X0.6594 Y-3.7070 G01 F40.00
G01 X0.6479 Y-3.6650 G01 F40.00
G01 X0.6063 Y-3.4976 G01 F40.00
G01 X0.5941 Y-3.4313 G01 F40.00
G01 X0.5725 Y-3.2857 G01 F40.00
G01 X0.5669 Y-3.2411 G01 F40.00
G01 X0.5634 Y-3.1934 G01 F40.00
G01 X0.5561 Y-3.0464 G01 F40.00
G01 X0.5550 Y-3.0000 G01 F40.00
G01 X0.5561 Y-2.9536 G01 F40.00
G01 X0.5634 Y-2.8066 G01 F40.00
G01 X0.5669 Y-2.7589 G01 F40.00
G01 X0.5725 Y-2.7143 G01 F40.00
G01 X0.5941 Y-2.5687 G01 F40.00
G01 X0.6063 Y-2.5024 G01 F40.00
G01 X0.6479 Y-2.3350 G01 F40.00
G01 X0.6594 Y-2.2930 G01 F40.00
G01 X0.6748 Y-2.2462 G01 F40.00
G01 X0.7244 Y-2.1076 G01 F40.00
G01 X0.7506 Y-2.0422 G01 F40.00
G01 X0.8319 Y-1.8703 G01 F40.00
G01 X0.8666 Y-1.8071 G01 F40.00
G01 X0.9422 Y-1.6808 G01 F40.00
G01 X0.9665 Y-1.6425 G01 F40.00
G01 X0.9938 Y-1.6037 G01 F40.00
G01 X1.0815 Y-1.4855 G01 F40.00
G01 X1.1230 Y-1.4334 G01 F40.00
G01 X1.2391 Y-1.3047 G01 F40.00
G01 X1.2711 Y-1.2711 G01 F40.00
G01 X1.3047 Y-1.2391 G01 F40.00
G01 X1.4334 Y-1.1230 G01 F40.00
G01 X1.4855 Y-1.0815 G01 F40.00
G01 X1.6037 Y-0.9938 G01 F40.00
G01 X1.6425 Y-0.9665 G01 F40.00
G01 X1.6808 Y-0.9422 G01 F40.00
G01 X1.8071 Y-0.8666 G01 F40.00
G01 X1.8703 Y-0.8319 G01 F40.00
G01 X2.0422 Y-0.7506 G01 F40.00
G01 X2.1076 Y-0.7244 G01 F40.00
G01 X2.2462 Y-0.6748 G01 F40.00
G01 X2.2930 Y-0.6594 G01 F40.00
G01 X2.3350 Y-0.6479 G01 F40.00
G01 X2.5024 Y-0.6063 G01 F40.00
G01 X2.5687 Y-0.5941 G01 F40.00
G01 X2.7143 Y-0.5725 G01 F40.00
G01 X2.7589 Y-0.5669 G01 F40.00
G01 X2.8066 Y-0.5634 G01 F40.00
G01 X2.9536 Y-0.5561 G01 F40.00
G01 X3.0000 Y-0.5550 G01 F40.00
G01 X3.0464 Y-0.5561 G01 F40.00
G01 X3.1934 Y-0.5634 G01 F40.00
G01 X3.2411 Y-0.5669 G01 F40.00
G01 X3.2857 Y-0.5725 G01 F40.00
G01 X3.4313 Y-0.5941 G01 F40.00
G01 X3.4976 Y-0.6063 G01 F40.00
G01 X3.6650 Y-0.6479 G01 F40.00
G01 X3.7070 Y-0.6594 G01 F40.00
G01 X3.7538 Y-0.6748 G01 F40.00
G01 X3.8924 Y-0.7244 G01 F40.00
G01 X3.9578 Y-0.7506 G01 F40.00
G01 X4.1297 Y-0.8319 G01 F40.00
G01 X4.1929 Y-0.8666 G01 F40.00
G01 X4.3192 Y-0.9422 G01 F40.00
G01 X4.3575 Y-0.9665 G01 F40.00
G01 X4.3963 Y-0.9938 G01 F40.00
G01 X4.5145 Y-1.0815 G01 F40.00
G01 X4.5666 Y-1.1230 G01 F40.00
G01 X4.6953 Y-1.2391 G01 F40.00
G01 X4.7289 Y-1.2711 G01 F40.00
G01 X4.7609 Y-1.3047 G01 F40.00
G01 X4.8770 Y-1.4334 G01 F40.00
G01 X4.9185 Y-1.4855 G01 F40.00
G01 X5.0062 Y-1.6037 G01 F40.00
G01 X5.0335 Y-1.6425 G01 F40.00
G01 X5.0578 Y-1.6808 G01 F40.00
G01 X5.1334 Y-1.8071 G01 F40.00
G01 X5.1681 Y-1.8703 G01 F40.00
G01 X5.2494 Y-2.0422 G01 F40.00
G01 X5.2756 Y-2.1076 G01 F40.00
G01 X5.3252 Y-2.2462 G01 F40.00
G01 X5.3406 Y-2.2930 G01 F40.00
G01 X5.3521 Y-2.3350 G01 F40.00
G01 X5.3937 Y-2.5024 G01 F40.00
G01 X5.4059 Y-2.5687 G01 F40.00
G01 X5.4275 Y-2.7143 G01 F40.00
G01 X5.4331 Y-2.7589 G01 F40.00
G01 X5.4366 Y-2.8066 G01 F40.00
G01 X5.4439 Y-2.9536 G01 F40.00
G00 Z2.0000
G00 X9.8260 Y-14.6497
G01 F9.00
G01 Z-0.0450
G01 F40.00
G01 X9.6875 Y-14.4972 G01 F40.00
G01 X9.6721 Y-14.4779 G01 F40.00
G01 X9.5450 Y-14.3058 G01 F40.00
G01 X9.4351 Y-14.1232 G01 F40.00
G01 X9.4222 Y-14.0998 G01 F40.00
G01 X9.3315 Y-13.9079 G01 F40.00
G01 X9.3218 Y-13.8837 G01 F40.00
G01 X9.2499 Y-13.6814 G01 F40.00
G01 X9.1958 Y-13.4663 G01 F40.00
G01 X9.1912 Y-13.4417 G01 F40.00
G01 X9.1604 Y-13.2310 G01 F40.00
G01 X9.1490 Y-13.0000 G01 F40.00
G01 X9.1604 Y-12.7690 G01 F40.00
G01 X9.1912 Y-12.5583 G01 F40.00
G01 X9.1958 Y-12.5337 G01 F40.00
G01 X9.2499 Y-12.3186 G01 F40.00
G01 X9.3218 Y-12.1163 G01 F40.00
G01 X9.3315 Y-12.0921 G01 F40.00
G01 X9.4222 Y-11.9002 G01 F40.00
G01 X9.4351 Y-11.8768 G01 F40.00
G01 X9.5450 Y-11.6942 G01 F40.00
G01 X9.6721 Y-11.5221 G01 F40.00
G01 X9.6875 Y-11.5028 G01 F40.00
G01 X9.8257 Y-11.3500 G01 F40.00
G01 X9.8500 Y-11.3257 G01 F40.00
G01 X10.0028 Y-11.1875 G01 F40.00
G01 X10.0221 Y-11.1721 G01 F40.00
G01 X10.1942 Y-11.0450 G01 F40.00
G01 X10.3768 Y-10.9351 G01 F40.00
G01 X10.4002 Y-10.9222 G01 F40.00
G01 X10.5846 Y-10.8349 G01 F40.00
G01 X10.6163 Y-10.8218 G01 F40.00
G01 X10.8012 Y-10.7556 G01 F40.00
G01 X10.8341 Y-10.7457 G01 F40.00
G01 X11.0337 Y-10.6958 G01 F40.00
G01 X11.0583 Y-10.6912 G01 F40.00
G01 X11.2525 Y-10.6624 G01 F40.00
G01 X11.2867 Y-10.6591 G01 F40.00
G01 X11.5000 Y-10.6490 G01 F40.00
G01 X11.7310 Y-10.6604 G01 F40.00
G01 X11.9417 Y-10.6912 G01 F40.00
G01 X11.9663 Y-10.6958 G01 F40.00
G01 X12.1814 Y-10.7499 G01 F40.00
G01 X12.3837 Y-10.8218 G01 F40.00
G01 X12.4079 Y-10.8315 G01 F40.00
G01 X12.5998 Y-10.9222 G01 F40.00
G01 X12.6232 Y-10.9351 G01 F40.00
G01 X12.8058 Y-11.0450 G01 F40.00
G01 X12.9779 Y-11.1721 G01 F40.00
G01 X12.9972 Y-11.1875 G01 F40.00
G01 X13.1624 Y-11.3376 G01 F40.00
G01 X20.1624 Y-18.3376 G01 F40.00
G01 X20.3061 Y-18.4955 G01 F40.00
G01 X20.3279 Y-18.5221 G01 F40.00
G01 X20.4550 Y-18.6942 G01 F40.00
G01 X20.5649 Y-18.8768 G01 F40.00
G01 X20.5811 Y-18.9071 G01 F40.00
G01 X20.6685 Y-19.0921 G01 F40.00
G01 X20.6782 Y-19.1163 G01 F40.00
G01 X20.7501 Y-19.3186 G01 F40.00
G01 X20.8042 Y-19.5337 G01 F40.00
G01 X20.8088 Y-19.5583 G01 F40.00
G01 X20.8396 Y-19.7690 G01 F40.00
G01 X20.8510 Y-20.0000 G01 F40.00
G01 X20.8510 Y-22.0000 G01 F40.00
G01 X20.8409 Y-22.2133 G01 F40.00
G01 X20.8376 Y-22.2475 G01 F40.00
G01 X20.8088 Y-22.4417 G01 F40.00
G01 X20.8021 Y-22.4754 G01 F40.00
G01 X20.7501 Y-22.6814 G01 F40.00
G01 X20.6782 Y-22.8837 G01 F40.00
G01 X20.6685 Y-22.9079 G01 F40.00
G01 X20.5778 Y-23.0998 G01 F40.00
G01 X20.5649 Y-23.1232 G01 F40.00
G01 X20.4640 Y-23.2916 G01 F40.00
G01 X20.4449 Y-23.3202 G01 F40.00
G01 X20.3279 Y-23.4779 G01 F40.00
G01 X20.3125 Y-23.4972 G01 F40.00
G01 X20.1624 Y-23.6624 G01 F40.00
G01 X19.9972 Y-23.8125 G01 F40.00
G01 X19.9779 Y-23.8279 G01 F40.00
G01 X19.8058 Y-23.9550 G01 F40.00
G01 X19.6232 Y-24.0649 G01 F40.00
G01 X19.5998 Y-24.0778 G01 F40.00
G01 X19.4079 Y-24.1685 G01 F40.00
G01 X19.3837 Y-24.1782 G01 F40.00
G01 X19.1814 Y-24.2501 G01 F40.00
G01 X18.9663 Y-24.3042 G01 F40.00
G01 X18.9417 Y-24.3088 G01 F40.00
G01 X18.7310 Y-24.3396 G01 F40.00
G01 X18.5000 Y-24.3510 G01 F40.00
G01 X18.2690 Y-24.3396 G01 F40.00
G01 X18.0583 Y-24.3088 G01 F40.00
G01 X18.0337 Y-24.3042 G01 F40.00
G01 X17.8186 Y-24.2501 G01 F40.00
G01 X17.6163 Y-24.1782 G01 F40.00
G01 X17.5921 Y-24.1685 G01 F40.00
G01 X17.4002 Y-24.0778 G01 F40.00
G01 X17.3768 Y-24.0649 G01 F40.00
G01 X17.1942 Y-23.9550 G01 F40.00
G01 X17.0221 Y-23.8279 G01 F40.00
G01 X17.0028 Y-23.8125 G01 F40.00
G01 X16.8376 Y-23.6624 G01 F40.00
G01 X16.6939 Y-23.5045 G01 F40.00
G01 X16.6721 Y-23.4779 G01 F40.00
G01 X16.5450 Y-23.3058 G01 F40.00
G01 X16.4351 Y-23.1232 G01 F40.00
G01 X16.4222 Y-23.0998 G01 F40.00
G01 X16.3349 Y-22.9154 G01 F40.00
G01 X16.3218 Y-22.8837 G01 F40.00
G01 X16.2499 Y-22.6814 G01 F40.00
G01 X16.1958 Y-22.4663 G01 F40.00
G01 X16.1912 Y-22.4417 G01 F40.00
G01 X16.1624 Y-22.2475 G01 F40.00
G01 X16.1591 Y-22.2133 G01 F40.00
G01 X16.1490 Y-22.0000 G01 F40.00
G01 X16.1490 Y-20.9738 G01 F40.00
G01 X9.8376 Y-14.6624 G01 F40.00
G01 X9.8260 Y-14.6497 G01 F40.00
G00 Z2.0000
G00 X9.3857 Y-15.0488
G01 F9.00
G01 Z-0.0450
G01 F40.00
G01 X9.3849 Y-15.0495 G01 F40.00
G01 X9.2357 Y-14.8844 G01 F40.00
G01 X9.1942 Y-14.8324 G01 F40.00
G01 X9.0772 Y-14.6746 G01 F40.00
G01 X9.0499 Y-14.6359 G01 F40.00
G01 X9.0257 Y-14.5975 G01 F40.00
G01 X8.9247 Y-14.4291 G01 F40.00
G01 X8.8900 Y-14.3659 G01 F40.00
G01 X8.7878 Y-14.1496 G01 F40.00
G01 X8.7616 Y-14.0841 G01 F40.00
G01 X8.6954 Y-13.8992 G01 F40.00
G01 X8.6800 Y-13.8524 G01 F40.00
G01 X8.6685 Y-13.8105 G01 F40.00
G01 X8.6150 Y-13.5954 G01 F40.00
G01 X8.6027 Y-13.5290 G01 F40.00
G01 X8.5739 Y-13.3348 G01 F40.00
G01 X8.5683 Y-13.2902 G01 F40.00
G01 X8.5648 Y-13.2425 G01 F40.00
G01 X8.5551 Y-13.0464 G01 F40.00
G01 X8.5540 Y-13.0000 G01 F40.00
G01 X8.5551 Y-12.9536 G01 F40.00
G01 X8.5648 Y-12.7575 G01 F40.00
G01 X8.5683 Y-12.7098 G01 F40.00
G01 X8.5739 Y-12.6652 G01 F40.00
G01 X8.6027 Y-12.4710 G01 F40.00
G01 X8.6150 Y-12.4046 G01 F40.00
G01 X8.6685 Y-12.1895 G01 F40.00
G01 X8.6800 Y-12.1476 G01 F40.00
G01 X8.6954 Y-12.1008 G01 F40.00
G01 X8.7616 Y-11.9159 G01 F40.00
G01 X8.7878 Y-11.8504 G01 F40.00
G01 X8.8900 Y-11.6341 G01 F40.00
G01 X8.9247 Y-11.5709 G01 F40.00
G01 X9.0257 Y-11.4025 G01 F40.00
G01 X9.0499 Y-11.3641 G01 F40.00
G01 X9.0772 Y-11.3254 G01 F40.00
G01 X9.1942 Y-11.1676 G01 F40.00
G01 X9.2357 Y-11.1156 G01 F40.00
G01 X9.2530 Y-11.0960 G01 F40.00
G01 X9.3849 Y-10.9505 G01 F40.00
G01 X9.4169 Y-10.9169 G01 F40.00
G01 X9.4505 Y-10.8849 G01 F40.00
G01 X9.6156 Y-10.7357 G01 F40.00
G01 X9.6676 Y-10.6942 G01 F40.00
G01 X9.8254 Y-10.5772 G01 F40.00
G01 X9.8641 Y-10.5499 G01 F40.00
G01 X9.9025 Y-10.5257 G01 F40.00
G01 X10.0709 Y-10.4247 G01 F40.00
G01 X10.1341 Y-10.3900 G01 F40.00
G01 X10.3504 Y-10.2878 G01 F40.00
G01 X10.4159 Y-10.2616 G01 F40.00
G01 X10.6008 Y-10.1954 G01 F40.00
G01 X10.6476 Y-10.1800 G01 F40.00
G01 X10.6895 Y-10.1685 G01 F40.00
G01 X10.9046 Y-10.1150 G01 F40.00
G01 X10.9710 Y-10.1027 G01 F40.00
G01 X11.1652 Y-10.0739 G01 F40.00
G01 X11.2098 Y-10.0683 G01 F40.00
G01 X11.2575 Y-10.0648 G01 F40.00
G01 X11.4536 Y-10.0551 G01 F40.00
G01 X11.5000 Y-10.0540 G01 F40.00
G01 X11.5464 Y-10.0551 G01 F40.00
G01 X11.7425 Y-10.0648 G01 F40.00
G01 X11.7902 Y-10.0683 G01 F40.00
G01 X11.8348 Y-10.0739 G01 F40.00
G01 X12.0290 Y-10.1027 G01 F40.00
G01 X12.0954 Y-10.1150 G01 F40.00
G01 X12.3105 Y-10.1685 G01 F40.00
G01 X12.3524 Y-10.1800 G01 F40.00
G01 X12.3992 Y-10.1954 G01 F40.00
G01 X12.5841 Y-10.2616 G01 F40.00
G01 X12.6496 Y-10.2878 G01 F40.00
G01 X12.8659 Y-10.3900 G01 F40.00
G01 X12.9291 Y-10.4247 G01 F40.00
G01 X13.0975 Y-10.5257 G01 F40.00
G01 X13.1359 Y-10.5499 G01 F40.00
G01 X13.1746 Y-10.5772 G01 F40.00
G01 X13.3324 Y-10.6942 G01 F40.00
G01 X13.3844 Y-10.7357 G01 F40.00
G01 X13.4040 Y-10.7530 G01 F40.00
G01 X13.5495 Y-10.8849 G01 F40.00
G01 X13.5488 Y-10.8857 G01 F40.00
G01 X13.5831 Y-10.9169 G01 F40.00
G01 X20.5831 Y-17.9169 G01 F40.00
G01 X20.6151 Y-17.9505 G01 F40.00
G01 X20.7470 Y-18.0960 G01 F40.00
G01 X20.7643 Y-18.1156 G01 F40.00
G01 X20.8058 Y-18.1676 G01 F40.00
G01 X20.9228 Y-18.3254 G01 F40.00
G01 X20.9501 Y-18.3641 G01 F40.00
G01 X20.9743 Y-18.4025 G01 F40.00
G01 X21.0753 Y-18.5709 G01 F40.00
G01 X21.1100 Y-18.6341 G01 F40.00
G01 X21.2122 Y-18.8504 G01 F40.00
G01 X21.2384 Y-18.9159 G01 F40.00
G01 X21.3046 Y-19.1008 G01 F40.00
G01 X21.3200 Y-19.1476 G01 F40.00
G01 X21.3315 Y-19.1895 G01 F40.00
G01 X21.3850 Y-19.4046 G01 F40.00
G01 X21.3973 Y-19.4710 G01 F40.00
G01 X21.4261 Y-19.6652 G01 F40.00
G01 X21.4317 Y-19.7098 G01 F40.00
G01 X21.4352 Y-19.7575 G01 F40.00
G01 X21.4449 Y-19.9536 G01 F40.00
G01 X21.4460 Y-20.0000 G01 F40.00
G01 X21.4460 Y-22.0000 G01 F40.00
G01 X21.4449 Y-22.0464 G01 F40.00
G01 X21.4352 Y-22.2425 G01 F40.00
G01 X21.4317 Y-22.2902 G01 F40.00
G01 X21.4261 Y-22.3348 G01 F40.00
G01 X21.3973 Y-22.5290 G01 F40.00
G01 X21.3850 Y-22.5954 G01 F40.00
G01 X21.3315 Y-22.8105 G01 F40.00
G01 X21.3200 Y-22.8524 G01 F40.00
G01 X21.3046 Y-22.8992 G01 F40.00
G01 X21.2384 Y-23.0841 G01 F40.00
G01 X21.2122 Y-23.1496 G01 F40.00
G01 X21.2030 Y-23.1698 G01 F40.00
G01 X21.1100 Y-23.3659 G01 F40.00
G01 X21.0753 Y-23.4291 G01 F40.00
G01 X20.9743 Y-23.5975 G01 F40.00
G01 X20.9501 Y-23.6359 G01 F40.00
G01 X20.9228 Y-23.6746 G01 F40.00
G01 X20.8058 Y-23.8324 G01 F40.00
G01 X20.7643 Y-23.8844 G01 F40.00
G01 X20.7470 Y-23.9040 G01 F40.00
G01 X20.6151 Y-24.0495 G01 F40.00
G01 X20.5831 Y-24.0831 G01 F40.00
G01 X20.5495 Y-24.1151 G01 F40.00
G01 X20.3844 Y-24.2643 G01 F40.00
G01 X20.3324 Y-24.3058 G01 F40.00
G01 X20.1746 Y-24.4228 G01 F40.00
G01 X20.1359 Y-24.4501 G01 F40.00
G01 X20.0975 Y-24.4743 G01 F40.00
G01 X19.9291 Y-24.5753 G01 F40.00
G01 X19.8659 Y-24.6100 G01 F40.00
G01 X19.6496 Y-24.7122 G01 F40.00
G01 X19.5841 Y-24.7384 G01 F40.00
G01 X19.3992 Y-24.8046 G01 F40.00
G01 X19.3524 Y-24.8200 G01 F40.00
G01 X19.3105 Y-24.8315 G01 F40.00
G01 X19.0954 Y-24.8850 G01 F40.00
G01 X19.0290 Y-24.8973 G01 F40.00
G01 X18.8348 Y-24.9261 G01 F40.00
G01 X18.7902 Y-24.9317 G01 F40.00
G01 X18.7425 Y-24.9352 G01 F40.00
G01 X18.5464 Y-24.9449 G01 F40.00
G01 X18.5000 Y-24.9460 G01 F40.00
G01 X18.4536 Y-24.9449 G01 F40.00
G01 X18.2575 Y-24.9352 G01 F40.00
G01 X18.2098 Y-24.9317 G01 F40.00
G01 X18.1652 Y-24.9261 G01 F40.00
G01 X17.9710 Y-24.8973 G01 F40.00
G01 X17.9046 Y-24.8850 G01 F40.00
G01 X17.6895 Y-24.8315 G01 F40.00
G01 X17.6476 Y-24.8200 G01 F40.00
G01 X17.6008 Y-24.8046 G01 F40.00
G01 X17.4159 Y-24.7384 G01 F40.00
G01 X17.3504 Y-24.7122 G01 F40.00
G01 X17.1341 Y-24.6100 G01 F40.00
G01 X17.0709 Y-24.5753 G01 F40.00
G01 X16.9025 Y-24.4743 G01 F40.00
G01 X16.8641 Y-24.4501 G01 F40.00
G01 X16.8254 Y-24.4228 G01 F40.00
G01 X16.6676 Y-24.3058 G01 F40.00
G01 X16.6156 Y-24.2643 G01 F40.00
G01 X16.5960 Y-24.2470 G01 F40.00
G01 X16.4505 Y-24.1151 G01 F40.00
G01 X16.4169 Y-24.0831 G01 F40.00
G01 X16.3849 Y-24.0495 G01 F40.00
G01 X16.2357 Y-23.8844 G01 F40.00
G01 X16.1942 Y-23.8324 G01 F40.00
G01 X16.0772 Y-23.6746 G01 F40.00
G01 X16.0499 Y-23.6359 G01 F40.00
G01 X16.0257 Y-23.5975 G01 F40.00
G01 X15.9247 Y-23.4291 G01 F40.00
G01 X15.8900 Y-23.3659 G01 F40.00
G01 X15.7878 Y-23.1496 G01 F40.00
G01 X15.7616 Y-23.0841 G01 F40.00
G01 X15.6954 Y-22.8992 G01 F40.00
G01 X15.6800 Y-22.8524 G01 F40.00
G01 X15.6685 Y-22.8105 G01 F40.00
G01 X15.6208 Y-22.6200 G01 F40.00
G01 X15.6150 Y-22.5954 G01 F40.00
G01 X15.6027 Y-22.5290 G01 F40.00
G01 X15.5739 Y-22.3348 G01 F40.00
G01 X15.5683 Y-22.2902 G01 F40.00
G01 X15.5648 Y-22.2425 G01 F40.00
G01 X15.5551 Y-22.0464 G01 F40.00
G01 X15.5540 Y-22.0000 G01 F40.00
G01 X15.5540 Y-21.2203 G01 F40.00
G01 X9.4169 Y-15.0831 G01 F40.00
G01 X9.3857 Y-15.0488 G01 F40.00
G00 Z2.0000
G00 X2.1494 Y-25.0172
G01 F9.00
G01 Z-0.0450
G01 F40.00
G01 X2.1490 Y-14.0000 G01 F40.00
G01 X2.1604 Y-13.7690 G01 F40.00
G01 X2.1912 Y-13.5583 G01 F40.00
G01 X2.1979 Y-13.5246 G01 F40.00
G01 X2.2499 Y-13.3186 G01 F40.00
G01 X2.3218 Y-13.1163 G01 F40.00
G01 X2.3349 Y-13.0846 G01 F40.00
G01 X2.4222 Y-12.9002 G01 F40.00
G01 X2.4351 Y-12.8768 G01 F40.00
G01 X2.5360 Y-12.7084 G01 F40.00
G01 X2.5551 Y-12.6798 G01 F40.00
G01 X2.6721 Y-12.5221 G01 F40.00
G01 X2.6875 Y-12.5028 G01 F40.00
G01 X2.8257 Y-12.3500 G01 F40.00
G01 X3.8376 Y-11.3376 G01 F40.00
G01 X3.9955 Y-11.1939 G01 F40.00
G01 X4.0221 Y-11.1721 G01 F40.00
G01 X4.1942 Y-11.0450 G01 F40.00
G01 X4.3768 Y-10.9351 G01 F40.00
G01 X4.4002 Y-10.9222 G01 F40.00
G01 X4.5846 Y-10.8349 G01 F40.00
G01 X4.6163 Y-10.8218 G01 F40.00
G01 X4.8012 Y-10.7556 G01 F40.00
G01 X4.8341 Y-10.7457 G01 F40.00
G01 X4.8772 Y-10.7349 G01 F40.00
G01 X5.1696 Y-10.4424 G01 F40.00
G01 X5.1839 Y-10.4024 G01 F40.00
G01 X5.1937 Y-10.3781 G01 F40.00
G01 X5.2634 Y-10.2306 G01 F40.00
G01 X5.2763 Y-10.2072 G01 F40.00
G01 X5.3610 Y-10.0667 G01 F40.00
G01 X5.4588 Y-9.9340 G01 F40.00
G01 X5.4742 Y-9.9148 G01 F40.00
G01 X5.5913 Y-9.7859 G01 F40.00
G01 X13.2984 Y-2.0795 G01 F40.00
G01 X13.4148 Y-1.9742 G01 F40.00
G01 X13.4340 Y-1.9588 G01 F40.00
G01 X13.5667 Y-1.8610 G01 F40.00
G01 X13.7072 Y-1.7763 G01 F40.00
G01 X13.7306 Y-1.7634 G01 F40.00
G01 X13.8781 Y-1.6937 G01 F40.00
G01 X13.9024 Y-1.6839 G01 F40.00
G01 X14.0584 Y-1.6286 G01 F40.00
G01 X14.2259 Y-1.5864 G01 F40.00
G01 X14.2505 Y-1.5819 G01 F40.00
G01 X14.4127 Y-1.5582 G01 F40.00
G01 X14.5946 Y-1.5492 G01 F40.00
G01 X54.4054 Y-1.5492 G01 F40.00
G01 X54.5873 Y-1.5582 G01 F40.00
G01 X54.7495 Y-1.5819 G01 F40.00
G01 X54.7741 Y-1.5864 G01 F40.00
G01 X54.9416 Y-1.6286 G01 F40.00
G01 X55.0976 Y-1.6839 G01 F40.00
G01 X55.1219 Y-1.6937 G01 F40.00
G01 X55.2694 Y-1.7634 G01 F40.00
G01 X55.2928 Y-1.7763 G01 F40.00
G01 X55.4333 Y-1.8610 G01 F40.00
G01 X55.5660 Y-1.9588 G01 F40.00
G01 X55.5852 Y-1.9742 G01 F40.00
G01 X55.7016 Y-2.0795 G01 F40.00
G01 X58.4087 Y-4.7859 G01 F40.00
G01 X58.5194 Y-4.9075 G01 F40.00
G01 X58.5412 Y-4.9340 G01 F40.00
G01 X58.6390 Y-5.0667 G01 F40.00
G01 X58.7237 Y-5.2072 G01 F40.00
G01 X58.7399 Y-5.2375 G01 F40.00
G01 X58.8063 Y-5.3781 G01 F40.00
G01 X58.8161 Y-5.4024 G01 F40.00
G01 X58.8657 Y-5.5410 G01 F40.00
G01 X58.8756 Y-5.5739 G01 F40.00
G01 X58.9136 Y-5.7259 G01 F40.00
G01 X58.9181 Y-5.7505 G01 F40.00
G01 X58.9397 Y-5.8961 G01 F40.00
G01 X58.9431 Y-5.9303 G01 F40.00
G01 X58.9508 Y-6.0946 G01 F40.00
G01 X58.9508 Y-15.9054 G01 F40.00
G01 X58.9418 Y-16.0873 G01 F40.00
G01 X58.9181 Y-16.2495 G01 F40.00
G01 X58.9136 Y-16.2741 G01 F40.00
G01 X58.8756 Y-16.4261 G01 F40.00
G01 X58.8657 Y-16.4590 G01 F40.00
G01 X58.8161 Y-16.5976 G01 F40.00
G01 X58.8063 Y-16.6219 G01 F40.00
G01 X58.7366 Y-16.7694 G01 F40.00
G01 X58.7237 Y-16.7928 G01 F40.00
G01 X58.6480 Y-16.9191 G01 F40.00
G01 X58.6290 Y-16.9477 G01 F40.00
G01 X58.5412 Y-17.0660 G01 F40.00
G01 X58.5258 Y-17.0852 G01 F40.00
G01 X58.4205 Y-17.2016 G01 F40.00
G01 X55.7141 Y-19.9087 G01 F40.00
G01 X55.5852 Y-20.0258 G01 F40.00
G01 X55.5660 Y-20.0412 G01 F40.00
G01 X55.4477 Y-20.1290 G01 F40.00
G01 X55.4191 Y-20.1480 G01 F40.00
G01 X55.2928 Y-20.2237 G01 F40.00
G01 X55.2694 Y-20.2366 G01 F40.00
G01 X55.1219 Y-20.3063 G01 F40.00
G01 X55.0976 Y-20.3161 G01 F40.00
G01 X54.9590 Y-20.3657 G01 F40.00
G01 X54.9261 Y-20.3756 G01 F40.00
G01 X54.7832 Y-20.4114 G01 F40.00
G01 X54.7495 Y-20.4181 G01 F40.00
G01 X54.5873 Y-20.4418 G01 F40.00
G01 X54.4226 Y-20.4503 G01 F40.00
G01 X50.8510 Y-20.4508 G01 F40.00
G01 X50.8510 Y-20.6490 G01 F40.00
G01 X51.5172 Y-20.6494 G01 F40.00
G01 X51.7310 Y-20.6604 G01 F40.00
G01 X51.9417 Y-20.6912 G01 F40.00
G01 X51.9663 Y-20.6958 G01 F40.00
G01 X52.1814 Y-20.7499 G01 F40.00
G01 X52.3837 Y-20.8218 G01 F40.00
G01 X52.4079 Y-20.8315 G01 F40.00
G01 X52.5998 Y-20.9222 G01 F40.00
G01 X52.6232 Y-20.9351 G01 F40.00
G01 X52.7916 Y-21.0360 G01 F40.00
G01 X52.8202 Y-21.0551 G01 F40.00
G01 X52.9779 Y-21.1721 G01 F40.00
G01 X52.9972 Y-21.1875 G01 F40.00
G01 X53.1624 Y-21.3376 G01 F40.00
G01 X56.4738 Y-24.6490 G01 F40.00
G01 X58.0262 Y-24.6490 G01 F40.00
G01 X59.3376 Y-23.3376 G01 F40.00
G01 X59.4955 Y-23.1939 G01 F40.00
G01 X59.5221 Y-23.1721 G01 F40.00
G01 X59.6798 Y-23.0551 G01 F40.00
G01 X59.7084 Y-23.0360 G01 F40.00
G01 X59.8768 Y-22.9351 G01 F40.00
G01 X59.9002 Y-22.9222 G01 F40.00
G01 X60.0846 Y-22.8349 G01 F40.00
G01 X60.1163 Y-22.8218 G01 F40.00
G01 X60.3186 Y-22.7499 G01 F40.00
G01 X60.5246 Y-22.6979 G01 F40.00
G01 X60.5583 Y-22.6912 G01 F40.00
G01 X60.7690 Y-22.6604 G01 F40.00
G01 X61.0000 Y-22.6490 G01 F40.00
G01 X64.5172 Y-22.6494 G01 F40.00
G01 X64.7310 Y-22.6604 G01 F40.00
G01 X64.9417 Y-22.6912 G01 F40.00
G01 X64.9663 Y-22.6958 G01 F40.00
G01 X65.1814 Y-22.7499 G01 F40.00
G01 X65.3837 Y-22.8218 G01 F40.00
G01 X65.4079 Y-22.8315 G01 F40.00
G01 X65.5998 Y-22.9222 G01 F40.00
G01 X65.6232 Y-22.9351 G01 F40.00
G01 X65.8058 Y-23.0450 G01 F40.00
G01 X65.9779 Y-23.1721 G01 F40.00
G01 X65.9972 Y-23.1875 G01 F40.00
G01 X66.1624 Y-23.3376 G01 F40.00
G01 X66.3125 Y-23.5028 G01 F40.00
G01 X66.3279 Y-23.5221 G01 F40.00
G01 X66.4550 Y-23.6942 G01 F40.00
G01 X66.5649 Y-23.8768 G01 F40.00
G01 X66.5778 Y-23.9002 G01 F40.00
G01 X66.6685 Y-24.0921 G01 F40.00
G01 X66.6782 Y-24.1163 G01 F40.00
G01 X66.7501 Y-24.3186 G01 F40.00
G01 X66.8042 Y-24.5337 G01 F40.00
G01 X66.8088 Y-24.5583 G01 F40.00
G01 X66.8396 Y-24.7690 G01 F40.00
G01 X66.8510 Y-25.0000 G01 F40.00
G01 X66.8409 Y-25.2133 G01 F40.00
G01 X66.8376 Y-25.2475 G01 F40.00
G01 X66.8088 Y-25.4417 G01 F40.00
G01 X66.8042 Y-25.4663 G01 F40.00
G01 X66.7543 Y-25.6659 G01 F40.00
G01 X66.7444 Y-25.6988 G01 F40.00
G01 X66.6782 Y-25.8837 G01 F40.00
G01 X66.6685 Y-25.9079 G01 F40.00
G01 X66.5811 Y-26.0929 G01 F40.00
G01 X66.5649 Y-26.1232 G01 F40.00
G01 X66.4550 Y-26.3058 G01 F40.00
G01 X66.3279 Y-26.4779 G01 F40.00
G01 X66.3061 Y-26.5045 G01 F40.00
G01 X66.1624 Y-26.6624 G01 F40.00
G01 X66.0045 Y-26.8061 G01 F40.00
G01 X65.9779 Y-26.8279 G01 F40.00
G01 X65.8058 Y-26.9550 G01 F40.00
G01 X65.6232 Y-27.0649 G01 F40.00
G01 X65.5929 Y-27.0811 G01 F40.00
G01 X65.4079 Y-27.1685 G01 F40.00
G01 X65.3837 Y-27.1782 G01 F40.00
G01 X65.1814 Y-27.2501 G01 F40.00
G01 X64.9663 Y-27.3042 G01 F40.00
G01 X64.9417 Y-27.3088 G01 F40.00
G01 X64.7310 Y-27.3396 G01 F40.00
G01 X64.5000 Y-27.3510 G01 F40.00
G01 X61.9738 Y-27.3510 G01 F40.00
G01 X60.6624 Y-28.6624 G01 F40.00
G01 X60.4972 Y-28.8125 G01 F40.00
G01 X60.4779 Y-28.8279 G01 F40.00
G01 X60.3058 Y-28.9550 G01 F40.00
G01 X60.1232 Y-29.0649 G01 F40.00
G01 X60.0998 Y-29.0778 G01 F40.00
G01 X59.9079 Y-29.1685 G01 F40.00
G01 X59.8837 Y-29.1782 G01 F40.00
G01 X59.6988 Y-29.2444 G01 F40.00
G01 X59.6659 Y-29.2543 G01 F40.00
G01 X59.4754 Y-29.3021 G01 F40.00
G01 X59.4417 Y-29.3088 G01 F40.00
G01 X59.2310 Y-29.3396 G01 F40.00
G01 X59.0000 Y-29.3510 G01 F40.00
G01 X55.5000 Y-29.3510 G01 F40.00
G01 X55.2867 Y-29.3409 G01 F40.00
G01 X55.2525 Y-29.3376 G01 F40.00
G01 X55.0583 Y-29.3088 G01 F40.00
G01 X55.0337 Y-29.3042 G01 F40.00
G01 X54.8341 Y-29.2543 G01 F40.00
G01 X54.8012 Y-29.2444 G01 F40.00
G01 X54.6163 Y-29.1782 G01 F40.00
G01 X54.5921 Y-29.1685 G01 F40.00
G01 X54.4002 Y-29.0778 G01 F40.00
G01 X54.3768 Y-29.0649 G01 F40.00
G01 X54.1942 Y-28.9550 G01 F40.00
G01 X54.0221 Y-28.8279 G01 F40.00
G01 X53.9955 Y-28.8061 G01 F40.00
G01 X53.8376 Y-28.6624 G01 F40.00
G01 X50.5262 Y-25.3510 G01 F40.00
G01 X48.5000 Y-25.3510 G01 F40.00
G01 X48.2690 Y-25.3396 G01 F40.00
G01 X48.0583 Y-25.3088 G01 F40.00
G01 X48.0337 Y-25.3042 G01 F40.00
G01 X47.8341 Y-25.2543 G01 F40.00
G01 X47.8012 Y-25.2444 G01 F40.00
G01 X47.6163 Y-25.1782 G01 F40.00
G01 X47.5921 Y-25.1685 G01 F40.00
G01 X47.4002 Y-25.0778 G01 F40.00
G01 X47.3768 Y-25.0649 G01 F40.00
G01 X47.2084 Y-24.9640 G01 F40.00
G01 X47.1798 Y-24.9449 G01 F40.00
G01 X47.0221 Y-24.8279 G01 F40.00
G01 X47.0028 Y-24.8125 G01 F40.00
G01 X46.8376 Y-24.6624 G01 F40.00
G01 X46.6875 Y-24.4972 G01 F40.00
G01 X46.6721 Y-24.4779 G01 F40.00
G01 X46.5551 Y-24.3202 G01 F40.00
G01 X46.5360 Y-24.2916 G01 F40.00
G01 X46.4351 Y-24.1232 G01 F40.00
G01 X46.4222 Y-24.0998 G01 F40.00
G01 X46.3315 Y-23.9079 G01 F40.00
G01 X46.3218 Y-23.8837 G01 F40.00
G01 X46.2556 Y-23.6988 G01 F40.00
G01 X46.2457 Y-23.6659 G01 F40.00
G01 X46.1958 Y-23.4663 G01 F40.00
G01 X46.1912 Y-23.4417 G01 F40.00
G01 X46.1604 Y-23.2310 G01 F40.00
G01 X46.1490 Y-23.0000 G01 F40.00
G01 X46.1490 Y-20.9738 G01 F40.00
G01 X41.5262 Y-16.3510 G01 F40.00
G01 X30.5000 Y-16.3510 G01 F40.00
G01 X30.2690 Y-16.3396 G01 F40.00
G01 X30.0583 Y-16.3088 G01 F40.00
G01 X30.0337 Y-16.3042 G01 F40.00
G01 X29.8341 Y-16.2543 G01 F40.00
G01 X29.8012 Y-16.2444 G01 F40.00
G01 X29.6163 Y-16.1782 G01 F40.00
G01 X29.5921 Y-16.1685 G01 F40.00
G01 X29.4071 Y-16.0811 G01 F40.00
G01 X29.3768 Y-16.0649 G01 F40.00
G01 X29.1942 Y-15.9550 G01 F40.00
G01 X29.0221 Y-15.8279 G01 F40.00
G01 X28.9955 Y-15.8061 G01 F40.00
G01 X28.8500 Y-15.6743 G01 F40.00
G01 X28.8257 Y-15.6500 G01 F40.00
G01 X28.6875 Y-15.4972 G01 F40.00
G01 X28.6721 Y-15.4779 G01 F40.00
G01 X28.5551 Y-15.3202 G01 F40.00
G01 X28.5360 Y-15.2916 G01 F40.00
G01 X28.4351 Y-15.1232 G01 F40.00
G01 X28.4222 Y-15.0998 G01 F40.00
G01 X28.3349 Y-14.9154 G01 F40.00
G01 X28.3218 Y-14.8837 G01 F40.00
G01 X28.2556 Y-14.6988 G01 F40.00
G01 X28.2457 Y-14.6659 G01 F40.00
G01 X28.1958 Y-14.4663 G01 F40.00
G01 X28.1912 Y-14.4417 G01 F40.00
G01 X28.1624 Y-14.2475 G01 F40.00
G01 X28.1591 Y-14.2133 G01 F40.00
G01 X28.1490 Y-14.0000 G01 F40.00
G01 X28.1591 Y-13.7867 G01 F40.00
G01 X28.1624 Y-13.7525 G01 F40.00
G01 X28.1912 Y-13.5583 G01 F40.00
G01 X28.1958 Y-13.5337 G01 F40.00
G01 X28.2499 Y-13.3186 G01 F40.00
G01 X28.3218 Y-13.1163 G01 F40.00
G01 X28.3315 Y-13.0921 G01 F40.00
G01 X28.4222 Y-12.9002 G01 F40.00
G01 X28.4351 Y-12.8768 G01 F40.00
G01 X28.5450 Y-12.6942 G01 F40.00
G01 X28.6721 Y-12.5221 G01 F40.00
G01 X28.6875 Y-12.5028 G01 F40.00
G01 X28.8376 Y-12.3376 G01 F40.00
G01 X28.9955 Y-12.1939 G01 F40.00
G01 X29.0221 Y-12.1721 G01 F40.00
G01 X29.1798 Y-12.0551 G01 F40.00
G01 X29.2084 Y-12.0360 G01 F40.00
G01 X29.3768 Y-11.9351 G01 F40.00
G01 X29.4002 Y-11.9222 G01 F40.00
G01 X29.5846 Y-11.8349 G01 F40.00
G01 X29.6163 Y-11.8218 G01 F40.00
G01 X29.8186 Y-11.7499 G01 F40.00
G01 X30.0337 Y-11.6958 G01 F40.00
G01 X30.0583 Y-11.6912 G01 F40.00
G01 X30.2690 Y-11.6604 G01 F40.00
G01 X30.5000 Y-11.6490 G01 F40.00
G01 X42.5000 Y-11.6490 G01 F40.00
G01 X42.7133 Y-11.6591 G01 F40.00
G01 X42.7475 Y-11.6624 G01 F40.00
G01 X42.9417 Y-11.6912 G01 F40.00
G01 X42.9754 Y-11.6979 G01 F40.00
G01 X43.1814 Y-11.7499 G01 F40.00
G01 X43.3837 Y-11.8218 G01 F40.00
G01 X43.4079 Y-11.8315 G01 F40.00
G01 X43.5998 Y-11.9222 G01 F40.00
G01 X43.6232 Y-11.9351 G01 F40.00
G01 X43.7916 Y-12.0360 G01 F40.00
G01 X43.8202 Y-12.0551 G01 F40.00
G01 X43.9779 Y-12.1721 G01 F40.00
G01 X43.9972 Y-12.1875 G01 F40.00
G01 X44.1624 Y-12.3376 G01 F40.00
G01 X48.5741 Y-16.7492 G01 F40.00
G01 X53.6388 Y-16.7492 G01 F40.00
G01 X55.2492 Y-15.1388 G01 F40.00
G01 X55.2492 Y-6.8612 G01 F40.00
G01 X53.6388 Y-5.2508 G01 F40.00
G01 X15.3612 Y-5.2508 G01 F40.00
G01 X8.6304 Y-11.9816 G01 F40.00
G01 X8.6161 Y-12.0216 G01 F40.00
G01 X8.6063 Y-12.0459 G01 F40.00
G01 X8.5399 Y-12.1865 G01 F40.00
G01 X8.5237 Y-12.2168 G01 F40.00
G01 X8.4390 Y-12.3573 G01 F40.00
G01 X8.3412 Y-12.4900 G01 F40.00
G01 X8.3194 Y-12.5165 G01 F40.00
G01 X8.2087 Y-12.6381 G01 F40.00
G01 X7.8509 Y-12.9959 G01 F40.00
G01 X7.8506 Y-13.0172 G01 F40.00
G01 X7.8409 Y-13.2133 G01 F40.00
G01 X7.8376 Y-13.2475 G01 F40.00
G01 X7.8088 Y-13.4417 G01 F40.00
G01 X7.8042 Y-13.4663 G01 F40.00
G01 X7.7543 Y-13.6659 G01 F40.00
G01 X7.7444 Y-13.6988 G01 F40.00
G01 X7.6782 Y-13.8837 G01 F40.00
G01 X7.6685 Y-13.9079 G01 F40.00
G01 X7.5811 Y-14.0929 G01 F40.00
G01 X7.5649 Y-14.1232 G01 F40.00
G01 X7.4550 Y-14.3058 G01 F40.00
G01 X7.3279 Y-14.4779 G01 F40.00
G01 X7.3125 Y-14.4972 G01 F40.00
G01 X7.1624 Y-14.6624 G01 F40.00
G01 X6.8510 Y-14.9738 G01 F40.00
G01 X6.8510 Y-22.6490 G01 F40.00
G01 X11.5000 Y-22.6490 G01 F40.00
G01 X11.7133 Y-22.6591 G01 F40.00
G01 X11.7475 Y-22.6624 G01 F40.00
G01 X11.9417 Y-22.6912 G01 F40.00
G01 X11.9663 Y-22.6958 G01 F40.00
G01 X12.1659 Y-22.7457 G01 F40.00
G01 X12.1988 Y-22.7556 G01 F40.00
G01 X12.3837 Y-22.8218 G01 F40.00
G01 X12.4154 Y-22.8349 G01 F40.00
G01 X12.5998 Y-22.9222 G01 F40.00
G01 X12.6232 Y-22.9351 G01 F40.00
G01 X12.7916 Y-23.0360 G01 F40.00
G01 X12.8202 Y-23.0551 G01 F40.00
G01 X12.9779 Y-23.1721 G01 F40.00
G01 X12.9972 Y-23.1875 G01 F40.00
G01 X13.1500 Y-23.3257 G01 F40.00
G01 X14.1743 Y-24.3500 G01 F40.00
G01 X14.3125 Y-24.5028 G01 F40.00
G01 X14.3279 Y-24.5221 G01 F40.00
G01 X14.4550 Y-24.6942 G01 F40.00
G01 X14.5649 Y-24.8768 G01 F40.00
G01 X14.5778 Y-24.9002 G01 F40.00
G01 X14.6651 Y-25.0846 G01 F40.00
G01 X14.6782 Y-25.1163 G01 F40.00
G01 X14.7444 Y-25.3012 G01 F40.00
G01 X14.7543 Y-25.3341 G01 F40.00
G01 X14.8042 Y-25.5337 G01 F40.00
G01 X14.8088 Y-25.5583 G01 F40.00
G01 X14.8376 Y-25.7525 G01 F40.00
G01 X14.8409 Y-25.7867 G01 F40.00
G01 X14.8510 Y-26.0000 G01 F40.00
G01 X14.8396 Y-26.2310 G01 F40.00
G01 X14.8088 Y-26.4417 G01 F40.00
G01 X14.8021 Y-26.4754 G01 F40.00
G01 X14.7501 Y-26.6814 G01 F40.00
G01 X14.6782 Y-26.8837 G01 F40.00
G01 X14.6651 Y-26.9154 G01 F40.00
G01 X14.5778 Y-27.0998 G01 F40.00
G01 X14.5649 Y-27.1232 G01 F40.00
G01 X14.4550 Y-27.3058 G01 F40.00
G01 X14.3279 Y-27.4779 G01 F40.00
G01 X14.3061 Y-27.5045 G01 F40.00
G01 X14.1624 Y-27.6624 G01 F40.00
G01 X14.0045 Y-27.8061 G01 F40.00
G01 X13.9779 Y-27.8279 G01 F40.00
G01 X13.8058 Y-27.9550 G01 F40.00
G01 X13.6232 Y-28.0649 G01 F40.00
G01 X13.5998 Y-28.0778 G01 F40.00
G01 X13.4154 Y-28.1651 G01 F40.00
G01 X13.3837 Y-28.1782 G01 F40.00
G01 X13.1814 Y-28.2501 G01 F40.00
G01 X12.9754 Y-28.3021 G01 F40.00
G01 X12.9417 Y-28.3088 G01 F40.00
G01 X12.7310 Y-28.3396 G01 F40.00
G01 X12.5000 Y-28.3510 G01 F40.00
G01 X12.2690 Y-28.3396 G01 F40.00
G01 X12.0583 Y-28.3088 G01 F40.00
G01 X12.0246 Y-28.3021 G01 F40.00
G01 X11.8186 Y-28.2501 G01 F40.00
G01 X11.6163 Y-28.1782 G01 F40.00
G01 X11.5846 Y-28.1651 G01 F40.00
G01 X11.4002 Y-28.0778 G01 F40.00
G01 X11.3768 Y-28.0649 G01 F40.00
G01 X11.1942 Y-27.9550 G01 F40.00
G01 X11.0221 Y-27.8279 G01 F40.00
G01 X11.0028 Y-27.8125 G01 F40.00
G01 X10.8376 Y-27.6624 G01 F40.00
G01 X10.5262 Y-27.3510 G01 F40.00
G01 X4.5000 Y-27.3510 G01 F40.00
G01 X4.2690 Y-27.3396 G01 F40.00
G01 X4.0583 Y-27.3088 G01 F40.00
G01 X4.0337 Y-27.3042 G01 F40.00
G01 X3.8186 Y-27.2501 G01 F40.00
G01 X3.6163 Y-27.1782 G01 F40.00
G01 X3.5921 Y-27.1685 G01 F40.00
G01 X3.4002 Y-27.0778 G01 F40.00
G01 X3.3768 Y-27.0649 G01 F40.00
G01 X3.2084 Y-26.9640 G01 F40.00
G01 X3.1798 Y-26.9449 G01 F40.00
G01 X3.0221 Y-26.8279 G01 F40.00
G01 X2.9955 Y-26.8061 G01 F40.00
G01 X2.8376 Y-26.6624 G01 F40.00
G01 X2.6875 Y-26.4972 G01 F40.00
G01 X2.6721 Y-26.4779 G01 F40.00
G01 X2.5450 Y-26.3058 G01 F40.00
G01 X2.4351 Y-26.1232 G01 F40.00
G01 X2.4189 Y-26.0929 G01 F40.00
G01 X2.3349 Y-25.9154 G01 F40.00
G01 X2.3218 Y-25.8837 G01 F40.00
G01 X2.2499 Y-25.6814 G01 F40.00
G01 X2.1958 Y-25.4663 G01 F40.00
G01 X2.1912 Y-25.4417 G01 F40.00
G01 X2.1604 Y-25.2310 G01 F40.00
G01 X2.1494 Y-25.0172 G01 F40.00
G00 Z2.0000
G00 X1.5551 Y-25.0464
G01 F9.00
G01 Z-0.0450
G01 F40.00
G01 X1.5540 Y-25.0000 G01 F40.00
G01 X1.5540 Y-14.0000 G01 F40.00
G01 X1.5551 Y-13.9536 G01 F40.00
G01 X1.5648 Y-13.7575 G01 F40.00
G01 X1.5683 Y-13.7098 G01 F40.00
G01 X1.5739 Y-13.6652 G01 F40.00
G01 X1.6027 Y-13.4710 G01 F40.00
G01 X1.6150 Y-13.4046 G01 F40.00
G01 X1.6685 Y-13.1895 G01 F40.00
G01 X1.6800 Y-13.1476 G01 F40.00
G01 X1.6954 Y-13.1008 G01 F40.00
G01 X1.7616 Y-12.9159 G01 F40.00
G01 X1.7878 Y-12.8504 G01 F40.00
G01 X1.8900 Y-12.6341 G01 F40.00
G01 X1.9247 Y-12.5709 G01 F40.00
G01 X2.0257 Y-12.4025 G01 F40.00
G01 X2.0499 Y-12.3641 G01 F40.00
G01 X2.0772 Y-12.3254 G01 F40.00
G01 X2.1942 Y-12.1676 G01 F40.00
G01 X2.2357 Y-12.1156 G01 F40.00
G01 X2.2530 Y-12.0960 G01 F40.00
G01 X2.3849 Y-11.9505 G01 F40.00
G01 X2.3857 Y-11.9512 G01 F40.00
G01 X2.4169 Y-11.9169 G01 F40.00
G01 X3.4169 Y-10.9169 G01 F40.00
G01 X3.4505 Y-10.8849 G01 F40.00
G01 X3.6156 Y-10.7357 G01 F40.00
G01 X3.6676 Y-10.6942 G01 F40.00
G01 X3.8254 Y-10.5772 G01 F40.00
G01 X3.8641 Y-10.5499 G01 F40.00
G01 X3.9025 Y-10.5257 G01 F40.00
G01 X4.0709 Y-10.4247 G01 F40.00
G01 X4.1341 Y-10.3900 G01 F40.00
G01 X4.1527 Y-10.3810 G01 F40.00
G01 X4.3504 Y-10.2878 G01 F40.00
G01 X4.4159 Y-10.2616 G01 F40.00
G01 X4.5609 Y-10.2097 G01 F40.00
G01 X4.6636 Y-10.1070 G01 F40.00
G01 X4.7312 Y-9.9645 G01 F40.00
G01 X4.7659 Y-9.9013 G01 F40.00
G01 X4.8416 Y-9.7750 G01 F40.00
G01 X4.8659 Y-9.7366 G01 F40.00
G01 X4.8931 Y-9.6979 G01 F40.00
G01 X4.9809 Y-9.5796 G01 F40.00
G01 X5.0224 Y-9.5275 G01 F40.00
G01 X5.1386 Y-9.3988 G01 F40.00
G01 X5.1394 Y-9.3995 G01 F40.00
G01 X5.1706 Y-9.3652 G01 F40.00
G01 X12.8652 Y-1.6706 G01 F40.00
G01 X12.8988 Y-1.6386 G01 F40.00
G01 X13.0275 Y-1.5224 G01 F40.00
G01 X13.0796 Y-1.4809 G01 F40.00
G01 X13.1979 Y-1.3931 G01 F40.00
G01 X13.2366 Y-1.3659 G01 F40.00
G01 X13.2750 Y-1.3416 G01 F40.00
G01 X13.4013 Y-1.2659 G01 F40.00
G01 X13.4645 Y-1.2312 G01 F40.00
G01 X13.6365 Y-1.1499 G01 F40.00
G01 X13.7019 Y-1.1237 G01 F40.00
G01 X13.8406 Y-1.0741 G01 F40.00
G01 X13.8874 Y-1.0587 G01 F40.00
G01 X13.9293 Y-1.0472 G01 F40.00
G01 X14.0968 Y-1.0056 G01 F40.00
G01 X14.1632 Y-0.9933 G01 F40.00
G01 X14.3088 Y-0.9717 G01 F40.00
G01 X14.3535 Y-0.9662 G01 F40.00
G01 X14.4011 Y-0.9626 G01 F40.00
G01 X14.5482 Y-0.9554 G01 F40.00
G01 X14.5946 Y-0.9542 G01 F40.00
G01 X54.4054 Y-0.9542 G01 F40.00
G01 X54.4518 Y-0.9554 G01 F40.00
G01 X54.5989 Y-0.9626 G01 F40.00
G01 X54.6465 Y-0.9662 G01 F40.00
G01 X54.6912 Y-0.9717 G01 F40.00
G01 X54.8368 Y-0.9933 G01 F40.00
G01 X54.9032 Y-1.0056 G01 F40.00
G01 X55.0707 Y-1.0472 G01 F40.00
G01 X55.1126 Y-1.0587 G01 F40.00
G01 X55.1594 Y-1.0741 G01 F40.00
G01 X55.2981 Y-1.1237 G01 F40.00
G01 X55.3635 Y-1.1499 G01 F40.00
G01 X55.5355 Y-1.2312 G01 F40.00
G01 X55.5987 Y-1.2659 G01 F40.00
G01 X55.7250 Y-1.3416 G01 F40.00
G01 X55.7634 Y-1.3659 G01 F40.00
G01 X55.8021 Y-1.3931 G01 F40.00
G01 X55.9204 Y-1.4809 G01 F40.00
G01 X55.9725 Y-1.5224 G01 F40.00
G01 X56.1012 Y-1.6386 G01 F40.00
G01 X56.1005 Y-1.6394 G01 F40.00
G01 X56.1348 Y-1.6706 G01 F40.00
G01 X58.8294 Y-4.3652 G01 F40.00
G01 X58.8614 Y-4.3988 G01 F40.00
G01 X58.9603 Y-4.5079 G01 F40.00
G01 X58.9776 Y-4.5275 G01 F40.00
G01 X59.0191 Y-4.5796 G01 F40.00
G01 X59.1069 Y-4.6979 G01 F40.00
G01 X59.1341 Y-4.7366 G01 F40.00
G01 X59.1584 Y-4.7750 G01 F40.00
G01 X59.2341 Y-4.9013 G01 F40.00
G01 X59.2688 Y-4.9645 G01 F40.00
G01 X59.3501 Y-5.1365 G01 F40.00
G01 X59.3763 Y-5.2019 G01 F40.00
G01 X59.4259 Y-5.3406 G01 F40.00
G01 X59.4413 Y-5.3874 G01 F40.00
G01 X59.4528 Y-5.4293 G01 F40.00
G01 X59.4944 Y-5.5968 G01 F40.00
G01 X59.5067 Y-5.6632 G01 F40.00
G01 X59.5283 Y-5.8088 G01 F40.00
G01 X59.5338 Y-5.8535 G01 F40.00
G01 X59.5374 Y-5.9011 G01 F40.00
G01 X59.5446 Y-6.0482 G01 F40.00
G01 X59.5458 Y-6.0946 G01 F40.00
G01 X59.5458 Y-15.9054 G01 F40.00
G01 X59.5446 Y-15.9518 G01 F40.00
G01 X59.5374 Y-16.0989 G01 F40.00
G01 X59.5338 Y-16.1465 G01 F40.00
G01 X59.5283 Y-16.1912 G01 F40.00
G01 X59.5067 Y-16.3368 G01 F40.00
G01 X59.4944 Y-16.4032 G01 F40.00
G01 X59.4528 Y-16.5707 G01 F40.00
G01 X59.4413 Y-16.6126 G01 F40.00
G01 X59.4259 Y-16.6594 G01 F40.00
G01 X59.3763 Y-16.7981 G01 F40.00
G01 X59.3501 Y-16.8635 G01 F40.00
G01 X59.2688 Y-17.0355 G01 F40.00
G01 X59.2341 Y-17.0987 G01 F40.00
G01 X59.1584 Y-17.2250 G01 F40.00
G01 X59.1341 Y-17.2634 G01 F40.00
G01 X59.1069 Y-17.3021 G01 F40.00
G01 X59.0191 Y-17.4204 G01 F40.00
G01 X58.9776 Y-17.4725 G01 F40.00
G01 X58.8614 Y-17.6012 G01 F40.00
G01 X58.8606 Y-17.6005 G01 F40.00
G01 X58.8294 Y-17.6348 G01 F40.00
G01 X56.1348 Y-20.3294 G01 F40.00
G01 X56.1012 Y-20.3614 G01 F40.00
G01 X55.9725 Y-20.4776 G01 F40.00
G01 X55.9204 Y-20.5191 G01 F40.00
G01 X55.8021 Y-20.6069 G01 F40.00
G01 X55.7634 Y-20.6341 G01 F40.00
G01 X55.7250 Y-20.6584 G01 F40.00
G01 X55.5987 Y-20.7341 G01 F40.00
G01 X55.5355 Y-20.7688 G01 F40.00
G01 X55.3635 Y-20.8501 G01 F40.00
G01 X55.2981 Y-20.8763 G01 F40.00
G01 X55.1594 Y-20.9259 G01 F40.00
G01 X55.1126 Y-20.9413 G01 F40.00
G01 X55.0707 Y-20.9528 G01 F40.00
G01 X54.9032 Y-20.9944 G01 F40.00
G01 X54.8368 Y-21.0067 G01 F40.00
G01 X54.6912 Y-21.0283 G01 F40.00
G01 X54.6465 Y-21.0338 G01 F40.00
G01 X54.5989 Y-21.0374 G01 F40.00
G01 X54.4518 Y-21.0446 G01 F40.00
G01 X54.4054 Y-21.0458 G01 F40.00
G01 X53.7120 Y-21.0458 G01 F40.00
G01 X56.7203 Y-24.0540 G01 F40.00
G01 X57.7797 Y-24.0540 G01 F40.00
G01 X58.9169 Y-22.9169 G01 F40.00
G01 X58.9505 Y-22.8849 G01 F40.00
G01 X59.1156 Y-22.7357 G01 F40.00
G01 X59.1676 Y-22.6942 G01 F40.00
G01 X59.3254 Y-22.5772 G01 F40.00
G01 X59.3641 Y-22.5499 G01 F40.00
G01 X59.4025 Y-22.5257 G01 F40.00
G01 X59.5709 Y-22.4247 G01 F40.00
G01 X59.6341 Y-22.3900 G01 F40.00
G01 X59.8505 Y-22.2878 G01 F40.00
G01 X59.9159 Y-22.2616 G01 F40.00
G01 X60.1008 Y-22.1954 G01 F40.00
G01 X60.1476 Y-22.1800 G01 F40.00
G01 X60.1895 Y-22.1685 G01 F40.00
G01 X60.4046 Y-22.1150 G01 F40.00
G01 X60.4710 Y-22.1027 G01 F40.00
G01 X60.6652 Y-22.0739 G01 F40.00
G01 X60.7098 Y-22.0683 G01 F40.00
G01 X60.7575 Y-22.0648 G01 F40.00
G01 X60.9536 Y-22.0551 G01 F40.00
G01 X61.0000 Y-22.0540 G01 F40.00
G01 X64.5000 Y-22.0540 G01 F40.00
G01 X64.5464 Y-22.0551 G01 F40.00
G01 X64.7425 Y-22.0648 G01 F40.00
G01 X64.7902 Y-22.0683 G01 F40.00
G01 X64.8348 Y-22.0739 G01 F40.00
G01 X65.0290 Y-22.1027 G01 F40.00
G01 X65.0954 Y-22.1150 G01 F40.00
G01 X65.3105 Y-22.1685 G01 F40.00
G01 X65.3524 Y-22.1800 G01 F40.00
G01 X65.3992 Y-22.1954 G01 F40.00
G01 X65.5841 Y-22.2616 G01 F40.00
G01 X65.6495 Y-22.2878 G01 F40.00
G01 X65.6698 Y-22.2970 G01 F40.00
G01 X65.8659 Y-22.3900 G01 F40.00
G01 X65.9291 Y-22.4247 G01 F40.00
G01 X66.0975 Y-22.5257 G01 F40.00
G01 X66.1359 Y-22.5499 G01 F40.00
G01 X66.1746 Y-22.5772 G01 F40.00
G01 X66.3324 Y-22.6942 G01 F40.00
G01 X66.3844 Y-22.7357 G01 F40.00
G01 X66.5495 Y-22.8849 G01 F40.00
G01 X66.5831 Y-22.9169 G01 F40.00
G01 X66.6151 Y-22.9505 G01 F40.00
G01 X66.7470 Y-23.0960 G01 F40.00
G01 X66.7643 Y-23.1156 G01 F40.00
G01 X66.8058 Y-23.1676 G01 F40.00
G01 X66.9228 Y-23.3254 G01 F40.00
G01 X66.9501 Y-23.3641 G01 F40.00
G01 X66.9743 Y-23.4025 G01 F40.00
G01 X67.0753 Y-23.5709 G01 F40.00
G01 X67.1100 Y-23.6341 G01 F40.00
G01 X67.2122 Y-23.8504 G01 F40.00
G01 X67.2384 Y-23.9159 G01 F40.00
G01 X67.3046 Y-24.1008 G01 F40.00
G01 X67.3200 Y-24.1476 G01 F40.00
G01 X67.3315 Y-24.1895 G01 F40.00
G01 X67.3851 Y-24.4046 G01 F40.00
G01 X67.3973 Y-24.4710 G01 F40.00
G01 X67.4261 Y-24.6652 G01 F40.00
G01 X67.4317 Y-24.7098 G01 F40.00
G01 X67.4352 Y-24.7575 G01 F40.00
G01 X67.4449 Y-24.9536 G01 F40.00
G01 X67.4460 Y-25.0000 G01 F40.00
G01 X67.4449 Y-25.0464 G01 F40.00
G01 X67.4352 Y-25.2425 G01 F40.00
G01 X67.4317 Y-25.2902 G01 F40.00
G01 X67.4261 Y-25.3348 G01 F40.00
G01 X67.3973 Y-25.5290 G01 F40.00
G01 X67.3851 Y-25.5954 G01 F40.00
G01 X67.3315 Y-25.8105 G01 F40.00
G01 X67.3200 Y-25.8524 G01 F40.00
G01 X67.3046 Y-25.8992 G01 F40.00
G01 X67.2384 Y-26.0841 G01 F40.00
G01 X67.2122 Y-26.1496 G01 F40.00
G01 X67.2030 Y-26.1698 G01 F40.00
G01 X67.1100 Y-26.3659 G01 F40.00
G01 X67.0753 Y-26.4291 G01 F40.00
G01 X66.9743 Y-26.5975 G01 F40.00
G01 X66.9501 Y-26.6359 G01 F40.00
G01 X66.9228 Y-26.6746 G01 F40.00
G01 X66.8058 Y-26.8324 G01 F40.00
G01 X66.7643 Y-26.8844 G01 F40.00
G01 X66.7470 Y-26.9040 G01 F40.00
G01 X66.6151 Y-27.0495 G01 F40.00
G01 X66.5831 Y-27.0831 G01 F40.00
G01 X66.5495 Y-27.1151 G01 F40.00
G01 X66.3844 Y-27.2643 G01 F40.00
G01 X66.3324 Y-27.3058 G01 F40.00
G01 X66.1746 Y-27.4228 G01 F40.00
G01 X66.1359 Y-27.4501 G01 F40.00
G01 X66.0975 Y-27.4743 G01 F40.00
G01 X65.9291 Y-27.5753 G01 F40.00
G01 X65.8659 Y-27.6100 G01 F40.00
G01 X65.6698 Y-27.7030 G01 F40.00
G01 X65.6495 Y-27.7122 G01 F40.00
G01 X65.5841 Y-27.7384 G01 F40.00
G01 X65.3992 Y-27.8046 G01 F40.00
G01 X65.3524 Y-27.8200 G01 F40.00
G01 X65.3105 Y-27.8315 G01 F40.00
G01 X65.0954 Y-27.8850 G01 F40.00
G01 X65.0290 Y-27.8973 G01 F40.00
G01 X64.8348 Y-27.9261 G01 F40.00
G01 X64.7902 Y-27.9317 G01 F40.00
G01 X64.7425 Y-27.9352 G01 F40.00
G01 X64.5464 Y-27.9449 G01 F40.00
G01 X64.5000 Y-27.9460 G01 F40.00
G01 X62.2203 Y-27.9460 G01 F40.00
G01 X61.0831 Y-29.0831 G01 F40.00
G01 X61.0495 Y-29.1151 G01 F40.00
G01 X60.8844 Y-29.2643 G01 F40.00
G01 X60.8324 Y-29.3058 G01 F40.00
G01 X60.6746 Y-29.4228 G01 F40.00
G01 X60.6359 Y-29.4501 G01 F40.00
G01 X60.5975 Y-29.4743 G01 F40.00
G01 X60.4291 Y-29.5753 G01 F40.00
G01 X60.3659 Y-29.6100 G01 F40.00
G01 X60.1495 Y-29.7122 G01 F40.00
G01 X60.0841 Y-29.7384 G01 F40.00
G01 X59.8992 Y-29.8046 G01 F40.00
G01 X59.8524 Y-29.8200 G01 F40.00
G01 X59.8105 Y-29.8315 G01 F40.00
G01 X59.5954 Y-29.8850 G01 F40.00
G01 X59.5290 Y-29.8973 G01 F40.00
G01 X59.3348 Y-29.9261 G01 F40.00
G01 X59.2902 Y-29.9317 G01 F40.00
G01 X59.2425 Y-29.9352 G01 F40.00
G01 X59.0464 Y-29.9449 G01 F40.00
G01 X59.0000 Y-29.9460 G01 F40.00
G01 X55.5000 Y-29.9460 G01 F40.00
G01 X55.4536 Y-29.9449 G01 F40.00
G01 X55.2575 Y-29.9352 G01 F40.00
G01 X55.2098 Y-29.9317 G01 F40.00
G01 X55.1652 Y-29.9261 G01 F40.00
G01 X54.9710 Y-29.8973 G01 F40.00
G01 X54.9046 Y-29.8850 G01 F40.00
G01 X54.6895 Y-29.8315 G01 F40.00
G01 X54.6476 Y-29.8200 G01 F40.00
G01 X54.6008 Y-29.8046 G01 F40.00
G01 X54.4159 Y-29.7384 G01 F40.00
G01 X54.3505 Y-29.7122 G01 F40.00
G01 X54.1341 Y-29.6100 G01 F40.00
G01 X54.0709 Y-29.5753 G01 F40.00
G01 X53.9025 Y-29.4743 G01 F40.00
G01 X53.8641 Y-29.4501 G01 F40.00
G01 X53.8254 Y-29.4228 G01 F40.00
G01 X53.6676 Y-29.3058 G01 F40.00
G01 X53.6156 Y-29.2643 G01 F40.00
G01 X53.4505 Y-29.1151 G01 F40.00
G01 X53.4512 Y-29.1143 G01 F40.00
G01 X53.4169 Y-29.0831 G01 F40.00
G01 X50.2797 Y-25.9460 G01 F40.00
G01 X48.5000 Y-25.9460 G01 F40.00
G01 X48.4536 Y-25.9449 G01 F40.00
G01 X48.2575 Y-25.9352 G01 F40.00
G01 X48.2098 Y-25.9317 G01 F40.00
G01 X48.1652 Y-25.9261 G01 F40.00
G01 X47.9710 Y-25.8973 G01 F40.00
G01 X47.9046 Y-25.8850 G01 F40.00
G01 X47.6895 Y-25.8315 G01 F40.00
G01 X47.6476 Y-25.8200 G01 F40.00
G01 X47.6008 Y-25.8046 G01 F40.00
G01 X47.4159 Y-25.7384 G01 F40.00
G01 X47.3505 Y-25.7122 G01 F40.00
G01 X47.1341 Y-25.6100 G01 F40.00
G01 X47.0709 Y-25.5753 G01 F40.00
G01 X46.9025 Y-25.4743 G01 F40.00
G01 X46.8641 Y-25.4501 G01 F40.00
G01 X46.8254 Y-25.4228 G01 F40.00
G01 X46.6676 Y-25.3058 G01 F40.00
G01 X46.6156 Y-25.2643 G01 F40.00
G01 X46.4505 Y-25.1151 G01 F40.00
G01 X46.4169 Y-25.0831 G01 F40.00
G01 X46.3849 Y-25.0495 G01 F40.00
G01 X46.2357 Y-24.8844 G01 F40.00
G01 X46.1942 Y-24.8324 G01 F40.00
G01 X46.0772 Y-24.6746 G01 F40.00
G01 X46.0499 Y-24.6359 G01 F40.00
G01 X46.0257 Y-24.5975 G01 F40.00
G01 X45.9247 Y-24.4291 G01 F40.00
G01 X45.8900 Y-24.3659 G01 F40.00
G01 X45.7878 Y-24.1496 G01 F40.00
G01 X45.7616 Y-24.0841 G01 F40.00
G01 X45.6954 Y-23.8992 G01 F40.00
G01 X45.6800 Y-23.8524 G01 F40.00
G01 X45.6685 Y-23.8105 G01 F40.00
G01 X45.6150 Y-23.5954 G01 F40.00
G01 X45.6027 Y-23.5290 G01 F40.00
G01 X45.5739 Y-23.3348 G01 F40.00
G01 X45.5683 Y-23.2902 G01 F40.00
G01 X45.5648 Y-23.2425 G01 F40.00
G01 X45.5551 Y-23.0464 G01 F40.00
G01 X45.5540 Y-23.0000 G01 F40.00
G01 X45.5540 Y-21.2203 G01 F40.00
G01 X41.2797 Y-16.9460 G01 F40.00
G01 X30.5000 Y-16.9460 G01 F40.00
G01 X30.4536 Y-16.9449 G01 F40.00
G01 X30.2575 Y-16.9352 G01 F40.00
G01 X30.2098 Y-16.9317 G01 F40.00
G01 X30.1652 Y-16.9261 G01 F40.00
G01 X29.9710 Y-16.8973 G01 F40.00
G01 X29.9046 Y-16.8850 G01 F40.00
G01 X29.8800 Y-16.8792 G01 F40.00
G01 X29.6895 Y-16.8315 G01 F40.00
G01 X29.6476 Y-16.8200 G01 F40.00
G01 X29.6008 Y-16.8046 G01 F40.00
G01 X29.4159 Y-16.7384 G01 F40.00
G01 X29.3504 Y-16.7122 G01 F40.00
G01 X29.3302 Y-16.7030 G01 F40.00
G01 X29.1341 Y-16.6100 G01 F40.00
G01 X29.0709 Y-16.5753 G01 F40.00
G01 X28.9025 Y-16.4743 G01 F40.00
G01 X28.8641 Y-16.4501 G01 F40.00
G01 X28.8254 Y-16.4228 G01 F40.00
G01 X28.6676 Y-16.3058 G01 F40.00
G01 X28.6156 Y-16.2643 G01 F40.00
G01 X28.4505 Y-16.1151 G01 F40.00
G01 X28.4169 Y-16.0831 G01 F40.00
G01 X28.3849 Y-16.0495 G01 F40.00
G01 X28.2530 Y-15.9040 G01 F40.00
G01 X28.2357 Y-15.8844 G01 F40.00
G01 X28.1942 Y-15.8324 G01 F40.00
G01 X28.0772 Y-15.6746 G01 F40.00
G01 X28.0499 Y-15.6359 G01 F40.00
G01 X28.0257 Y-15.5975 G01 F40.00
G01 X27.9247 Y-15.4291 G01 F40.00
G01 X27.8900 Y-15.3659 G01 F40.00
G01 X27.8810 Y-15.3473 G01 F40.00
G01 X27.7878 Y-15.1495 G01 F40.00
G01 X27.7616 Y-15.0841 G01 F40.00
G01 X27.6954 Y-14.8992 G01 F40.00
G01 X27.6800 Y-14.8524 G01 F40.00
G01 X27.6685 Y-14.8105 G01 F40.00
G01 X27.6150 Y-14.5954 G01 F40.00
G01 X27.6027 Y-14.5290 G01 F40.00
G01 X27.5739 Y-14.3348 G01 F40.00
G01 X27.5683 Y-14.2902 G01 F40.00
G01 X27.5648 Y-14.2425 G01 F40.00
G01 X27.5551 Y-14.0464 G01 F40.00
G01 X27.5540 Y-14.0000 G01 F40.00
G01 X27.5551 Y-13.9536 G01 F40.00
G01 X27.5648 Y-13.7575 G01 F40.00
G01 X27.5683 Y-13.7098 G01 F40.00
G01 X27.5739 Y-13.6652 G01 F40.00
G01 X27.6027 Y-13.4710 G01 F40.00
G01 X27.6150 Y-13.4046 G01 F40.00
G01 X27.6685 Y-13.1895 G01 F40.00
G01 X27.6800 Y-13.1476 G01 F40.00
G01 X27.6954 Y-13.1008 G01 F40.00
G01 X27.7616 Y-12.9159 G01 F40.00
G01 X27.7878 Y-12.8505 G01 F40.00
G01 X27.8900 Y-12.6341 G01 F40.00
G01 X27.9247 Y-12.5709 G01 F40.00
G01 X28.0257 Y-12.4025 G01 F40.00
G01 X28.0499 Y-12.3641 G01 F40.00
G01 X28.0772 Y-12.3254 G01 F40.00
G01 X28.1942 Y-12.1676 G01 F40.00
G01 X28.2357 Y-12.1156 G01 F40.00
G01 X28.3849 Y-11.9505 G01 F40.00
G01 X28.4169 Y-11.9169 G01 F40.00
G01 X28.4505 Y-11.8849 G01 F40.00
G01 X28.6156 Y-11.7357 G01 F40.00
G01 X28.6676 Y-11.6942 G01 F40.00
G01 X28.8254 Y-11.5772 G01 F40.00
G01 X28.8641 Y-11.5499 G01 F40.00
G01 X28.9025 Y-11.5257 G01 F40.00
G01 X29.0709 Y-11.4247 G01 F40.00
G01 X29.1341 Y-11.3900 G01 F40.00
G01 X29.3504 Y-11.2878 G01 F40.00
G01 X29.4159 Y-11.2616 G01 F40.00
G01 X29.6008 Y-11.1954 G01 F40.00
G01 X29.6476 Y-11.1800 G01 F40.00
G01 X29.6895 Y-11.1685 G01 F40.00
G01 X29.9046 Y-11.1150 G01 F40.00
G01 X29.9710 Y-11.1027 G01 F40.00
G01 X30.1652 Y-11.0739 G01 F40.00
G01 X30.2098 Y-11.0683 G01 F40.00
G01 X30.2575 Y-11.0648 G01 F40.00
G01 X30.4536 Y-11.0551 G01 F40.00
G01 X30.5000 Y-11.0540 G01 F40.00
G01 X42.5000 Y-11.0540 G01 F40.00
G01 X42.5464 Y-11.0551 G01 F40.00
G01 X42.7425 Y-11.0648 G01 F40.00
G01 X42.7902 Y-11.0683 G01 F40.00
G01 X42.8348 Y-11.0739 G01 F40.00
G01 X43.0290 Y-11.1027 G01 F40.00
G01 X43.0954 Y-11.1150 G01 F40.00
G01 X43.3105 Y-11.1685 G01 F40.00
G01 X43.3524 Y-11.1800 G01 F40.00
G01 X43.3992 Y-11.1954 G01 F40.00
G01 X43.5841 Y-11.2616 G01 F40.00
G01 X43.6495 Y-11.2878 G01 F40.00
G01 X43.6698 Y-11.2970 G01 F40.00
G01 X43.8659 Y-11.3900 G01 F40.00
G01 X43.9291 Y-11.4247 G01 F40.00
G01 X44.0975 Y-11.5257 G01 F40.00
G01 X44.1359 Y-11.5499 G01 F40.00
G01 X44.1746 Y-11.5772 G01 F40.00
G01 X44.3324 Y-11.6942 G01 F40.00
G01 X44.3844 Y-11.7357 G01 F40.00
G01 X44.5495 Y-11.8849 G01 F40.00
G01 X44.5488 Y-11.8857 G01 F40.00
G01 X44.5831 Y-11.9169 G01 F40.00
G01 X48.8205 Y-16.1542 G01 F40.00
G01 X53.3923 Y-16.1542 G01 F40.00
G01 X54.6542 Y-14.8923 G01 F40.00
G01 X54.6542 Y-7.1077 G01 F40.00
G01 X53.3923 Y-5.8458 G01 F40.00
G01 X15.6077 Y-5.8458 G01 F40.00
G01 X9.1364 Y-12.3170 G01 F40.00
G01 X9.0688 Y-12.4595 G01 F40.00
G01 X9.0341 Y-12.5227 G01 F40.00
G01 X8.9584 Y-12.6490 G01 F40.00
G01 X8.9341 Y-12.6874 G01 F40.00
G01 X8.9069 Y-12.7261 G01 F40.00
G01 X8.8191 Y-12.8444 G01 F40.00
G01 X8.7776 Y-12.8965 G01 F40.00
G01 X8.6614 Y-13.0252 G01 F40.00
G01 X8.6606 Y-13.0245 G01 F40.00
G01 X8.6294 Y-13.0588 G01 F40.00
G01 X8.4344 Y-13.2538 G01 F40.00
G01 X8.4317 Y-13.2902 G01 F40.00
G01 X8.4261 Y-13.3348 G01 F40.00
G01 X8.3973 Y-13.5290 G01 F40.00
G01 X8.3850 Y-13.5954 G01 F40.00
G01 X8.3315 Y-13.8105 G01 F40.00
G01 X8.3200 Y-13.8524 G01 F40.00
G01 X8.3046 Y-13.8992 G01 F40.00
G01 X8.2384 Y-14.0841 G01 F40.00
G01 X8.2122 Y-14.1496 G01 F40.00
G01 X8.1100 Y-14.3659 G01 F40.00
G01 X8.0753 Y-14.4291 G01 F40.00
G01 X7.9743 Y-14.5975 G01 F40.00
G01 X7.9501 Y-14.6359 G01 F40.00
G01 X7.9228 Y-14.6746 G01 F40.00
G01 X7.8058 Y-14.8324 G01 F40.00
G01 X7.7643 Y-14.8844 G01 F40.00
G01 X7.6151 Y-15.0495 G01 F40.00
G01 X7.6143 Y-15.0488 G01 F40.00
G01 X7.5831 Y-15.0831 G01 F40.00
G01 X7.4460 Y-15.2203 G01 F40.00
G01 X7.4460 Y-22.0540 G01 F40.00
G01 X11.5000 Y-22.0540 G01 F40.00
G01 X11.5464 Y-22.0551 G01 F40.00
G01 X11.7425 Y-22.0648 G01 F40.00
G01 X11.7902 Y-22.0683 G01 F40.00
G01 X11.8348 Y-22.0739 G01 F40.00
G01 X12.0290 Y-22.1027 G01 F40.00
G01 X12.0954 Y-22.1150 G01 F40.00
G01 X12.3105 Y-22.1685 G01 F40.00
G01 X12.3524 Y-22.1800 G01 F40.00
G01 X12.3992 Y-22.1954 G01 F40.00
G01 X12.5841 Y-22.2616 G01 F40.00
G01 X12.6495 Y-22.2878 G01 F40.00
G01 X12.8659 Y-22.3900 G01 F40.00
G01 X12.9291 Y-22.4247 G01 F40.00
G01 X13.0975 Y-22.5257 G01 F40.00
G01 X13.1359 Y-22.5499 G01 F40.00
G01 X13.1746 Y-22.5772 G01 F40.00
G01 X13.3324 Y-22.6942 G01 F40.00
G01 X13.3844 Y-22.7357 G01 F40.00
G01 X13.4040 Y-22.7530 G01 F40.00
G01 X13.5495 Y-22.8849 G01 F40.00
G01 X13.5488 Y-22.8857 G01 F40.00
G01 X13.5831 Y-22.9169 G01 F40.00
G01 X14.5831 Y-23.9169 G01 F40.00
G01 X14.6151 Y-23.9505 G01 F40.00
G01 X14.7643 Y-24.1156 G01 F40.00
G01 X14.8058 Y-24.1676 G01 F40.00
G01 X14.9228 Y-24.3254 G01 F40.00
G01 X14.9501 Y-24.3641 G01 F40.00
G01 X14.9743 Y-24.4025 G01 F40.00
G01 X15.0753 Y-24.5709 G01 F40.00
G01 X15.1100 Y-24.6341 G01 F40.00
G01 X15.2122 Y-24.8504 G01 F40.00
G01 X15.2384 Y-24.9159 G01 F40.00
G01 X15.3046 Y-25.1008 G01 F40.00
G01 X15.3200 Y-25.1476 G01 F40.00
G01 X15.3315 Y-25.1895 G01 F40.00
G01 X15.3850 Y-25.4046 G01 F40.00
G01 X15.3973 Y-25.4710 G01 F40.00
G01 X15.4261 Y-25.6652 G01 F40.00
G01 X15.4317 Y-25.7098 G01 F40.00
G01 X15.4352 Y-25.7575 G01 F40.00
G01 X15.4449 Y-25.9536 G01 F40.00
G01 X15.4460 Y-26.0000 G01 F40.00
G01 X15.4449 Y-26.0464 G01 F40.00
G01 X15.4352 Y-26.2425 G01 F40.00
G01 X15.4317 Y-26.2902 G01 F40.00
G01 X15.4261 Y-26.3348 G01 F40.00
G01 X15.3973 Y-26.5290 G01 F40.00
G01 X15.3850 Y-26.5954 G01 F40.00
G01 X15.3792 Y-26.6200 G01 F40.00
G01 X15.3315 Y-26.8105 G01 F40.00
G01 X15.3200 Y-26.8524 G01 F40.00
G01 X15.3046 Y-26.8992 G01 F40.00
G01 X15.2384 Y-27.0841 G01 F40.00
G01 X15.2122 Y-27.1496 G01 F40.00
G01 X15.1100 Y-27.3659 G01 F40.00
G01 X15.0753 Y-27.4291 G01 F40.00
G01 X14.9743 Y-27.5975 G01 F40.00
G01 X14.9501 Y-27.6359 G01 F40.00
G01 X14.9228 Y-27.6746 G01 F40.00
G01 X14.8058 Y-27.8324 G01 F40.00
G01 X14.7643 Y-27.8844 G01 F40.00
G01 X14.7470 Y-27.9040 G01 F40.00
G01 X14.6151 Y-28.0495 G01 F40.00
G01 X14.5831 Y-28.0831 G01 F40.00
G01 X14.5495 Y-28.1151 G01 F40.00
G01 X14.4040 Y-28.2470 G01 F40.00
G01 X14.3844 Y-28.2643 G01 F40.00
G01 X14.3324 Y-28.3058 G01 F40.00
G01 X14.1746 Y-28.4228 G01 F40.00
G01 X14.1359 Y-28.4501 G01 F40.00
G01 X14.0975 Y-28.4743 G01 F40.00
G01 X13.9291 Y-28.5753 G01 F40.00
G01 X13.8659 Y-28.6100 G01 F40.00
G01 X13.6495 Y-28.7122 G01 F40.00
G01 X13.5841 Y-28.7384 G01 F40.00
G01 X13.3992 Y-28.8046 G01 F40.00
G01 X13.3524 Y-28.8200 G01 F40.00
G01 X13.3105 Y-28.8315 G01 F40.00
G01 X13.1200 Y-28.8792 G01 F40.00
G01 X13.0954 Y-28.8850 G01 F40.00
G01 X13.0290 Y-28.8973 G01 F40.00
G01 X12.8348 Y-28.9261 G01 F40.00
G01 X12.7902 Y-28.9317 G01 F40.00
G01 X12.7425 Y-28.9352 G01 F40.00
G01 X12.5464 Y-28.9449 G01 F40.00
G01 X12.5000 Y-28.9460 G01 F40.00
G01 X12.4536 Y-28.9449 G01 F40.00
G01 X12.2575 Y-28.9352 G01 F40.00
G01 X12.2098 Y-28.9317 G01 F40.00
G01 X12.1652 Y-28.9261 G01 F40.00
G01 X11.9710 Y-28.8973 G01 F40.00
G01 X11.9046 Y-28.8850 G01 F40.00
G01 X11.6895 Y-28.8315 G01 F40.00
G01 X11.6476 Y-28.8200 G01 F40.00
G01 X11.6008 Y-28.8046 G01 F40.00
G01 X11.4159 Y-28.7384 G01 F40.00
G01 X11.3505 Y-28.7122 G01 F40.00
G01 X11.1341 Y-28.6100 G01 F40.00
G01 X11.0709 Y-28.5753 G01 F40.00
G01 X10.9025 Y-28.4743 G01 F40.00
G01 X10.8641 Y-28.4501 G01 F40.00
G01 X10.8254 Y-28.4228 G01 F40.00
G01 X10.6676 Y-28.3058 G01 F40.00
G01 X10.6156 Y-28.2643 G01 F40.00
G01 X10.4505 Y-28.1151 G01 F40.00
G01 X10.4512 Y-28.1143 G01 F40.00
G01 X10.4169 Y-28.0831 G01 F40.00
G01 X10.2797 Y-27.9460 G01 F40.00
G01 X4.5000 Y-27.9460 G01 F40.00
G01 X4.4536 Y-27.9449 G01 F40.00
G01 X4.2575 Y-27.9352 G01 F40.00
G01 X4.2098 Y-27.9317 G01 F40.00
G01 X4.1652 Y-27.9261 G01 F40.00
G01 X3.9710 Y-27.8973 G01 F40.00
G01 X3.9046 Y-27.8850 G01 F40.00
G01 X3.6895 Y-27.8315 G01 F40.00
G01 X3.6476 Y-27.8200 G01 F40.00
G01 X3.6008 Y-27.8046 G01 F40.00
G01 X3.4159 Y-27.7384 G01 F40.00
G01 X3.3504 Y-27.7122 G01 F40.00
G01 X3.1341 Y-27.6100 G01 F40.00
G01 X3.0709 Y-27.5753 G01 F40.00
G01 X2.9025 Y-27.4743 G01 F40.00
G01 X2.8641 Y-27.4501 G01 F40.00
G01 X2.8254 Y-27.4228 G01 F40.00
G01 X2.6676 Y-27.3058 G01 F40.00
G01 X2.6156 Y-27.2643 G01 F40.00
G01 X2.5960 Y-27.2470 G01 F40.00
G01 X2.4505 Y-27.1151 G01 F40.00
G01 X2.4169 Y-27.0831 G01 F40.00
G01 X2.3849 Y-27.0495 G01 F40.00
G01 X2.2357 Y-26.8844 G01 F40.00
G01 X2.1942 Y-26.8324 G01 F40.00
G01 X2.0772 Y-26.6746 G01 F40.00
G01 X2.0499 Y-26.6359 G01 F40.00
G01 X2.0257 Y-26.5975 G01 F40.00
G01 X1.9247 Y-26.4291 G01 F40.00
G01 X1.8900 Y-26.3659 G01 F40.00
G01 X1.7970 Y-26.1698 G01 F40.00
G01 X1.7878 Y-26.1496 G01 F40.00
G01 X1.7616 Y-26.0841 G01 F40.00
G01 X1.6954 Y-25.8992 G01 F40.00
G01 X1.6800 Y-25.8524 G01 F40.00
G01 X1.6685 Y-25.8105 G01 F40.00
G01 X1.6150 Y-25.5954 G01 F40.00
G01 X1.6027 Y-25.5290 G01 F40.00
G01 X1.5739 Y-25.3348 G01 F40.00
G01 X1.5683 Y-25.2902 G01 F40.00
G01 X1.5648 Y-25.2425 G01 F40.00
G01 X1.5551 Y-25.0464 G01 F40.00
G00 Z2.0000
G00 X7.0262 Y-33.3510
G01 F9.00
G01 Z-0.0450
G01 F40.00
G01 X4.5000 Y-33.3510 G01 F40.00
G01 X4.2690 Y-33.3396 G01 F40.00
G01 X4.0583 Y-33.3088 G01 F40.00
G01 X4.0246 Y-33.3021 G01 F40.00
G01 X3.8341 Y-33.2543 G01 F40.00
G01 X3.8012 Y-33.2444 G01 F40.00
G01 X3.6163 Y-33.1782 G01 F40.00
G01 X3.5921 Y-33.1685 G01 F40.00
G01 X3.4002 Y-33.0778 G01 F40.00
G01 X3.3768 Y-33.0649 G01 F40.00
G01 X3.2084 Y-32.9640 G01 F40.00
G01 X3.1798 Y-32.9449 G01 F40.00
G01 X3.0221 Y-32.8279 G01 F40.00
G01 X3.0028 Y-32.8125 G01 F40.00
G01 X2.8376 Y-32.6624 G01 F40.00
G01 X2.6875 Y-32.4972 G01 F40.00
G01 X2.6721 Y-32.4779 G01 F40.00
G01 X2.5450 Y-32.3058 G01 F40.00
G01 X2.4351 Y-32.1232 G01 F40.00
G01 X2.4222 Y-32.0998 G01 F40.00
G01 X2.3315 Y-31.9079 G01 F40.00
G01 X2.3218 Y-31.8837 G01 F40.00
G01 X2.2499 Y-31.6814 G01 F40.00
G01 X2.1958 Y-31.4663 G01 F40.00
G01 X2.1912 Y-31.4417 G01 F40.00
G01 X2.1604 Y-31.2310 G01 F40.00
G01 X2.1490 Y-31.0000 G01 F40.00
G01 X2.1604 Y-30.7690 G01 F40.00
G01 X2.1912 Y-30.5583 G01 F40.00
G01 X2.1958 Y-30.5337 G01 F40.00
G01 X2.2499 Y-30.3186 G01 F40.00
G01 X2.3218 Y-30.1163 G01 F40.00
G01 X2.3315 Y-30.0921 G01 F40.00
G01 X2.4222 Y-29.9002 G01 F40.00
G01 X2.4351 Y-29.8768 G01 F40.00
G01 X2.5450 Y-29.6942 G01 F40.00
G01 X2.6721 Y-29.5221 G01 F40.00
G01 X2.6875 Y-29.5028 G01 F40.00
G01 X2.8376 Y-29.3376 G01 F40.00
G01 X3.0028 Y-29.1875 G01 F40.00
G01 X3.0221 Y-29.1721 G01 F40.00
G01 X3.1798 Y-29.0551 G01 F40.00
G01 X3.2084 Y-29.0360 G01 F40.00
G01 X3.3768 Y-28.9351 G01 F40.00
G01 X3.4071 Y-28.9189 G01 F40.00
G01 X3.5921 Y-28.8315 G01 F40.00
G01 X3.6163 Y-28.8218 G01 F40.00
G01 X3.8186 Y-28.7499 G01 F40.00
G01 X4.0337 Y-28.6958 G01 F40.00
G01 X4.0583 Y-28.6912 G01 F40.00
G01 X4.2525 Y-28.6624 G01 F40.00
G01 X4.2867 Y-28.6591 G01 F40.00
G01 X4.5000 Y-28.6490 G01 F40.00
G01 X8.0000 Y-28.6490 G01 F40.00
G01 X8.2310 Y-28.6604 G01 F40.00
G01 X8.4417 Y-28.6912 G01 F40.00
G01 X8.4754 Y-28.6979 G01 F40.00
G01 X8.6814 Y-28.7499 G01 F40.00
G01 X8.8837 Y-28.8218 G01 F40.00
G01 X8.9154 Y-28.8349 G01 F40.00
G01 X9.0998 Y-28.9222 G01 F40.00
G01 X9.1232 Y-28.9351 G01 F40.00
G01 X9.3058 Y-29.0450 G01 F40.00
G01 X9.4779 Y-29.1721 G01 F40.00
G01 X9.4972 Y-29.1875 G01 F40.00
G01 X9.6624 Y-29.3376 G01 F40.00
G01 X9.9738 Y-29.6490 G01 F40.00
G01 X18.5000 Y-29.6490 G01 F40.00
G01 X18.7133 Y-29.6591 G01 F40.00
G01 X18.7475 Y-29.6624 G01 F40.00
G01 X18.9417 Y-29.6912 G01 F40.00
G01 X18.9663 Y-29.6958 G01 F40.00
G01 X19.1814 Y-29.7499 G01 F40.00
G01 X19.3837 Y-29.8218 G01 F40.00
G01 X19.4079 Y-29.8315 G01 F40.00
G01 X19.5929 Y-29.9189 G01 F40.00
G01 X19.6232 Y-29.9351 G01 F40.00
G01 X19.7916 Y-30.0360 G01 F40.00
G01 X19.8202 Y-30.0551 G01 F40.00
G01 X19.9779 Y-30.1721 G01 F40.00
G01 X19.9972 Y-30.1875 G01 F40.00
G01 X20.1624 Y-30.3376 G01 F40.00
G01 X20.3125 Y-30.5028 G01 F40.00
G01 X20.3279 Y-30.5221 G01 F40.00
G01 X20.4449 Y-30.6798 G01 F40.00
G01 X20.4640 Y-30.7084 G01 F40.00
G01 X20.5649 Y-30.8768 G01 F40.00
G01 X20.5811 Y-30.9071 G01 F40.00
G01 X20.6685 Y-31.0921 G01 F40.00
G01 X20.6782 Y-31.1163 G01 F40.00
G01 X20.7501 Y-31.3186 G01 F40.00
G01 X20.8042 Y-31.5337 G01 F40.00
G01 X20.8088 Y-31.5583 G01 F40.00
G01 X20.8396 Y-31.7690 G01 F40.00
G01 X20.8510 Y-32.0000 G01 F40.00
G01 X20.8396 Y-32.2310 G01 F40.00
G01 X20.8088 Y-32.4417 G01 F40.00
G01 X20.8042 Y-32.4663 G01 F40.00
G01 X20.7501 Y-32.6814 G01 F40.00
G01 X20.6782 Y-32.8837 G01 F40.00
G01 X20.6685 Y-32.9079 G01 F40.00
G01 X20.5778 Y-33.0998 G01 F40.00
G01 X20.5649 Y-33.1232 G01 F40.00
G01 X20.4550 Y-33.3058 G01 F40.00
G01 X20.3279 Y-33.4779 G01 F40.00
G01 X20.3125 Y-33.4972 G01 F40.00
G01 X20.1624 Y-33.6624 G01 F40.00
G01 X19.9972 Y-33.8125 G01 F40.00
G01 X19.9779 Y-33.8279 G01 F40.00
G01 X19.8058 Y-33.9550 G01 F40.00
G01 X19.6232 Y-34.0649 G01 F40.00
G01 X19.5998 Y-34.0778 G01 F40.00
G01 X19.4079 Y-34.1685 G01 F40.00
G01 X19.3837 Y-34.1782 G01 F40.00
G01 X19.1814 Y-34.2501 G01 F40.00
G01 X18.9663 Y-34.3042 G01 F40.00
G01 X18.9417 Y-34.3088 G01 F40.00
G01 X18.7310 Y-34.3396 G01 F40.00
G01 X18.5000 Y-34.3510 G01 F40.00
G01 X9.0000 Y-34.3510 G01 F40.00
G01 X8.7690 Y-34.3396 G01 F40.00
G01 X8.5583 Y-34.3088 G01 F40.00
G01 X8.5337 Y-34.3042 G01 F40.00
G01 X8.3186 Y-34.2501 G01 F40.00
G01 X8.1163 Y-34.1782 G01 F40.00
G01 X8.0921 Y-34.1685 G01 F40.00
G01 X7.9071 Y-34.0811 G01 F40.00
G01 X7.8768 Y-34.0649 G01 F40.00
G01 X7.6942 Y-33.9550 G01 F40.00
G01 X7.5221 Y-33.8279 G01 F40.00
G01 X7.5028 Y-33.8125 G01 F40.00
G01 X7.3376 Y-33.6624 G01 F40.00
G01 X7.0262 Y-33.3510 G01 F40.00
G00 Z2.0000
G00 X6.7797 Y-33.9460
G01 F9.00
G01 Z-0.0450
G01 F40.00
G01 X4.5000 Y-33.9460 G01 F40.00
G01 X4.4536 Y-33.9449 G01 F40.00
G01 X4.2575 Y-33.9352 G01 F40.00
G01 X4.2098 Y-33.9317 G01 F40.00
G01 X4.1652 Y-33.9261 G01 F40.00
G01 X3.9710 Y-33.8973 G01 F40.00
G01 X3.9046 Y-33.8850 G01 F40.00
G01 X3.8800 Y-33.8792 G01 F40.00
G01 X3.6895 Y-33.8315 G01 F40.00
G01 X3.6476 Y-33.8200 G01 F40.00
G01 X3.6008 Y-33.8046 G01 F40.00
G01 X3.4159 Y-33.7384 G01 F40.00
G01 X3.3504 Y-33.7122 G01 F40.00
G01 X3.1341 Y-33.6100 G01 F40.00
G01 X3.0709 Y-33.5753 G01 F40.00
G01 X2.9025 Y-33.4743 G01 F40.00
G01 X2.8641 Y-33.4501 G01 F40.00
G01 X2.8254 Y-33.4228 G01 F40.00
G01 X2.6676 Y-33.3058 G01 F40.00
G01 X2.6156 Y-33.2643 G01 F40.00
G01 X2.5960 Y-33.2470 G01 F40.00
G01 X2.4505 Y-33.1151 G01 F40.00
G01 X2.4169 Y-33.0831 G01 F40.00
G01 X2.3849 Y-33.0495 G01 F40.00
G01 X2.2530 Y-32.9040 G01 F40.00
G01 X2.2357 Y-32.8844 G01 F40.00
G01 X2.1942 Y-32.8324 G01 F40.00
G01 X2.0772 Y-32.6746 G01 F40.00
G01 X2.0499 Y-32.6359 G01 F40.00
G01 X2.0257 Y-32.5975 G01 F40.00
G01 X1.9247 Y-32.4291 G01 F40.00
G01 X1.8900 Y-32.3659 G01 F40.00
G01 X1.7878 Y-32.1496 G01 F40.00
G01 X1.7616 Y-32.0841 G01 F40.00
G01 X1.6954 Y-31.8992 G01 F40.00
G01 X1.6800 Y-31.8524 G01 F40.00
G01 X1.6685 Y-31.8105 G01 F40.00
G01 X1.6150 Y-31.5954 G01 F40.00
G01 X1.6027 Y-31.5290 G01 F40.00
G01 X1.5739 Y-31.3348 G01 F40.00
G01 X1.5683 Y-31.2902 G01 F40.00
G01 X1.5648 Y-31.2425 G01 F40.00
G01 X1.5551 Y-31.0464 G01 F40.00
G01 X1.5540 Y-31.0000 G01 F40.00
G01 X1.5551 Y-30.9536 G01 F40.00
G01 X1.5648 Y-30.7575 G01 F40.00
G01 X1.5683 Y-30.7098 G01 F40.00
G01 X1.5739 Y-30.6652 G01 F40.00
G01 X1.6027 Y-30.4710 G01 F40.00
G01 X1.6150 Y-30.4046 G01 F40.00
G01 X1.6685 Y-30.1895 G01 F40.00
G01 X1.6800 Y-30.1476 G01 F40.00
G01 X1.6954 Y-30.1008 G01 F40.00
G01 X1.7616 Y-29.9159 G01 F40.00
G01 X1.7878 Y-29.8504 G01 F40.00
G01 X1.8900 Y-29.6341 G01 F40.00
G01 X1.9247 Y-29.5709 G01 F40.00
G01 X2.0257 Y-29.4025 G01 F40.00
G01 X2.0499 Y-29.3641 G01 F40.00
G01 X2.0772 Y-29.3254 G01 F40.00
G01 X2.1942 Y-29.1676 G01 F40.00
G01 X2.2357 Y-29.1156 G01 F40.00
G01 X2.3849 Y-28.9505 G01 F40.00
G01 X2.4169 Y-28.9169 G01 F40.00
G01 X2.4505 Y-28.8849 G01 F40.00
G01 X2.5960 Y-28.7530 G01 F40.00
G01 X2.6156 Y-28.7357 G01 F40.00
G01 X2.6676 Y-28.6942 G01 F40.00
G01 X2.8254 Y-28.5772 G01 F40.00
G01 X2.8641 Y-28.5499 G01 F40.00
G01 X2.9025 Y-28.5257 G01 F40.00
G01 X3.0709 Y-28.4247 G01 F40.00
G01 X3.1341 Y-28.3900 G01 F40.00
G01 X3.3504 Y-28.2878 G01 F40.00
G01 X3.4159 Y-28.2616 G01 F40.00
G01 X3.6008 Y-28.1954 G01 F40.00
G01 X3.6476 Y-28.1800 G01 F40.00
G01 X3.6895 Y-28.1685 G01 F40.00
G01 X3.9046 Y-28.1150 G01 F40.00
G01 X3.9710 Y-28.1027 G01 F40.00
G01 X4.1652 Y-28.0739 G01 F40.00
G01 X4.2098 Y-28.0683 G01 F40.00
G01 X4.2575 Y-28.0648 G01 F40.00
G01 X4.4536 Y-28.0551 G01 F40.00
G01 X4.5000 Y-28.0540 G01 F40.00
G01 X8.0000 Y-28.0540 G01 F40.00
G01 X8.0464 Y-28.0551 G01 F40.00
G01 X8.2425 Y-28.0648 G01 F40.00
G01 X8.2902 Y-28.0683 G01 F40.00
G01 X8.3348 Y-28.0739 G01 F40.00
G01 X8.5290 Y-28.1027 G01 F40.00
G01 X8.5954 Y-28.1150 G01 F40.00
G01 X8.8105 Y-28.1685 G01 F40.00
G01 X8.8524 Y-28.1800 G01 F40.00
G01 X8.8992 Y-28.1954 G01 F40.00
G01 X9.0841 Y-28.2616 G01 F40.00
G01 X9.1495 Y-28.2878 G01 F40.00
G01 X9.3659 Y-28.3900 G01 F40.00
G01 X9.4291 Y-28.4247 G01 F40.00
G01 X9.5975 Y-28.5257 G01 F40.00
G01 X9.6359 Y-28.5499 G01 F40.00
G01 X9.6746 Y-28.5772 G01 F40.00
G01 X9.8324 Y-28.6942 G01 F40.00
G01 X9.8844 Y-28.7357 G01 F40.00
G01 X10.0495 Y-28.8849 G01 F40.00
G01 X10.0488 Y-28.8857 G01 F40.00
G01 X10.0831 Y-28.9169 G01 F40.00
G01 X10.2203 Y-29.0540 G01 F40.00
G01 X18.5000 Y-29.0540 G01 F40.00
G01 X18.5464 Y-29.0551 G01 F40.00
G01 X18.7425 Y-29.0648 G01 F40.00
G01 X18.7902 Y-29.0683 G01 F40.00
G01 X18.8348 Y-29.0739 G01 F40.00
G01 X19.0290 Y-29.1027 G01 F40.00
G01 X19.0954 Y-29.1150 G01 F40.00
G01 X19.3105 Y-29.1685 G01 F40.00
G01 X19.3524 Y-29.1800 G01 F40.00
G01 X19.3992 Y-29.1954 G01 F40.00
G01 X19.5841 Y-29.2616 G01 F40.00
G01 X19.6496 Y-29.2878 G01 F40.00
G01 X19.6698 Y-29.2970 G01 F40.00
G01 X19.8659 Y-29.3900 G01 F40.00
G01 X19.9291 Y-29.4247 G01 F40.00
G01 X20.0975 Y-29.5257 G01 F40.00
G01 X20.1359 Y-29.5499 G01 F40.00
G01 X20.1746 Y-29.5772 G01 F40.00
G01 X20.3324 Y-29.6942 G01 F40.00
G01 X20.3844 Y-29.7357 G01 F40.00
G01 X20.5495 Y-29.8849 G01 F40.00
G01 X20.5831 Y-29.9169 G01 F40.00
G01 X20.6151 Y-29.9505 G01 F40.00
G01 X20.7470 Y-30.0960 G01 F40.00
G01 X20.7643 Y-30.1156 G01 F40.00
G01 X20.8058 Y-30.1676 G01 F40.00
G01 X20.9228 Y-30.3254 G01 F40.00
G01 X20.9501 Y-30.3641 G01 F40.00
G01 X20.9743 Y-30.4025 G01 F40.00
G01 X21.0753 Y-30.5709 G01 F40.00
G01 X21.1100 Y-30.6341 G01 F40.00
G01 X21.2122 Y-30.8504 G01 F40.00
G01 X21.2384 Y-30.9159 G01 F40.00
G01 X21.3046 Y-31.1008 G01 F40.00
G01 X21.3200 Y-31.1476 G01 F40.00
G01 X21.3315 Y-31.1895 G01 F40.00
G01 X21.3850 Y-31.4046 G01 F40.00
G01 X21.3973 Y-31.4710 G01 F40.00
G01 X21.4261 Y-31.6652 G01 F40.00
G01 X21.4317 Y-31.7098 G01 F40.00
G01 X21.4352 Y-31.7575 G01 F40.00
G01 X21.4449 Y-31.9536 G01 F40.00
G01 X21.4460 Y-32.0000 G01 F40.00
G01 X21.4449 Y-32.0464 G01 F40.00
G01 X21.4352 Y-32.2425 G01 F40.00
G01 X21.4317 Y-32.2902 G01 F40.00
G01 X21.4261 Y-32.3348 G01 F40.00
G01 X21.3973 Y-32.5290 G01 F40.00
G01 X21.3850 Y-32.5954 G01 F40.00
G01 X21.3315 Y-32.8105 G01 F40.00
G01 X21.3200 Y-32.8524 G01 F40.00
G01 X21.3046 Y-32.8992 G01 F40.00
G01 X21.2384 Y-33.0841 G01 F40.00
G01 X21.2122 Y-33.1495 G01 F40.00
G01 X21.1100 Y-33.3659 G01 F40.00
G01 X21.0753 Y-33.4291 G01 F40.00
G01 X20.9743 Y-33.5975 G01 F40.00
G01 X20.9501 Y-33.6359 G01 F40.00
G01 X20.9228 Y-33.6746 G01 F40.00
G01 X20.8058 Y-33.8324 G01 F40.00
G01 X20.7643 Y-33.8844 G01 F40.00
G01 X20.6151 Y-34.0495 G01 F40.00
G01 X20.5831 Y-34.0831 G01 F40.00
G01 X20.5495 Y-34.1151 G01 F40.00
G01 X20.3844 Y-34.2643 G01 F40.00
G01 X20.3324 Y-34.3058 G01 F40.00
G01 X20.1746 Y-34.4228 G01 F40.00
G01 X20.1359 Y-34.4501 G01 F40.00
G01 X20.0975 Y-34.4743 G01 F40.00
G01 X19.9291 Y-34.5753 G01 F40.00
G01 X19.8659 Y-34.6100 G01 F40.00
G01 X19.6496 Y-34.7122 G01 F40.00
G01 X19.5841 Y-34.7384 G01 F40.00
G01 X19.3992 Y-34.8046 G01 F40.00
G01 X19.3524 Y-34.8200 G01 F40.00
G01 X19.3105 Y-34.8315 G01 F40.00
G01 X19.1200 Y-34.8792 G01 F40.00
G01 X19.0954 Y-34.8850 G01 F40.00
G01 X19.0290 Y-34.8973 G01 F40.00
G01 X18.8348 Y-34.9261 G01 F40.00
G01 X18.7902 Y-34.9317 G01 F40.00
G01 X18.7425 Y-34.9352 G01 F40.00
G01 X18.5464 Y-34.9449 G01 F40.00
G01 X18.5000 Y-34.9460 G01 F40.00
G01 X9.0000 Y-34.9460 G01 F40.00
G01 X8.9536 Y-34.9449 G01 F40.00
G01 X8.7575 Y-34.9352 G01 F40.00
G01 X8.7098 Y-34.9317 G01 F40.00
G01 X8.6652 Y-34.9261 G01 F40.00
G01 X8.4710 Y-34.8973 G01 F40.00
G01 X8.4046 Y-34.8850 G01 F40.00
G01 X8.1895 Y-34.8315 G01 F40.00
G01 X8.1476 Y-34.8200 G01 F40.00
G01 X8.1008 Y-34.8046 G01 F40.00
G01 X7.9159 Y-34.7384 G01 F40.00
G01 X7.8505 Y-34.7122 G01 F40.00
G01 X7.6341 Y-34.6100 G01 F40.00
G01 X7.5709 Y-34.5753 G01 F40.00
G01 X7.4025 Y-34.4743 G01 F40.00
G01 X7.3641 Y-34.4501 G01 F40.00
G01 X7.3254 Y-34.4228 G01 F40.00
G01 X7.1676 Y-34.3058 G01 F40.00
G01 X7.1156 Y-34.2643 G01 F40.00
G01 X6.9505 Y-34.1151 G01 F40.00
G01 X6.9512 Y-34.1143 G01 F40.00
G01 X6.9169 Y-34.0831 G01 F40.00
G01 X6.7797 Y-33.9460 G01 F40.00
G00 Z2.0000
G00 X5.4439 Y-36.9536
G01 F9.00
G01 Z-0.0450
G01 F40.00
G01 X5.4450 Y-37.0000 G01 F40.00
G01 X5.4439 Y-37.0464 G01 F40.00
G01 X5.4366 Y-37.1934 G01 F40.00
G01 X5.4331 Y-37.2411 G01 F40.00
G01 X5.4275 Y-37.2857 G01 F40.00
G01 X5.4059 Y-37.4313 G01 F40.00
G01 X5.3937 Y-37.4976 G01 F40.00
G01 X5.3521 Y-37.6650 G01 F40.00
G01 X5.3406 Y-37.7070 G01 F40.00
G01 X5.3252 Y-37.7538 G01 F40.00
G01 X5.2756 Y-37.8924 G01 F40.00
G01 X5.2494 Y-37.9578 G01 F40.00
G01 X5.1681 Y-38.1297 G01 F40.00
G01 X5.1334 Y-38.1929 G01 F40.00
G01 X5.0578 Y-38.3192 G01 F40.00
G01 X5.0335 Y-38.3576 G01 F40.00
G01 X5.0062 Y-38.3963 G01 F40.00
G01 X4.9185 Y-38.5145 G01 F40.00
G01 X4.8770 Y-38.5666 G01 F40.00
G01 X4.7609 Y-38.6953 G01 F40.00
G01 X4.7289 Y-38.7289 G01 F40.00
G01 X4.6953 Y-38.7609 G01 F40.00
G01 X4.5666 Y-38.8770 G01 F40.00
G01 X4.5145 Y-38.9185 G01 F40.00
G01 X4.3963 Y-39.0062 G01 F40.00
G01 X4.3575 Y-39.0335 G01 F40.00
G01 X4.3192 Y-39.0578 G01 F40.00
G01 X4.1929 Y-39.1334 G01 F40.00
G01 X4.1297 Y-39.1681 G01 F40.00
G01 X3.9578 Y-39.2494 G01 F40.00
G01 X3.8924 Y-39.2756 G01 F40.00
G01 X3.7538 Y-39.3252 G01 F40.00
G01 X3.7070 Y-39.3406 G01 F40.00
G01 X3.6650 Y-39.3521 G01 F40.00
G01 X3.4976 Y-39.3937 G01 F40.00
G01 X3.4313 Y-39.4059 G01 F40.00
G01 X3.2857 Y-39.4275 G01 F40.00
G01 X3.2411 Y-39.4331 G01 F40.00
G01 X3.1934 Y-39.4366 G01 F40.00
G01 X3.0464 Y-39.4439 G01 F40.00
G01 X3.0000 Y-39.4450 G01 F40.00
G01 X2.9536 Y-39.4439 G01 F40.00
G01 X2.8066 Y-39.4366 G01 F40.00
G01 X2.7589 Y-39.4331 G01 F40.00
G01 X2.7143 Y-39.4275 G01 F40.00
G01 X2.5687 Y-39.4059 G01 F40.00
G01 X2.5024 Y-39.3937 G01 F40.00
G01 X2.3350 Y-39.3521 G01 F40.00
G01 X2.2930 Y-39.3406 G01 F40.00
G01 X2.2462 Y-39.3252 G01 F40.00
G01 X2.1076 Y-39.2756 G01 F40.00
G01 X2.0422 Y-39.2494 G01 F40.00
G01 X1.8703 Y-39.1681 G01 F40.00
G01 X1.8071 Y-39.1334 G01 F40.00
G01 X1.6808 Y-39.0578 G01 F40.00
G01 X1.6425 Y-39.0335 G01 F40.00
G01 X1.6037 Y-39.0062 G01 F40.00
G01 X1.4855 Y-38.9185 G01 F40.00
G01 X1.4334 Y-38.8770 G01 F40.00
G01 X1.3047 Y-38.7609 G01 F40.00
G01 X1.2711 Y-38.7289 G01 F40.00
G01 X1.2391 Y-38.6953 G01 F40.00
G01 X1.1230 Y-38.5666 G01 F40.00
G01 X1.0815 Y-38.5145 G01 F40.00
G01 X0.9938 Y-38.3963 G01 F40.00
G01 X0.9665 Y-38.3575 G01 F40.00
G01 X0.9422 Y-38.3192 G01 F40.00
G01 X0.8666 Y-38.1929 G01 F40.00
G01 X0.8319 Y-38.1297 G01 F40.00
G01 X0.7506 Y-37.9578 G01 F40.00
G01 X0.7244 Y-37.8924 G01 F40.00
G01 X0.6748 Y-37.7538 G01 F40.00
G01 X0.6594 Y-37.7070 G01 F40.00
G01 X0.6479 Y-37.6650 G01 F40.00
G01 X0.6063 Y-37.4976 G01 F40.00
G01 X0.5941 Y-37.4313 G01 F40.00
G01 X0.5725 Y-37.2857 G01 F40.00
G01 X0.5669 Y-37.2411 G01 F40.00
G01 X0.5634 Y-37.1934 G01 F40.00
G01 X0.5561 Y-37.0464 G01 F40.00
G01 X0.5550 Y-37.0000 G01 F40.00
G01 X0.5561 Y-36.9536 G01 F40.00
G01 X0.5634 Y-36.8066 G01 F40.00
G01 X0.5669 Y-36.7589 G01 F40.00
G01 X0.5725 Y-36.7143 G01 F40.00
G01 X0.5941 Y-36.5687 G01 F40.00
G01 X0.6063 Y-36.5024 G01 F40.00
G01 X0.6479 Y-36.3350 G01 F40.00
G01 X0.6594 Y-36.2930 G01 F40.00
G01 X0.6748 Y-36.2462 G01 F40.00
G01 X0.7244 Y-36.1076 G01 F40.00
G01 X0.7506 Y-36.0422 G01 F40.00
G01 X0.8319 Y-35.8703 G01 F40.00
G01 X0.8666 Y-35.8071 G01 F40.00
G01 X0.9422 Y-35.6808 G01 F40.00
G01 X0.9665 Y-35.6425 G01 F40.00
G01 X0.9938 Y-35.6037 G01 F40.00
G01 X1.0815 Y-35.4855 G01 F40.00
G01 X1.1230 Y-35.4334 G01 F40.00
G01 X1.2391 Y-35.3047 G01 F40.00
G01 X1.2711 Y-35.2711 G01 F40.00
G01 X1.3047 Y-35.2391 G01 F40.00
G01 X1.4334 Y-35.1230 G01 F40.00
G01 X1.4855 Y-35.0815 G01 F40.00
G01 X1.6037 Y-34.9938 G01 F40.00
G01 X1.6425 Y-34.9665 G01 F40.00
G01 X1.6808 Y-34.9422 G01 F40.00
G01 X1.8071 Y-34.8666 G01 F40.00
G01 X1.8703 Y-34.8319 G01 F40.00
G01 X2.0422 Y-34.7506 G01 F40.00
G01 X2.1076 Y-34.7244 G01 F40.00
G01 X2.2462 Y-34.6748 G01 F40.00
G01 X2.2930 Y-34.6594 G01 F40.00
G01 X2.3350 Y-34.6479 G01 F40.00
G01 X2.5024 Y-34.6063 G01 F40.00
G01 X2.5687 Y-34.5941 G01 F40.00
G01 X2.7143 Y-34.5725 G01 F40.00
G01 X2.7589 Y-34.5669 G01 F40.00
G01 X2.8066 Y-34.5634 G01 F40.00
G01 X2.9536 Y-34.5561 G01 F40.00
G01 X3.0000 Y-34.5550 G01 F40.00
G01 X3.0464 Y-34.5561 G01 F40.00
G01 X3.1934 Y-34.5634 G01 F40.00
G01 X3.2411 Y-34.5669 G01 F40.00
G01 X3.2857 Y-34.5725 G01 F40.00
G01 X3.4313 Y-34.5941 G01 F40.00
G01 X3.4976 Y-34.6063 G01 F40.00
G01 X3.6650 Y-34.6479 G01 F40.00
G01 X3.7070 Y-34.6594 G01 F40.00
G01 X3.7538 Y-34.6748 G01 F40.00
G01 X3.8924 Y-34.7244 G01 F40.00
G01 X3.9578 Y-34.7506 G01 F40.00
G01 X4.1297 Y-34.8319 G01 F40.00
G01 X4.1929 Y-34.8666 G01 F40.00
G01 X4.3192 Y-34.9422 G01 F40.00
G01 X4.3575 Y-34.9665 G01 F40.00
G01 X4.3963 Y-34.9938 G01 F40.00
G01 X4.5145 Y-35.0815 G01 F40.00
G01 X4.5666 Y-35.1230 G01 F40.00
G01 X4.6953 Y-35.2391 G01 F40.00
G01 X4.7289 Y-35.2711 G01 F40.00
G01 X4.7609 Y-35.3047 G01 F40.00
G01 X4.8770 Y-35.4334 G01 F40.00
G01 X4.9185 Y-35.4855 G01 F40.00
G01 X5.0062 Y-35.6037 G01 F40.00
G01 X5.0335 Y-35.6424 G01 F40.00
G01 X5.0578 Y-35.6808 G01 F40.00
G01 X5.1334 Y-35.8071 G01 F40.00
G01 X5.1681 Y-35.8703 G01 F40.00
G01 X5.2494 Y-36.0422 G01 F40.00
G01 X5.2756 Y-36.1076 G01 F40.00
G01 X5.3252 Y-36.2462 G01 F40.00
G01 X5.3406 Y-36.2930 G01 F40.00
G01 X5.3521 Y-36.3350 G01 F40.00
G01 X5.3937 Y-36.5024 G01 F40.00
G01 X5.4059 Y-36.5687 G01 F40.00
G01 X5.4275 Y-36.7143 G01 F40.00
G01 X5.4331 Y-36.7589 G01 F40.00
G01 X5.4366 Y-36.8066 G01 F40.00
G01 X5.4439 Y-36.9536 G01 F40.00
G00 Z2.0000
G00 X4.8496 Y-36.9828
G01 F9.00
G01 Z-0.0450
G01 F40.00
G01 X4.8496 Y-37.0172 G01 F40.00
G01 X4.8410 Y-37.1819 G01 F40.00
G01 X4.8174 Y-37.3440 G01 F40.00
G01 X4.8128 Y-37.3686 G01 F40.00
G01 X4.7706 Y-37.5360 G01 F40.00
G01 X4.7154 Y-37.6919 G01 F40.00
G01 X4.7057 Y-37.7162 G01 F40.00
G01 X4.6359 Y-37.8636 G01 F40.00
G01 X4.6231 Y-37.8870 G01 F40.00
G01 X4.5384 Y-38.0275 G01 F40.00
G01 X4.4406 Y-38.1601 G01 F40.00
G01 X4.4253 Y-38.1794 G01 F40.00
G01 X4.3081 Y-38.3081 G01 F40.00
G01 X4.1794 Y-38.4253 G01 F40.00
G01 X4.1601 Y-38.4406 G01 F40.00
G01 X4.0275 Y-38.5384 G01 F40.00
G01 X3.8870 Y-38.6231 G01 F40.00
G01 X3.8636 Y-38.6359 G01 F40.00
G01 X3.7162 Y-38.7057 G01 F40.00
G01 X3.6919 Y-38.7154 G01 F40.00
G01 X3.5360 Y-38.7707 G01 F40.00
G01 X3.3686 Y-38.8128 G01 F40.00
G01 X3.3440 Y-38.8174 G01 F40.00
G01 X3.1818 Y-38.8410 G01 F40.00
G01 X3.0000 Y-38.8500 G01 F40.00
G01 X2.8182 Y-38.8410 G01 F40.00
G01 X2.6560 Y-38.8174 G01 F40.00
G01 X2.6314 Y-38.8128 G01 F40.00
G01 X2.4640 Y-38.7707 G01 F40.00
G01 X2.3081 Y-38.7154 G01 F40.00
G01 X2.2838 Y-38.7057 G01 F40.00
G01 X2.1364 Y-38.6359 G01 F40.00
G01 X2.1130 Y-38.6231 G01 F40.00
G01 X1.9725 Y-38.5384 G01 F40.00
G01 X1.8399 Y-38.4406 G01 F40.00
G01 X1.8206 Y-38.4253 G01 F40.00
G01 X1.6919 Y-38.3081 G01 F40.00
G01 X1.5747 Y-38.1794 G01 F40.00
G01 X1.5594 Y-38.1601 G01 F40.00
G01 X1.4616 Y-38.0275 G01 F40.00
G01 X1.3769 Y-37.8870 G01 F40.00
G01 X1.3641 Y-37.8636 G01 F40.00
G01 X1.2943 Y-37.7162 G01 F40.00
G01 X1.2846 Y-37.6919 G01 F40.00
G01 X1.2294 Y-37.5360 G01 F40.00
G01 X1.1872 Y-37.3686 G01 F40.00
G01 X1.1826 Y-37.3440 G01 F40.00
G01 X1.1590 Y-37.1819 G01 F40.00
G01 X1.1500 Y-37.0000 G01 F40.00
G01 X1.1590 Y-36.8181 G01 F40.00
G01 X1.1826 Y-36.6560 G01 F40.00
G01 X1.1872 Y-36.6314 G01 F40.00
G01 X1.2294 Y-36.4640 G01 F40.00
G01 X1.2846 Y-36.3081 G01 F40.00
G01 X1.2943 Y-36.2838 G01 F40.00
G01 X1.3641 Y-36.1364 G01 F40.00
G01 X1.3769 Y-36.1130 G01 F40.00
G01 X1.4616 Y-35.9725 G01 F40.00
G01 X1.5594 Y-35.8399 G01 F40.00
G01 X1.5747 Y-35.8206 G01 F40.00
G01 X1.6919 Y-35.6919 G01 F40.00
G01 X1.8206 Y-35.5747 G01 F40.00
G01 X1.8399 Y-35.5594 G01 F40.00
G01 X1.9725 Y-35.4616 G01 F40.00
G01 X2.1130 Y-35.3769 G01 F40.00
G01 X2.1364 Y-35.3641 G01 F40.00
G01 X2.2838 Y-35.2943 G01 F40.00
G01 X2.3081 Y-35.2846 G01 F40.00
G01 X2.4640 Y-35.2293 G01 F40.00
G01 X2.6314 Y-35.1872 G01 F40.00
G01 X2.6560 Y-35.1826 G01 F40.00
G01 X2.8182 Y-35.1590 G01 F40.00
G01 X3.0000 Y-35.1500 G01 F40.00
G01 X3.1818 Y-35.1590 G01 F40.00
G01 X3.3440 Y-35.1826 G01 F40.00
G01 X3.3686 Y-35.1872 G01 F40.00
G01 X3.5360 Y-35.2293 G01 F40.00
G01 X3.6919 Y-35.2846 G01 F40.00
G01 X3.7162 Y-35.2943 G01 F40.00
G01 X3.8636 Y-35.3641 G01 F40.00
G01 X3.8870 Y-35.3769 G01 F40.00
G01 X4.0275 Y-35.4616 G01 F40.00
G01 X4.1601 Y-35.5594 G01 F40.00
G01 X4.1794 Y-35.5747 G01 F40.00
G01 X4.3081 Y-35.6919 G01 F40.00
G01 X4.4253 Y-35.8206 G01 F40.00
G01 X4.4406 Y-35.8399 G01 F40.00
G01 X4.5384 Y-35.9725 G01 F40.00
G01 X4.6231 Y-36.1130 G01 F40.00
G01 X4.6359 Y-36.1364 G01 F40.00
G01 X4.7057 Y-36.2838 G01 F40.00
G01 X4.7154 Y-36.3081 G01 F40.00
G01 X4.7706 Y-36.4640 G01 F40.00
G01 X4.8128 Y-36.6314 G01 F40.00
G01 X4.8174 Y-36.6560 G01 F40.00
G01 X4.8410 Y-36.8181 G01 F40.00
G01 X4.8496 Y-36.9828 G01 F40.00
G00 Z2.0000
G00 X22.0542 Y-34.3597
G01 F9.00
G01 Z-0.0450
G01 F40.00
G01 X22.0542 Y-26.6403 G01 F40.00
G01 X22.0265 Y-26.5970 G01 F40.00
G01 X21.9256 Y-26.4286 G01 F40.00
G01 X21.8909 Y-26.3654 G01 F40.00
G01 X21.7887 Y-26.1492 G01 F40.00
G01 X21.7625 Y-26.0837 G01 F40.00
G01 X21.6964 Y-25.8989 G01 F40.00
G01 X21.6810 Y-25.8521 G01 F40.00
G01 X21.6694 Y-25.8102 G01 F40.00
G01 X21.6217 Y-25.6198 G01 F40.00
G01 X21.6159 Y-25.5952 G01 F40.00
G01 X21.6037 Y-25.5288 G01 F40.00
G01 X21.5749 Y-25.3347 G01 F40.00
G01 X21.5693 Y-25.2901 G01 F40.00
G01 X21.5658 Y-25.2424 G01 F40.00
G01 X21.5561 Y-25.0464 G01 F40.00
G01 X21.5550 Y-25.0000 G01 F40.00
G01 X21.5561 Y-24.9536 G01 F40.00
G01 X21.5658 Y-24.7576 G01 F40.00
G01 X21.5693 Y-24.7099 G01 F40.00
G01 X21.5749 Y-24.6653 G01 F40.00
G01 X21.6037 Y-24.4712 G01 F40.00
G01 X21.6159 Y-24.4048 G01 F40.00
G01 X21.6694 Y-24.1898 G01 F40.00
G01 X21.6810 Y-24.1479 G01 F40.00
G01 X21.6964 Y-24.1011 G01 F40.00
G01 X21.7625 Y-23.9163 G01 F40.00
G01 X21.7887 Y-23.8508 G01 F40.00
G01 X21.8909 Y-23.6346 G01 F40.00
G01 X21.9256 Y-23.5714 G01 F40.00
G01 X22.0265 Y-23.4030 G01 F40.00
G01 X22.0508 Y-23.3647 G01 F40.00
G01 X22.0780 Y-23.3259 G01 F40.00
G01 X22.1949 Y-23.1683 G01 F40.00
G01 X22.2365 Y-23.1162 G01 F40.00
G01 X22.2538 Y-23.0966 G01 F40.00
G01 X22.3856 Y-22.9512 G01 F40.00
G01 X22.4176 Y-22.9176 G01 F40.00
G01 X22.4512 Y-22.8856 G01 F40.00
G01 X22.6162 Y-22.7365 G01 F40.00
G01 X22.6683 Y-22.6949 G01 F40.00
G01 X22.8259 Y-22.5780 G01 F40.00
G01 X22.8647 Y-22.5508 G01 F40.00
G01 X22.9030 Y-22.5265 G01 F40.00
G01 X23.0714 Y-22.4256 G01 F40.00
G01 X23.1346 Y-22.3909 G01 F40.00
G01 X23.3508 Y-22.2887 G01 F40.00
G01 X23.4163 Y-22.2625 G01 F40.00
G01 X23.6011 Y-22.1964 G01 F40.00
G01 X23.6479 Y-22.1810 G01 F40.00
G01 X23.6898 Y-22.1694 G01 F40.00
G01 X23.9048 Y-22.1159 G01 F40.00
G01 X23.9712 Y-22.1037 G01 F40.00
G01 X24.1653 Y-22.0749 G01 F40.00
G01 X24.2099 Y-22.0693 G01 F40.00
G01 X24.2576 Y-22.0658 G01 F40.00
G01 X24.4536 Y-22.0561 G01 F40.00
G01 X24.5000 Y-22.0550 G01 F40.00
G01 X24.5464 Y-22.0561 G01 F40.00
G01 X24.7424 Y-22.0658 G01 F40.00
G01 X24.7901 Y-22.0693 G01 F40.00
G01 X24.8347 Y-22.0749 G01 F40.00
G01 X25.0288 Y-22.1037 G01 F40.00
G01 X25.0952 Y-22.1159 G01 F40.00
G01 X25.3102 Y-22.1694 G01 F40.00
G01 X25.3521 Y-22.1810 G01 F40.00
G01 X25.3989 Y-22.1964 G01 F40.00
G01 X25.5837 Y-22.2625 G01 F40.00
G01 X25.6492 Y-22.2887 G01 F40.00
G01 X25.6694 Y-22.2980 G01 F40.00
G01 X25.8654 Y-22.3909 G01 F40.00
G01 X25.9286 Y-22.4256 G01 F40.00
G01 X26.0970 Y-22.5265 G01 F40.00
G01 X26.1353 Y-22.5508 G01 F40.00
G01 X26.1741 Y-22.5780 G01 F40.00
G01 X26.3317 Y-22.6949 G01 F40.00
G01 X26.3838 Y-22.7365 G01 F40.00
G01 X26.4034 Y-22.7538 G01 F40.00
G01 X26.5488 Y-22.8856 G01 F40.00
G01 X26.5824 Y-22.9176 G01 F40.00
G01 X26.6144 Y-22.9512 G01 F40.00
G01 X26.7635 Y-23.1162 G01 F40.00
G01 X26.8051 Y-23.1683 G01 F40.00
G01 X26.9220 Y-23.3259 G01 F40.00
G01 X26.9492 Y-23.3647 G01 F40.00
G01 X26.9735 Y-23.4030 G01 F40.00
G01 X27.0744 Y-23.5714 G01 F40.00
G01 X27.1091 Y-23.6346 G01 F40.00
G01 X27.2113 Y-23.8508 G01 F40.00
G01 X27.2375 Y-23.9163 G01 F40.00
G01 X27.3036 Y-24.1011 G01 F40.00
G01 X27.3190 Y-24.1479 G01 F40.00
G01 X27.3306 Y-24.1898 G01 F40.00
G01 X27.3841 Y-24.4048 G01 F40.00
G01 X27.3963 Y-24.4712 G01 F40.00
G01 X27.4251 Y-24.6653 G01 F40.00
G01 X27.4307 Y-24.7099 G01 F40.00
G01 X27.4342 Y-24.7576 G01 F40.00
G01 X27.4439 Y-24.9536 G01 F40.00
G01 X27.4450 Y-25.0000 G01 F40.00
G01 X27.4439 Y-25.0464 G01 F40.00
G01 X27.4342 Y-25.2424 G01 F40.00
G01 X27.4307 Y-25.2901 G01 F40.00
G01 X27.4251 Y-25.3347 G01 F40.00
G01 X27.3963 Y-25.5288 G01 F40.00
G01 X27.3841 Y-25.5952 G01 F40.00
G01 X27.3306 Y-25.8102 G01 F40.00
G01 X27.3190 Y-25.8521 G01 F40.00
G01 X27.3036 Y-25.8989 G01 F40.00
G01 X27.2375 Y-26.0837 G01 F40.00
G01 X27.2113 Y-26.1492 G01 F40.00
G01 X27.2020 Y-26.1694 G01 F40.00
G01 X27.1091 Y-26.3654 G01 F40.00
G01 X27.0744 Y-26.4286 G01 F40.00
G01 X26.9735 Y-26.5970 G01 F40.00
G01 X26.9458 Y-26.6403 G01 F40.00
G01 X26.9458 Y-34.3597 G01 F40.00
G01 X26.9735 Y-34.4030 G01 F40.00
G01 X27.0744 Y-34.5714 G01 F40.00
G01 X27.1091 Y-34.6346 G01 F40.00
G01 X27.1181 Y-34.6532 G01 F40.00
G01 X27.2113 Y-34.8508 G01 F40.00
G01 X27.2375 Y-34.9163 G01 F40.00
G01 X27.3036 Y-35.1011 G01 F40.00
G01 X27.3190 Y-35.1479 G01 F40.00
G01 X27.3306 Y-35.1898 G01 F40.00
G01 X27.3841 Y-35.4048 G01 F40.00
G01 X27.3963 Y-35.4712 G01 F40.00
G01 X27.4251 Y-35.6653 G01 F40.00
G01 X27.4307 Y-35.7099 G01 F40.00
G01 X27.4342 Y-35.7576 G01 F40.00
G01 X27.4439 Y-35.9536 G01 F40.00
G01 X27.4450 Y-36.0000 G01 F40.00
G01 X27.4439 Y-36.0464 G01 F40.00
G01 X27.4342 Y-36.2424 G01 F40.00
G01 X27.4307 Y-36.2901 G01 F40.00
G01 X27.4251 Y-36.3347 G01 F40.00
G01 X27.3963 Y-36.5288 G01 F40.00
G01 X27.3841 Y-36.5952 G01 F40.00
G01 X27.3783 Y-36.6198 G01 F40.00
G01 X27.3306 Y-36.8102 G01 F40.00
G01 X27.3190 Y-36.8521 G01 F40.00
G01 X27.3036 Y-36.8989 G01 F40.00
G01 X27.2375 Y-37.0837 G01 F40.00
G01 X27.2113 Y-37.1492 G01 F40.00
G01 X27.2020 Y-37.1694 G01 F40.00
G01 X27.1091 Y-37.3654 G01 F40.00
G01 X27.0744 Y-37.4286 G01 F40.00
G01 X26.9735 Y-37.5970 G01 F40.00
G01 X26.9492 Y-37.6353 G01 F40.00
G01 X26.9220 Y-37.6741 G01 F40.00
G01 X26.8051 Y-37.8317 G01 F40.00
G01 X26.7635 Y-37.8838 G01 F40.00
G01 X26.6144 Y-38.0488 G01 F40.00
G01 X26.5824 Y-38.0824 G01 F40.00
G01 X26.5488 Y-38.1144 G01 F40.00
G01 X26.3838 Y-38.2635 G01 F40.00
G01 X26.3317 Y-38.3051 G01 F40.00
G01 X26.1741 Y-38.4220 G01 F40.00
G01 X26.1353 Y-38.4492 G01 F40.00
G01 X26.0970 Y-38.4735 G01 F40.00
G01 X25.9286 Y-38.5744 G01 F40.00
G01 X25.8654 Y-38.6091 G01 F40.00
G01 X25.6492 Y-38.7113 G01 F40.00
G01 X25.5837 Y-38.7375 G01 F40.00
G01 X25.3989 Y-38.8036 G01 F40.00
G01 X25.3521 Y-38.8190 G01 F40.00
G01 X25.3102 Y-38.8306 G01 F40.00
G01 X25.0952 Y-38.8841 G01 F40.00
G01 X25.0288 Y-38.8963 G01 F40.00
G01 X24.8347 Y-38.9251 G01 F40.00
G01 X24.7901 Y-38.9307 G01 F40.00
G01 X24.7424 Y-38.9342 G01 F40.00
G01 X24.5464 Y-38.9439 G01 F40.00
G01 X24.5000 Y-38.9450 G01 F40.00
G01 X24.4536 Y-38.9439 G01 F40.00
G01 X24.2576 Y-38.9342 G01 F40.00
G01 X24.2099 Y-38.9307 G01 F40.00
G01 X24.1653 Y-38.9251 G01 F40.00
G01 X23.9712 Y-38.8963 G01 F40.00
G01 X23.9048 Y-38.8841 G01 F40.00
G01 X23.6898 Y-38.8306 G01 F40.00
G01 X23.6479 Y-38.8190 G01 F40.00
G01 X23.6011 Y-38.8036 G01 F40.00
G01 X23.4163 Y-38.7375 G01 F40.00
G01 X23.3508 Y-38.7113 G01 F40.00
G01 X23.1346 Y-38.6091 G01 F40.00
G01 X23.0714 Y-38.5744 G01 F40.00
G01 X22.9030 Y-38.4735 G01 F40.00
G01 X22.8647 Y-38.4492 G01 F40.00
G01 X22.8259 Y-38.4220 G01 F40.00
G01 X22.6683 Y-38.3051 G01 F40.00
G01 X22.6162 Y-38.2635 G01 F40.00
G01 X22.4512 Y-38.1144 G01 F40.00
G01 X22.4176 Y-38.0824 G01 F40.00
G01 X22.3856 Y-38.0488 G01 F40.00
G01 X22.2365 Y-37.8838 G01 F40.00
G01 X22.1949 Y-37.8317 G01 F40.00
G01 X22.0780 Y-37.6741 G01 F40.00
G01 X22.0508 Y-37.6353 G01 F40.00
G01 X22.0265 Y-37.5970 G01 F40.00
G01 X21.9256 Y-37.4286 G01 F40.00
G01 X21.8909 Y-37.3654 G01 F40.00
G01 X21.7887 Y-37.1492 G01 F40.00
G01 X21.7625 Y-37.0837 G01 F40.00
G01 X21.6964 Y-36.8989 G01 F40.00
G01 X21.6810 Y-36.8521 G01 F40.00
G01 X21.6694 Y-36.8102 G01 F40.00
G01 X21.6159 Y-36.5952 G01 F40.00
G01 X21.6037 Y-36.5288 G01 F40.00
G01 X21.5749 Y-36.3347 G01 F40.00
G01 X21.5693 Y-36.2901 G01 F40.00
G01 X21.5658 Y-36.2424 G01 F40.00
G01 X21.5561 Y-36.0464 G01 F40.00
G01 X21.5550 Y-36.0000 G01 F40.00
G01 X21.5561 Y-35.9536 G01 F40.00
G01 X21.5658 Y-35.7576 G01 F40.00
G01 X21.5693 Y-35.7099 G01 F40.00
G01 X21.5749 Y-35.6653 G01 F40.00
G01 X21.6037 Y-35.4712 G01 F40.00
G01 X21.6159 Y-35.4048 G01 F40.00
G01 X21.6694 Y-35.1898 G01 F40.00
G01 X21.6810 Y-35.1479 G01 F40.00
G01 X21.6964 Y-35.1011 G01 F40.00
G01 X21.7625 Y-34.9163 G01 F40.00
G01 X21.7887 Y-34.8508 G01 F40.00
G01 X21.8909 Y-34.6346 G01 F40.00
G01 X21.9256 Y-34.5714 G01 F40.00
G01 X22.0265 Y-34.4030 G01 F40.00
G01 X22.0542 Y-34.3597 G01 F40.00
G00 Z2.0000
G00 X22.6492 Y-34.5545
G01 F9.00
G01 Z-0.0450
G01 F40.00
G01 X22.6492 Y-26.4455 G01 F40.00
G01 X22.5458 Y-26.3053 G01 F40.00
G01 X22.4360 Y-26.1227 G01 F40.00
G01 X22.4198 Y-26.0924 G01 F40.00
G01 X22.3358 Y-25.9150 G01 F40.00
G01 X22.3227 Y-25.8833 G01 F40.00
G01 X22.2509 Y-25.6811 G01 F40.00
G01 X22.1989 Y-25.4752 G01 F40.00
G01 X22.1922 Y-25.4415 G01 F40.00
G01 X22.1614 Y-25.2309 G01 F40.00
G01 X22.1500 Y-25.0000 G01 F40.00
G01 X22.1614 Y-24.7691 G01 F40.00
G01 X22.1922 Y-24.5585 G01 F40.00
G01 X22.1968 Y-24.5339 G01 F40.00
G01 X22.2509 Y-24.3189 G01 F40.00
G01 X22.3227 Y-24.1167 G01 F40.00
G01 X22.3324 Y-24.0925 G01 F40.00
G01 X22.4231 Y-23.9007 G01 F40.00
G01 X22.4360 Y-23.8773 G01 F40.00
G01 X22.5458 Y-23.6947 G01 F40.00
G01 X22.6729 Y-23.5227 G01 F40.00
G01 X22.6882 Y-23.5034 G01 F40.00
G01 X22.8383 Y-23.3383 G01 F40.00
G01 X23.0034 Y-23.1882 G01 F40.00
G01 X23.0227 Y-23.1729 G01 F40.00
G01 X23.1947 Y-23.0458 G01 F40.00
G01 X23.3773 Y-22.9360 G01 F40.00
G01 X23.4007 Y-22.9231 G01 F40.00
G01 X23.5925 Y-22.8324 G01 F40.00
G01 X23.6167 Y-22.8227 G01 F40.00
G01 X23.8189 Y-22.7509 G01 F40.00
G01 X24.0339 Y-22.6968 G01 F40.00
G01 X24.0585 Y-22.6922 G01 F40.00
G01 X24.2691 Y-22.6614 G01 F40.00
G01 X24.5000 Y-22.6500 G01 F40.00
G01 X24.7309 Y-22.6614 G01 F40.00
G01 X24.9415 Y-22.6922 G01 F40.00
G01 X24.9661 Y-22.6968 G01 F40.00
G01 X25.1811 Y-22.7509 G01 F40.00
G01 X25.3833 Y-22.8227 G01 F40.00
G01 X25.4150 Y-22.8358 G01 F40.00
G01 X25.5924 Y-22.9198 G01 F40.00
G01 X25.6227 Y-22.9360 G01 F40.00
G01 X25.8053 Y-23.0458 G01 F40.00
G01 X25.9773 Y-23.1729 G01 F40.00
G01 X25.9966 Y-23.1882 G01 F40.00
G01 X26.1617 Y-23.3383 G01 F40.00
G01 X26.3054 Y-23.4962 G01 F40.00
G01 X26.3271 Y-23.5227 G01 F40.00
G01 X26.4441 Y-23.6804 G01 F40.00
G01 X26.4631 Y-23.7089 G01 F40.00
G01 X26.5640 Y-23.8773 G01 F40.00
G01 X26.5769 Y-23.9007 G01 F40.00
G01 X26.6676 Y-24.0925 G01 F40.00
G01 X26.6773 Y-24.1167 G01 F40.00
G01 X26.7434 Y-24.3015 G01 F40.00
G01 X26.7534 Y-24.3344 G01 F40.00
G01 X26.8032 Y-24.5339 G01 F40.00
G01 X26.8078 Y-24.5585 G01 F40.00
G01 X26.8386 Y-24.7691 G01 F40.00
G01 X26.8500 Y-25.0000 G01 F40.00
G01 X26.8386 Y-25.2309 G01 F40.00
G01 X26.8078 Y-25.4415 G01 F40.00
G01 X26.8032 Y-25.4661 G01 F40.00
G01 X26.7491 Y-25.6811 G01 F40.00
G01 X26.6773 Y-25.8833 G01 F40.00
G01 X26.6676 Y-25.9075 G01 F40.00
G01 X26.5769 Y-26.0993 G01 F40.00
G01 X26.5640 Y-26.1227 G01 F40.00
G01 X26.4542 Y-26.3053 G01 F40.00
G01 X26.3508 Y-26.4455 G01 F40.00
G01 X26.3508 Y-34.5545 G01 F40.00
G01 X26.4542 Y-34.6947 G01 F40.00
G01 X26.5640 Y-34.8773 G01 F40.00
G01 X26.5769 Y-34.9007 G01 F40.00
G01 X26.6676 Y-35.0925 G01 F40.00
G01 X26.6773 Y-35.1167 G01 F40.00
G01 X26.7434 Y-35.3015 G01 F40.00
G01 X26.7534 Y-35.3344 G01 F40.00
G01 X26.8011 Y-35.5248 G01 F40.00
G01 X26.8078 Y-35.5585 G01 F40.00
G01 X26.8386 Y-35.7691 G01 F40.00
G01 X26.8496 Y-35.9828 G01 F40.00
G01 X26.8496 Y-36.0172 G01 F40.00
G01 X26.8386 Y-36.2309 G01 F40.00
G01 X26.8078 Y-36.4415 G01 F40.00
G01 X26.8032 Y-36.4661 G01 F40.00
G01 X26.7491 Y-36.6811 G01 F40.00
G01 X26.6773 Y-36.8833 G01 F40.00
G01 X26.6642 Y-36.9150 G01 F40.00
G01 X26.5802 Y-37.0924 G01 F40.00
G01 X26.5640 Y-37.1227 G01 F40.00
G01 X26.4542 Y-37.3053 G01 F40.00
G01 X26.3271 Y-37.4773 G01 F40.00
G01 X26.3118 Y-37.4966 G01 F40.00
G01 X26.1617 Y-37.6617 G01 F40.00
G01 X25.9966 Y-37.8118 G01 F40.00
G01 X25.9773 Y-37.8271 G01 F40.00
G01 X25.8053 Y-37.9542 G01 F40.00
G01 X25.6227 Y-38.0640 G01 F40.00
G01 X25.5993 Y-38.0769 G01 F40.00
G01 X25.4075 Y-38.1676 G01 F40.00
G01 X25.3833 Y-38.1773 G01 F40.00
G01 X25.1811 Y-38.2491 G01 F40.00
G01 X24.9661 Y-38.3032 G01 F40.00
G01 X24.9415 Y-38.3078 G01 F40.00
G01 X24.7309 Y-38.3386 G01 F40.00
G01 X24.5000 Y-38.3500 G01 F40.00
G01 X24.2691 Y-38.3386 G01 F40.00
G01 X24.0585 Y-38.3078 G01 F40.00
G01 X24.0339 Y-38.3032 G01 F40.00
G01 X23.8189 Y-38.2491 G01 F40.00
G01 X23.6167 Y-38.1773 G01 F40.00
G01 X23.5925 Y-38.1676 G01 F40.00
G01 X23.4007 Y-38.0769 G01 F40.00
G01 X23.3773 Y-38.0640 G01 F40.00
G01 X23.1947 Y-37.9542 G01 F40.00
G01 X23.0227 Y-37.8271 G01 F40.00
G01 X23.0034 Y-37.8118 G01 F40.00
G01 X22.8383 Y-37.6617 G01 F40.00
G01 X22.6882 Y-37.4966 G01 F40.00
G01 X22.6729 Y-37.4773 G01 F40.00
G01 X22.5458 Y-37.3053 G01 F40.00
G01 X22.4360 Y-37.1227 G01 F40.00
G01 X22.4231 Y-37.0993 G01 F40.00
G01 X22.3324 Y-36.9075 G01 F40.00
G01 X22.3227 Y-36.8833 G01 F40.00
G01 X22.2509 Y-36.6811 G01 F40.00
G01 X22.1968 Y-36.4661 G01 F40.00
G01 X22.1922 Y-36.4415 G01 F40.00
G01 X22.1614 Y-36.2309 G01 F40.00
G01 X22.1500 Y-36.0000 G01 F40.00
G01 X22.1614 Y-35.7691 G01 F40.00
G01 X22.1922 Y-35.5585 G01 F40.00
G01 X22.1968 Y-35.5339 G01 F40.00
G01 X22.2509 Y-35.3189 G01 F40.00
G01 X22.3227 Y-35.1167 G01 F40.00
G01 X22.3324 Y-35.0925 G01 F40.00
G01 X22.4231 Y-34.9007 G01 F40.00
G01 X22.4360 Y-34.8773 G01 F40.00
G01 X22.5458 Y-34.6947 G01 F40.00
G01 X22.6492 Y-34.5545 G01 F40.00
G00 Z2.0000
G00 X27.3044 Y-26.9592
G01 F9.00
G01 Z-0.0450
G01 F40.00
G01 X27.2365 Y-26.8838 G01 F40.00
G01 X27.1949 Y-26.8317 G01 F40.00
G01 X27.0780 Y-26.6741 G01 F40.00
G01 X27.0508 Y-26.6353 G01 F40.00
G01 X27.0265 Y-26.5970 G01 F40.00
G01 X26.9256 Y-26.4286 G01 F40.00
G01 X26.8909 Y-26.3654 G01 F40.00
G01 X26.7887 Y-26.1492 G01 F40.00
G01 X26.7625 Y-26.0837 G01 F40.00
G01 X26.6964 Y-25.8989 G01 F40.00
G01 X26.6810 Y-25.8521 G01 F40.00
G01 X26.6694 Y-25.8102 G01 F40.00
G01 X26.6159 Y-25.5952 G01 F40.00
G01 X26.6037 Y-25.5288 G01 F40.00
G01 X26.5749 Y-25.3347 G01 F40.00
G01 X26.5693 Y-25.2901 G01 F40.00
G01 X26.5658 Y-25.2424 G01 F40.00
G01 X26.5561 Y-25.0464 G01 F40.00
G01 X26.5550 Y-25.0000 G01 F40.00
G01 X26.5561 Y-24.9536 G01 F40.00
G01 X26.5658 Y-24.7576 G01 F40.00
G01 X26.5693 Y-24.7099 G01 F40.00
G01 X26.5749 Y-24.6653 G01 F40.00
G01 X26.6037 Y-24.4712 G01 F40.00
G01 X26.6159 Y-24.4048 G01 F40.00
G01 X26.6694 Y-24.1898 G01 F40.00
G01 X26.6810 Y-24.1479 G01 F40.00
G01 X26.6964 Y-24.1011 G01 F40.00
G01 X26.7625 Y-23.9163 G01 F40.00
G01 X26.7887 Y-23.8508 G01 F40.00
G01 X26.8909 Y-23.6346 G01 F40.00
G01 X26.9256 Y-23.5714 G01 F40.00
G01 X27.0265 Y-23.4030 G01 F40.00
G01 X27.0508 Y-23.3647 G01 F40.00
G01 X27.0780 Y-23.3259 G01 F40.00
G01 X27.1949 Y-23.1683 G01 F40.00
G01 X27.2365 Y-23.1162 G01 F40.00
G01 X27.3856 Y-22.9512 G01 F40.00
G01 X27.4176 Y-22.9176 G01 F40.00
G01 X27.4512 Y-22.8856 G01 F40.00
G01 X27.6162 Y-22.7365 G01 F40.00
G01 X27.6683 Y-22.6949 G01 F40.00
G01 X27.8259 Y-22.5780 G01 F40.00
G01 X27.8647 Y-22.5508 G01 F40.00
G01 X27.9030 Y-22.5265 G01 F40.00
G01 X28.0714 Y-22.4256 G01 F40.00
G01 X28.1346 Y-22.3909 G01 F40.00
G01 X28.3508 Y-22.2887 G01 F40.00
G01 X28.4163 Y-22.2625 G01 F40.00
G01 X28.6011 Y-22.1964 G01 F40.00
G01 X28.6479 Y-22.1810 G01 F40.00
G01 X28.6898 Y-22.1694 G01 F40.00
G01 X28.9048 Y-22.1159 G01 F40.00
G01 X28.9712 Y-22.1037 G01 F40.00
G01 X29.1653 Y-22.0749 G01 F40.00
G01 X29.2099 Y-22.0693 G01 F40.00
G01 X29.2576 Y-22.0658 G01 F40.00
G01 X29.4536 Y-22.0561 G01 F40.00
G01 X29.5000 Y-22.0550 G01 F40.00
G01 X29.5464 Y-22.0561 G01 F40.00
G01 X29.7424 Y-22.0658 G01 F40.00
G01 X29.7901 Y-22.0693 G01 F40.00
G01 X29.8347 Y-22.0749 G01 F40.00
G01 X30.0288 Y-22.1037 G01 F40.00
G01 X30.0952 Y-22.1159 G01 F40.00
G01 X30.3102 Y-22.1694 G01 F40.00
G01 X30.3521 Y-22.1810 G01 F40.00
G01 X30.3989 Y-22.1964 G01 F40.00
G01 X30.5837 Y-22.2625 G01 F40.00
G01 X30.6492 Y-22.2887 G01 F40.00
G01 X30.8654 Y-22.3909 G01 F40.00
G01 X30.9286 Y-22.4256 G01 F40.00
G01 X31.0970 Y-22.5265 G01 F40.00
G01 X31.1353 Y-22.5508 G01 F40.00
G01 X31.1741 Y-22.5780 G01 F40.00
G01 X31.3317 Y-22.6949 G01 F40.00
G01 X31.3838 Y-22.7365 G01 F40.00
G01 X31.5488 Y-22.8856 G01 F40.00
G01 X31.5824 Y-22.9176 G01 F40.00
G01 X31.6144 Y-22.9512 G01 F40.00
G01 X31.7635 Y-23.1162 G01 F40.00
G01 X31.8051 Y-23.1683 G01 F40.00
G01 X31.9220 Y-23.3259 G01 F40.00
G01 X31.9492 Y-23.3647 G01 F40.00
G01 X31.9735 Y-23.4030 G01 F40.00
G01 X32.0744 Y-23.5714 G01 F40.00
G01 X32.1091 Y-23.6346 G01 F40.00
G01 X32.2113 Y-23.8508 G01 F40.00
G01 X32.2375 Y-23.9163 G01 F40.00
G01 X32.3036 Y-24.1011 G01 F40.00
G01 X32.3190 Y-24.1479 G01 F40.00
G01 X32.3306 Y-24.1898 G01 F40.00
G01 X32.3783 Y-24.3802 G01 F40.00
G01 X32.3841 Y-24.4048 G01 F40.00
G01 X32.3963 Y-24.4712 G01 F40.00
G01 X32.4251 Y-24.6653 G01 F40.00
G01 X32.4307 Y-24.7099 G01 F40.00
G01 X32.4342 Y-24.7576 G01 F40.00
G01 X32.4439 Y-24.9536 G01 F40.00
G01 X32.4450 Y-25.0000 G01 F40.00
G01 X32.4439 Y-25.0464 G01 F40.00
G01 X32.4342 Y-25.2424 G01 F40.00
G01 X32.4307 Y-25.2901 G01 F40.00
G01 X32.4251 Y-25.3347 G01 F40.00
G01 X32.3963 Y-25.5288 G01 F40.00
G01 X32.3841 Y-25.5952 G01 F40.00
G01 X32.3306 Y-25.8102 G01 F40.00
G01 X32.3190 Y-25.8521 G01 F40.00
G01 X32.3036 Y-25.8989 G01 F40.00
G01 X32.2375 Y-26.0837 G01 F40.00
G01 X32.2113 Y-26.1492 G01 F40.00
G01 X32.1091 Y-26.3654 G01 F40.00
G01 X32.0744 Y-26.4286 G01 F40.00
G01 X31.9735 Y-26.5970 G01 F40.00
G01 X31.9492 Y-26.6353 G01 F40.00
G01 X31.9220 Y-26.6741 G01 F40.00
G01 X31.8051 Y-26.8317 G01 F40.00
G01 X31.7635 Y-26.8838 G01 F40.00
G01 X31.6956 Y-26.9592 G01 F40.00
G01 X31.6956 Y-27.9139 G01 F40.00
G01 X32.0861 Y-28.3044 G01 F40.00
G01 X40.2855 Y-28.3044 G01 F40.00
G01 X40.3319 Y-28.3055 G01 F40.00
G01 X40.4545 Y-28.3115 G01 F40.00
G01 X40.5021 Y-28.3151 G01 F40.00
G01 X40.5467 Y-28.3206 G01 F40.00
G01 X40.6681 Y-28.3386 G01 F40.00
G01 X40.7345 Y-28.3509 G01 F40.00
G01 X40.8782 Y-28.3865 G01 F40.00
G01 X40.9201 Y-28.3981 G01 F40.00
G01 X40.9669 Y-28.4135 G01 F40.00
G01 X41.0825 Y-28.4548 G01 F40.00
G01 X41.1479 Y-28.4810 G01 F40.00
G01 X41.2977 Y-28.5518 G01 F40.00
G01 X41.3609 Y-28.5865 G01 F40.00
G01 X41.4661 Y-28.6496 G01 F40.00
G01 X41.5045 Y-28.6739 G01 F40.00
G01 X41.5432 Y-28.7011 G01 F40.00
G01 X41.6418 Y-28.7742 G01 F40.00
G01 X41.6939 Y-28.8158 G01 F40.00
G01 X41.7135 Y-28.8331 G01 F40.00
G01 X41.8044 Y-28.9155 G01 F40.00
G01 X41.8037 Y-28.9163 G01 F40.00
G01 X41.8380 Y-28.9475 G01 F40.00
G01 X42.9446 Y-30.0540 G01 F40.00
G01 X61.2797 Y-30.0540 G01 F40.00
G01 X62.4169 Y-28.9169 G01 F40.00
G01 X62.4505 Y-28.8849 G01 F40.00
G01 X62.6156 Y-28.7357 G01 F40.00
G01 X62.6676 Y-28.6942 G01 F40.00
G01 X62.8254 Y-28.5772 G01 F40.00
G01 X62.8641 Y-28.5499 G01 F40.00
G01 X62.9025 Y-28.5257 G01 F40.00
G01 X63.0709 Y-28.4247 G01 F40.00
G01 X63.1341 Y-28.3900 G01 F40.00
G01 X63.3302 Y-28.2970 G01 F40.00
G01 X63.3505 Y-28.2878 G01 F40.00
G01 X63.4159 Y-28.2616 G01 F40.00
G01 X63.6008 Y-28.1954 G01 F40.00
G01 X63.6476 Y-28.1800 G01 F40.00
G01 X63.6895 Y-28.1685 G01 F40.00
G01 X63.9046 Y-28.1150 G01 F40.00
G01 X63.9710 Y-28.1027 G01 F40.00
G01 X64.1652 Y-28.0739 G01 F40.00
G01 X64.2098 Y-28.0683 G01 F40.00
G01 X64.2575 Y-28.0648 G01 F40.00
G01 X64.4536 Y-28.0551 G01 F40.00
G01 X64.5000 Y-28.0540 G01 F40.00
G01 X64.5464 Y-28.0551 G01 F40.00
G01 X64.7425 Y-28.0648 G01 F40.00
G01 X64.7902 Y-28.0683 G01 F40.00
G01 X64.8348 Y-28.0739 G01 F40.00
G01 X65.0290 Y-28.1027 G01 F40.00
G01 X65.0954 Y-28.1150 G01 F40.00
G01 X65.3105 Y-28.1685 G01 F40.00
G01 X65.3524 Y-28.1800 G01 F40.00
G01 X65.3992 Y-28.1954 G01 F40.00
G01 X65.5841 Y-28.2616 G01 F40.00
G01 X65.6495 Y-28.2878 G01 F40.00
G01 X65.8659 Y-28.3900 G01 F40.00
G01 X65.9291 Y-28.4247 G01 F40.00
G01 X66.0975 Y-28.5257 G01 F40.00
G01 X66.1359 Y-28.5499 G01 F40.00
G01 X66.1746 Y-28.5772 G01 F40.00
G01 X66.3324 Y-28.6942 G01 F40.00
G01 X66.3844 Y-28.7357 G01 F40.00
G01 X66.5495 Y-28.8849 G01 F40.00
G01 X66.5831 Y-28.9169 G01 F40.00
G01 X66.6151 Y-28.9505 G01 F40.00
G01 X66.7643 Y-29.1156 G01 F40.00
G01 X66.8058 Y-29.1676 G01 F40.00
G01 X66.9228 Y-29.3254 G01 F40.00
G01 X66.9501 Y-29.3641 G01 F40.00
G01 X66.9743 Y-29.4025 G01 F40.00
G01 X67.0753 Y-29.5709 G01 F40.00
G01 X67.1100 Y-29.6341 G01 F40.00
G01 X67.2122 Y-29.8504 G01 F40.00
G01 X67.2384 Y-29.9159 G01 F40.00
G01 X67.3046 Y-30.1008 G01 F40.00
G01 X67.3200 Y-30.1476 G01 F40.00
G01 X67.3315 Y-30.1895 G01 F40.00
G01 X67.3851 Y-30.4046 G01 F40.00
G01 X67.3973 Y-30.4710 G01 F40.00
G01 X67.4261 Y-30.6652 G01 F40.00
G01 X67.4317 Y-30.7098 G01 F40.00
G01 X67.4352 Y-30.7575 G01 F40.00
G01 X67.4449 Y-30.9536 G01 F40.00
G01 X67.4460 Y-31.0000 G01 F40.00
G01 X67.4449 Y-31.0464 G01 F40.00
G01 X67.4352 Y-31.2425 G01 F40.00
G01 X67.4317 Y-31.2902 G01 F40.00
G01 X67.4261 Y-31.3348 G01 F40.00
G01 X67.3973 Y-31.5290 G01 F40.00
G01 X67.3851 Y-31.5954 G01 F40.00
G01 X67.3315 Y-31.8105 G01 F40.00
G01 X67.3200 Y-31.8524 G01 F40.00
G01 X67.3046 Y-31.8992 G01 F40.00
G01 X67.2384 Y-32.0841 G01 F40.00
G01 X67.2122 Y-32.1496 G01 F40.00
G01 X67.1100 Y-32.3659 G01 F40.00
G01 X67.0753 Y-32.4291 G01 F40.00
G01 X66.9743 Y-32.5975 G01 F40.00
G01 X66.9501 Y-32.6359 G01 F40.00
G01 X66.9228 Y-32.6746 G01 F40.00
G01 X66.8058 Y-32.8324 G01 F40.00
G01 X66.7643 Y-32.8844 G01 F40.00
G01 X66.7470 Y-32.9040 G01 F40.00
G01 X66.6151 Y-33.0495 G01 F40.00
G01 X66.6143 Y-33.0488 G01 F40.00
G01 X66.5831 Y-33.0831 G01 F40.00
G01 X64.5831 Y-35.0831 G01 F40.00
G01 X64.5495 Y-35.1151 G01 F40.00
G01 X64.3844 Y-35.2643 G01 F40.00
G01 X64.3324 Y-35.3058 G01 F40.00
G01 X64.1746 Y-35.4228 G01 F40.00
G01 X64.1359 Y-35.4501 G01 F40.00
G01 X64.0975 Y-35.4743 G01 F40.00
G01 X63.9291 Y-35.5753 G01 F40.00
G01 X63.8659 Y-35.6100 G01 F40.00
G01 X63.6496 Y-35.7122 G01 F40.00
G01 X63.5841 Y-35.7384 G01 F40.00
G01 X63.3992 Y-35.8046 G01 F40.00
G01 X63.3524 Y-35.8200 G01 F40.00
G01 X63.3105 Y-35.8315 G01 F40.00
G01 X63.0954 Y-35.8851 G01 F40.00
G01 X63.0290 Y-35.8973 G01 F40.00
G01 X62.8348 Y-35.9261 G01 F40.00
G01 X62.7902 Y-35.9317 G01 F40.00
G01 X62.7425 Y-35.9352 G01 F40.00
G01 X62.5464 Y-35.9449 G01 F40.00
G01 X62.5000 Y-35.9460 G01 F40.00
G01 X42.5000 Y-35.9460 G01 F40.00
G01 X42.4536 Y-35.9449 G01 F40.00
G01 X42.2575 Y-35.9352 G01 F40.00
G01 X42.2098 Y-35.9317 G01 F40.00
G01 X42.1652 Y-35.9261 G01 F40.00
G01 X41.9710 Y-35.8973 G01 F40.00
G01 X41.9046 Y-35.8851 G01 F40.00
G01 X41.6895 Y-35.8315 G01 F40.00
G01 X41.6476 Y-35.8200 G01 F40.00
G01 X41.6008 Y-35.8046 G01 F40.00
G01 X41.4159 Y-35.7384 G01 F40.00
G01 X41.3504 Y-35.7122 G01 F40.00
G01 X41.1341 Y-35.6100 G01 F40.00
G01 X41.0709 Y-35.5753 G01 F40.00
G01 X40.9025 Y-35.4743 G01 F40.00
G01 X40.8641 Y-35.4501 G01 F40.00
G01 X40.8254 Y-35.4228 G01 F40.00
G01 X40.6676 Y-35.3058 G01 F40.00
G01 X40.6156 Y-35.2643 G01 F40.00
G01 X40.4505 Y-35.1151 G01 F40.00
G01 X40.4169 Y-35.0831 G01 F40.00
G01 X40.3849 Y-35.0495 G01 F40.00
G01 X40.2357 Y-34.8844 G01 F40.00
G01 X40.1942 Y-34.8324 G01 F40.00
G01 X40.0772 Y-34.6746 G01 F40.00
G01 X40.0499 Y-34.6359 G01 F40.00
G01 X40.0257 Y-34.5975 G01 F40.00
G01 X39.9247 Y-34.4291 G01 F40.00
G01 X39.8900 Y-34.3659 G01 F40.00
G01 X39.7970 Y-34.1698 G01 F40.00
G01 X39.7878 Y-34.1496 G01 F40.00
G01 X39.7616 Y-34.0841 G01 F40.00
G01 X39.6954 Y-33.8992 G01 F40.00
G01 X39.6800 Y-33.8524 G01 F40.00
G01 X39.6685 Y-33.8105 G01 F40.00
G01 X39.6208 Y-33.6200 G01 F40.00
G01 X39.6149 Y-33.5954 G01 F40.00
G01 X39.6027 Y-33.5290 G01 F40.00
G01 X39.5739 Y-33.3348 G01 F40.00
G01 X39.5683 Y-33.2902 G01 F40.00
G01 X39.5648 Y-33.2425 G01 F40.00
G01 X39.5551 Y-33.0464 G01 F40.00
G01 X39.5540 Y-33.0000 G01 F40.00
G01 X39.5551 Y-32.9536 G01 F40.00
G01 X39.5588 Y-32.8784 G01 F40.00
G01 X39.3760 Y-32.6956 G01 F40.00
