(Name: LM317T_PCB.GTL_iso_cnc)
(Type: G-code from Geometry)
(Units:  mm)

(TOOL DIAMETER: 0.6 mm)

(Feedrate: 60.0 mm/min)
(Feedrate_Z: 10.0 mm/min)
(Feedrate rapids 15.0 mm/min)

(Z_Cut: -0.045 mm)
(Z_Move: 2.0 mm)
(Z Toolchange: 0.787402 mm)
(Z End 5.0 mm)
(Steps per circle: 64)
(Postprocessor Geometry: grbl_11)
(Spindle Speed: 20000 RPM)

G21
G90
G94
G17

G01 F60.00
G00 Z2.0000
M03 S20000
G00 X4.7996 Y-2.9853
G01 F10.00
G01 Z-0.0450
G01 F60.00
G01 X4.7996 Y-3.0147 G01 F60.00
G01 X4.7913 Y-3.1769 G01 F60.00
G01 X4.7679 Y-3.3367 G01 F60.00
G01 X4.7640 Y-3.3577 G01 F60.00
G01 X4.7228 Y-3.5216 G01 F60.00
G01 X4.6683 Y-3.6751 G01 F60.00
G01 X4.6600 Y-3.6959 G01 F60.00
G01 X4.5912 Y-3.8413 G01 F60.00
G01 X4.5802 Y-3.8613 G01 F60.00
G01 X4.4968 Y-3.9998 G01 F60.00
G01 X4.4005 Y-4.1303 G01 F60.00
G01 X4.3873 Y-4.1468 G01 F60.00
G01 X4.2728 Y-4.2728 G01 F60.00
G01 X4.1468 Y-4.3873 G01 F60.00
G01 X4.1303 Y-4.4005 G01 F60.00
G01 X3.9998 Y-4.4968 G01 F60.00
G01 X3.8613 Y-4.5802 G01 F60.00
G01 X3.8413 Y-4.5912 G01 F60.00
G01 X3.6959 Y-4.6600 G01 F60.00
G01 X3.6751 Y-4.6683 G01 F60.00
G01 X3.5216 Y-4.7228 G01 F60.00
G01 X3.3577 Y-4.7640 G01 F60.00
G01 X3.3367 Y-4.7679 G01 F60.00
G01 X3.1769 Y-4.7913 G01 F60.00
G01 X3.0000 Y-4.8000 G01 F60.00
G01 X2.8231 Y-4.7913 G01 F60.00
G01 X2.6633 Y-4.7679 G01 F60.00
G01 X2.6423 Y-4.7640 G01 F60.00
G01 X2.4784 Y-4.7228 G01 F60.00
G01 X2.3249 Y-4.6683 G01 F60.00
G01 X2.3041 Y-4.6600 G01 F60.00
G01 X2.1587 Y-4.5912 G01 F60.00
G01 X2.1387 Y-4.5802 G01 F60.00
G01 X2.0002 Y-4.4968 G01 F60.00
G01 X1.8697 Y-4.4005 G01 F60.00
G01 X1.8532 Y-4.3873 G01 F60.00
G01 X1.7272 Y-4.2728 G01 F60.00
G01 X1.6127 Y-4.1468 G01 F60.00
G01 X1.5995 Y-4.1303 G01 F60.00
G01 X1.5032 Y-3.9998 G01 F60.00
G01 X1.4198 Y-3.8613 G01 F60.00
G01 X1.4088 Y-3.8413 G01 F60.00
G01 X1.3400 Y-3.6959 G01 F60.00
G01 X1.3317 Y-3.6751 G01 F60.00
G01 X1.2772 Y-3.5216 G01 F60.00
G01 X1.2360 Y-3.3577 G01 F60.00
G01 X1.2321 Y-3.3367 G01 F60.00
G01 X1.2087 Y-3.1769 G01 F60.00
G01 X1.2000 Y-3.0000 G01 F60.00
G01 X1.2087 Y-2.8231 G01 F60.00
G01 X1.2321 Y-2.6633 G01 F60.00
G01 X1.2360 Y-2.6423 G01 F60.00
G01 X1.2772 Y-2.4784 G01 F60.00
G01 X1.3317 Y-2.3249 G01 F60.00
G01 X1.3400 Y-2.3041 G01 F60.00
G01 X1.4088 Y-2.1587 G01 F60.00
G01 X1.4198 Y-2.1387 G01 F60.00
G01 X1.5032 Y-2.0002 G01 F60.00
G01 X1.5995 Y-1.8697 G01 F60.00
G01 X1.6127 Y-1.8532 G01 F60.00
G01 X1.7272 Y-1.7272 G01 F60.00
G01 X1.8532 Y-1.6127 G01 F60.00
G01 X1.8697 Y-1.5995 G01 F60.00
G01 X2.0002 Y-1.5032 G01 F60.00
G01 X2.1387 Y-1.4198 G01 F60.00
G01 X2.1587 Y-1.4088 G01 F60.00
G01 X2.3041 Y-1.3400 G01 F60.00
G01 X2.3249 Y-1.3317 G01 F60.00
G01 X2.4784 Y-1.2772 G01 F60.00
G01 X2.6423 Y-1.2360 G01 F60.00
G01 X2.6633 Y-1.2321 G01 F60.00
G01 X2.8231 Y-1.2087 G01 F60.00
G01 X3.0000 Y-1.2000 G01 F60.00
G01 X3.1769 Y-1.2087 G01 F60.00
G01 X3.3367 Y-1.2321 G01 F60.00
G01 X3.3577 Y-1.2360 G01 F60.00
G01 X3.5216 Y-1.2772 G01 F60.00
G01 X3.6751 Y-1.3317 G01 F60.00
G01 X3.6959 Y-1.3400 G01 F60.00
G01 X3.8413 Y-1.4088 G01 F60.00
G01 X3.8613 Y-1.4198 G01 F60.00
G01 X3.9998 Y-1.5032 G01 F60.00
G01 X4.1303 Y-1.5995 G01 F60.00
G01 X4.1468 Y-1.6127 G01 F60.00
G01 X4.2728 Y-1.7272 G01 F60.00
G01 X4.3873 Y-1.8532 G01 F60.00
G01 X4.4005 Y-1.8697 G01 F60.00
G01 X4.4968 Y-2.0002 G01 F60.00
G01 X4.5802 Y-2.1387 G01 F60.00
G01 X4.5912 Y-2.1587 G01 F60.00
G01 X4.6600 Y-2.3041 G01 F60.00
G01 X4.6683 Y-2.3249 G01 F60.00
G01 X4.7228 Y-2.4784 G01 F60.00
G01 X4.7640 Y-2.6423 G01 F60.00
G01 X4.7679 Y-2.6633 G01 F60.00
G01 X4.7913 Y-2.8231 G01 F60.00
G01 X4.7996 Y-2.9853 G01 F60.00
G00 Z2.0000
G00 X5.3090 Y-2.9603
G01 F10.00
G01 Z-0.0450
G01 F60.00
G01 X5.3100 Y-3.0000 G01 F60.00
G01 X5.3090 Y-3.0397 G01 F60.00
G01 X5.3018 Y-3.1868 G01 F60.00
G01 X5.2988 Y-3.2276 G01 F60.00
G01 X5.2940 Y-3.2659 G01 F60.00
G01 X5.2724 Y-3.4115 G01 F60.00
G01 X5.2619 Y-3.4684 G01 F60.00
G01 X5.2211 Y-3.6322 G01 F60.00
G01 X5.2113 Y-3.6682 G01 F60.00
G01 X5.1981 Y-3.7083 G01 F60.00
G01 X5.1485 Y-3.8469 G01 F60.00
G01 X5.1260 Y-3.9030 G01 F60.00
G01 X5.0474 Y-4.0693 G01 F60.00
G01 X5.0176 Y-4.1235 G01 F60.00
G01 X4.9420 Y-4.2498 G01 F60.00
G01 X4.9212 Y-4.2827 G01 F60.00
G01 X4.8978 Y-4.3159 G01 F60.00
G01 X4.8101 Y-4.4341 G01 F60.00
G01 X4.7745 Y-4.4787 G01 F60.00
G01 X4.6608 Y-4.6046 G01 F60.00
G01 X4.6334 Y-4.6334 G01 F60.00
G01 X4.6046 Y-4.6608 G01 F60.00
G01 X4.4787 Y-4.7745 G01 F60.00
G01 X4.4341 Y-4.8101 G01 F60.00
G01 X4.3159 Y-4.8978 G01 F60.00
G01 X4.2827 Y-4.9212 G01 F60.00
G01 X4.2498 Y-4.9420 G01 F60.00
G01 X4.1235 Y-5.0176 G01 F60.00
G01 X4.0693 Y-5.0474 G01 F60.00
G01 X3.9030 Y-5.1260 G01 F60.00
G01 X3.8469 Y-5.1485 G01 F60.00
G01 X3.7083 Y-5.1981 G01 F60.00
G01 X3.6682 Y-5.2113 G01 F60.00
G01 X3.6322 Y-5.2211 G01 F60.00
G01 X3.4684 Y-5.2619 G01 F60.00
G01 X3.4115 Y-5.2724 G01 F60.00
G01 X3.2659 Y-5.2940 G01 F60.00
G01 X3.2276 Y-5.2988 G01 F60.00
G01 X3.1868 Y-5.3018 G01 F60.00
G01 X3.0397 Y-5.3090 G01 F60.00
G01 X3.0000 Y-5.3100 G01 F60.00
G01 X2.9603 Y-5.3090 G01 F60.00
G01 X2.8132 Y-5.3018 G01 F60.00
G01 X2.7724 Y-5.2988 G01 F60.00
G01 X2.7341 Y-5.2940 G01 F60.00
G01 X2.5885 Y-5.2724 G01 F60.00
G01 X2.5316 Y-5.2619 G01 F60.00
G01 X2.3678 Y-5.2211 G01 F60.00
G01 X2.3318 Y-5.2113 G01 F60.00
G01 X2.2917 Y-5.1981 G01 F60.00
G01 X2.1531 Y-5.1485 G01 F60.00
G01 X2.0970 Y-5.1260 G01 F60.00
G01 X1.9307 Y-5.0474 G01 F60.00
G01 X1.8765 Y-5.0176 G01 F60.00
G01 X1.7502 Y-4.9420 G01 F60.00
G01 X1.7173 Y-4.9212 G01 F60.00
G01 X1.6841 Y-4.8978 G01 F60.00
G01 X1.5659 Y-4.8101 G01 F60.00
G01 X1.5213 Y-4.7745 G01 F60.00
G01 X1.3954 Y-4.6608 G01 F60.00
G01 X1.3666 Y-4.6334 G01 F60.00
G01 X1.3392 Y-4.6046 G01 F60.00
G01 X1.2255 Y-4.4787 G01 F60.00
G01 X1.1899 Y-4.4341 G01 F60.00
G01 X1.1022 Y-4.3159 G01 F60.00
G01 X1.0788 Y-4.2827 G01 F60.00
G01 X1.0580 Y-4.2498 G01 F60.00
G01 X0.9824 Y-4.1235 G01 F60.00
G01 X0.9526 Y-4.0693 G01 F60.00
G01 X0.8740 Y-3.9030 G01 F60.00
G01 X0.8515 Y-3.8469 G01 F60.00
G01 X0.8019 Y-3.7083 G01 F60.00
G01 X0.7888 Y-3.6682 G01 F60.00
G01 X0.7789 Y-3.6322 G01 F60.00
G01 X0.7381 Y-3.4683 G01 F60.00
G01 X0.7276 Y-3.4115 G01 F60.00
G01 X0.7060 Y-3.2659 G01 F60.00
G01 X0.7012 Y-3.2276 G01 F60.00
G01 X0.6982 Y-3.1868 G01 F60.00
G01 X0.6910 Y-3.0397 G01 F60.00
G01 X0.6900 Y-3.0000 G01 F60.00
G01 X0.6910 Y-2.9603 G01 F60.00
G01 X0.6982 Y-2.8132 G01 F60.00
G01 X0.7012 Y-2.7724 G01 F60.00
G01 X0.7060 Y-2.7341 G01 F60.00
G01 X0.7276 Y-2.5885 G01 F60.00
G01 X0.7381 Y-2.5317 G01 F60.00
G01 X0.7789 Y-2.3678 G01 F60.00
G01 X0.7888 Y-2.3318 G01 F60.00
G01 X0.8019 Y-2.2917 G01 F60.00
G01 X0.8515 Y-2.1531 G01 F60.00
G01 X0.8740 Y-2.0970 G01 F60.00
G01 X0.9526 Y-1.9307 G01 F60.00
G01 X0.9824 Y-1.8765 G01 F60.00
G01 X1.0580 Y-1.7502 G01 F60.00
G01 X1.0788 Y-1.7173 G01 F60.00
G01 X1.1022 Y-1.6841 G01 F60.00
G01 X1.1899 Y-1.5659 G01 F60.00
G01 X1.2255 Y-1.5213 G01 F60.00
G01 X1.3392 Y-1.3954 G01 F60.00
G01 X1.3666 Y-1.3666 G01 F60.00
G01 X1.3954 Y-1.3392 G01 F60.00
G01 X1.5213 Y-1.2255 G01 F60.00
G01 X1.5659 Y-1.1899 G01 F60.00
G01 X1.6841 Y-1.1022 G01 F60.00
G01 X1.7173 Y-1.0788 G01 F60.00
G01 X1.7502 Y-1.0580 G01 F60.00
G01 X1.8765 Y-0.9824 G01 F60.00
G01 X1.9307 Y-0.9526 G01 F60.00
G01 X2.0970 Y-0.8740 G01 F60.00
G01 X2.1531 Y-0.8515 G01 F60.00
G01 X2.2917 Y-0.8019 G01 F60.00
G01 X2.3318 Y-0.7888 G01 F60.00
G01 X2.3678 Y-0.7789 G01 F60.00
G01 X2.5317 Y-0.7381 G01 F60.00
G01 X2.5885 Y-0.7276 G01 F60.00
G01 X2.7341 Y-0.7060 G01 F60.00
G01 X2.7724 Y-0.7012 G01 F60.00
G01 X2.8132 Y-0.6982 G01 F60.00
G01 X2.9603 Y-0.6910 G01 F60.00
G01 X3.0000 Y-0.6900 G01 F60.00
G01 X3.0397 Y-0.6910 G01 F60.00
G01 X3.1868 Y-0.6982 G01 F60.00
G01 X3.2276 Y-0.7012 G01 F60.00
G01 X3.2659 Y-0.7060 G01 F60.00
G01 X3.4115 Y-0.7276 G01 F60.00
G01 X3.4683 Y-0.7381 G01 F60.00
G01 X3.6322 Y-0.7789 G01 F60.00
G01 X3.6682 Y-0.7888 G01 F60.00
G01 X3.7083 Y-0.8019 G01 F60.00
G01 X3.8469 Y-0.8515 G01 F60.00
G01 X3.9030 Y-0.8740 G01 F60.00
G01 X4.0693 Y-0.9526 G01 F60.00
G01 X4.1235 Y-0.9824 G01 F60.00
G01 X4.2498 Y-1.0580 G01 F60.00
G01 X4.2827 Y-1.0788 G01 F60.00
G01 X4.3159 Y-1.1022 G01 F60.00
G01 X4.4341 Y-1.1899 G01 F60.00
G01 X4.4787 Y-1.2255 G01 F60.00
G01 X4.6046 Y-1.3392 G01 F60.00
G01 X4.6334 Y-1.3666 G01 F60.00
G01 X4.6608 Y-1.3954 G01 F60.00
G01 X4.7745 Y-1.5213 G01 F60.00
G01 X4.8101 Y-1.5659 G01 F60.00
G01 X4.8978 Y-1.6841 G01 F60.00
G01 X4.9212 Y-1.7173 G01 F60.00
G01 X4.9420 Y-1.7502 G01 F60.00
G01 X5.0176 Y-1.8765 G01 F60.00
G01 X5.0474 Y-1.9307 G01 F60.00
G01 X5.1260 Y-2.0970 G01 F60.00
G01 X5.1485 Y-2.1531 G01 F60.00
G01 X5.1981 Y-2.2917 G01 F60.00
G01 X5.2113 Y-2.3318 G01 F60.00
G01 X5.2211 Y-2.3678 G01 F60.00
G01 X5.2619 Y-2.5316 G01 F60.00
G01 X5.2724 Y-2.5885 G01 F60.00
G01 X5.2940 Y-2.7341 G01 F60.00
G01 X5.2988 Y-2.7724 G01 F60.00
G01 X5.3018 Y-2.8132 G01 F60.00
G01 X5.3090 Y-2.9603 G01 F60.00
G00 Z2.0000
G00 X9.8630 Y-14.6162
G01 F10.00
G01 Z-0.0450
G01 F60.00
G01 X9.7254 Y-14.4647 G01 F60.00
G01 X9.7122 Y-14.4481 G01 F60.00
G01 X9.5866 Y-14.2781 G01 F60.00
G01 X9.4780 Y-14.0975 G01 F60.00
G01 X9.4669 Y-14.0774 G01 F60.00
G01 X9.3772 Y-13.8876 G01 F60.00
G01 X9.3689 Y-13.8668 G01 F60.00
G01 X9.2978 Y-13.6671 G01 F60.00
G01 X9.2446 Y-13.4555 G01 F60.00
G01 X9.2407 Y-13.4344 G01 F60.00
G01 X9.2101 Y-13.2260 G01 F60.00
G01 X9.1990 Y-13.0000 G01 F60.00
G01 X9.2101 Y-12.7740 G01 F60.00
G01 X9.2407 Y-12.5656 G01 F60.00
G01 X9.2446 Y-12.5445 G01 F60.00
G01 X9.2978 Y-12.3329 G01 F60.00
G01 X9.3689 Y-12.1332 G01 F60.00
G01 X9.3772 Y-12.1124 G01 F60.00
G01 X9.4669 Y-11.9226 G01 F60.00
G01 X9.4780 Y-11.9025 G01 F60.00
G01 X9.5866 Y-11.7219 G01 F60.00
G01 X9.7122 Y-11.5519 G01 F60.00
G01 X9.7254 Y-11.5353 G01 F60.00
G01 X9.8628 Y-11.3836 G01 F60.00
G01 X9.8836 Y-11.3628 G01 F60.00
G01 X10.0353 Y-11.2254 G01 F60.00
G01 X10.0519 Y-11.2122 G01 F60.00
G01 X10.2219 Y-11.0866 G01 F60.00
G01 X10.4025 Y-10.9780 G01 F60.00
G01 X10.4226 Y-10.9669 G01 F60.00
G01 X10.6060 Y-10.8801 G01 F60.00
G01 X10.6332 Y-10.8689 G01 F60.00
G01 X10.8181 Y-10.8027 G01 F60.00
G01 X10.8462 Y-10.7942 G01 F60.00
G01 X11.0445 Y-10.7446 G01 F60.00
G01 X11.0656 Y-10.7407 G01 F60.00
G01 X11.2598 Y-10.7119 G01 F60.00
G01 X11.2891 Y-10.7090 G01 F60.00
G01 X11.5000 Y-10.6990 G01 F60.00
G01 X11.7260 Y-10.7101 G01 F60.00
G01 X11.9344 Y-10.7407 G01 F60.00
G01 X11.9555 Y-10.7446 G01 F60.00
G01 X12.1671 Y-10.7978 G01 F60.00
G01 X12.3668 Y-10.8689 G01 F60.00
G01 X12.3876 Y-10.8772 G01 F60.00
G01 X12.5774 Y-10.9669 G01 F60.00
G01 X12.5975 Y-10.9780 G01 F60.00
G01 X12.7781 Y-11.0866 G01 F60.00
G01 X12.9481 Y-11.2122 G01 F60.00
G01 X12.9647 Y-11.2254 G01 F60.00
G01 X13.1271 Y-11.3729 G01 F60.00
G01 X20.1271 Y-18.3729 G01 F60.00
G01 X20.2691 Y-18.5291 G01 F60.00
G01 X20.2878 Y-18.5519 G01 F60.00
G01 X20.4134 Y-18.7219 G01 F60.00
G01 X20.5220 Y-18.9025 G01 F60.00
G01 X20.5359 Y-18.9285 G01 F60.00
G01 X20.6228 Y-19.1124 G01 F60.00
G01 X20.6311 Y-19.1332 G01 F60.00
G01 X20.7022 Y-19.3329 G01 F60.00
G01 X20.7554 Y-19.5445 G01 F60.00
G01 X20.7593 Y-19.5656 G01 F60.00
G01 X20.7899 Y-19.7740 G01 F60.00
G01 X20.8010 Y-20.0000 G01 F60.00
G01 X20.8010 Y-22.0000 G01 F60.00
G01 X20.7910 Y-22.2109 G01 F60.00
G01 X20.7881 Y-22.2402 G01 F60.00
G01 X20.7593 Y-22.4344 G01 F60.00
G01 X20.7536 Y-22.4633 G01 F60.00
G01 X20.7022 Y-22.6671 G01 F60.00
G01 X20.6311 Y-22.8668 G01 F60.00
G01 X20.6228 Y-22.8876 G01 F60.00
G01 X20.5331 Y-23.0774 G01 F60.00
G01 X20.5220 Y-23.0975 G01 F60.00
G01 X20.4211 Y-23.2659 G01 F60.00
G01 X20.4047 Y-23.2904 G01 F60.00
G01 X20.2878 Y-23.4481 G01 F60.00
G01 X20.2746 Y-23.4647 G01 F60.00
G01 X20.1271 Y-23.6271 G01 F60.00
G01 X19.9647 Y-23.7746 G01 F60.00
G01 X19.9481 Y-23.7878 G01 F60.00
G01 X19.7781 Y-23.9134 G01 F60.00
G01 X19.5975 Y-24.0220 G01 F60.00
G01 X19.5774 Y-24.0331 G01 F60.00
G01 X19.3876 Y-24.1228 G01 F60.00
G01 X19.3668 Y-24.1311 G01 F60.00
G01 X19.1671 Y-24.2022 G01 F60.00
G01 X18.9555 Y-24.2554 G01 F60.00
G01 X18.9344 Y-24.2593 G01 F60.00
G01 X18.7260 Y-24.2899 G01 F60.00
G01 X18.5000 Y-24.3010 G01 F60.00
G01 X18.2740 Y-24.2899 G01 F60.00
G01 X18.0656 Y-24.2593 G01 F60.00
G01 X18.0445 Y-24.2554 G01 F60.00
G01 X17.8329 Y-24.2022 G01 F60.00
G01 X17.6332 Y-24.1311 G01 F60.00
G01 X17.6124 Y-24.1228 G01 F60.00
G01 X17.4226 Y-24.0331 G01 F60.00
G01 X17.4025 Y-24.0220 G01 F60.00
G01 X17.2219 Y-23.9134 G01 F60.00
G01 X17.0519 Y-23.7878 G01 F60.00
G01 X17.0353 Y-23.7746 G01 F60.00
G01 X16.8729 Y-23.6271 G01 F60.00
G01 X16.7309 Y-23.4709 G01 F60.00
G01 X16.7122 Y-23.4481 G01 F60.00
G01 X16.5866 Y-23.2781 G01 F60.00
G01 X16.4780 Y-23.0975 G01 F60.00
G01 X16.4669 Y-23.0774 G01 F60.00
G01 X16.3801 Y-22.8940 G01 F60.00
G01 X16.3689 Y-22.8668 G01 F60.00
G01 X16.2978 Y-22.6671 G01 F60.00
G01 X16.2446 Y-22.4555 G01 F60.00
G01 X16.2407 Y-22.4344 G01 F60.00
G01 X16.2119 Y-22.2402 G01 F60.00
G01 X16.2090 Y-22.2109 G01 F60.00
G01 X16.1990 Y-22.0000 G01 F60.00
G01 X16.1990 Y-20.9531 G01 F60.00
G01 X9.8729 Y-14.6271 G01 F60.00
G01 X9.8630 Y-14.6162 G01 F60.00
G00 Z2.0000
G00 X9.4856 Y-14.9583
G01 F10.00
G01 Z-0.0450
G01 F60.00
G01 X9.4849 Y-14.9589 G01 F60.00
G01 X9.3382 Y-14.7966 G01 F60.00
G01 X9.3026 Y-14.7519 G01 F60.00
G01 X9.1856 Y-14.5942 G01 F60.00
G01 X9.1623 Y-14.5610 G01 F60.00
G01 X9.1415 Y-14.5281 G01 F60.00
G01 X9.0405 Y-14.3597 G01 F60.00
G01 X9.0108 Y-14.3055 G01 F60.00
G01 X8.9111 Y-14.0947 G01 F60.00
G01 X8.8887 Y-14.0386 G01 F60.00
G01 X8.8225 Y-13.8537 G01 F60.00
G01 X8.8093 Y-13.8136 G01 F60.00
G01 X8.7994 Y-13.7777 G01 F60.00
G01 X8.7467 Y-13.5661 G01 F60.00
G01 X8.7362 Y-13.5092 G01 F60.00
G01 X8.7074 Y-13.3150 G01 F60.00
G01 X8.7027 Y-13.2767 G01 F60.00
G01 X8.6996 Y-13.2359 G01 F60.00
G01 X8.6900 Y-13.0397 G01 F60.00
G01 X8.6890 Y-13.0000 G01 F60.00
G01 X8.6900 Y-12.9603 G01 F60.00
G01 X8.6996 Y-12.7641 G01 F60.00
G01 X8.7027 Y-12.7233 G01 F60.00
G01 X8.7074 Y-12.6850 G01 F60.00
G01 X8.7362 Y-12.4908 G01 F60.00
G01 X8.7467 Y-12.4339 G01 F60.00
G01 X8.7994 Y-12.2223 G01 F60.00
G01 X8.8093 Y-12.1864 G01 F60.00
G01 X8.8225 Y-12.1463 G01 F60.00
G01 X8.8887 Y-11.9614 G01 F60.00
G01 X8.9111 Y-11.9053 G01 F60.00
G01 X9.0108 Y-11.6945 G01 F60.00
G01 X9.0405 Y-11.6403 G01 F60.00
G01 X9.1415 Y-11.4719 G01 F60.00
G01 X9.1623 Y-11.4390 G01 F60.00
G01 X9.1856 Y-11.4058 G01 F60.00
G01 X9.3026 Y-11.2481 G01 F60.00
G01 X9.3382 Y-11.2034 G01 F60.00
G01 X9.3530 Y-11.1866 G01 F60.00
G01 X9.4849 Y-11.0411 G01 F60.00
G01 X9.5123 Y-11.0123 G01 F60.00
G01 X9.5411 Y-10.9849 G01 F60.00
G01 X9.7034 Y-10.8382 G01 F60.00
G01 X9.7481 Y-10.8026 G01 F60.00
G01 X9.9058 Y-10.6856 G01 F60.00
G01 X9.9390 Y-10.6623 G01 F60.00
G01 X9.9719 Y-10.6415 G01 F60.00
G01 X10.1403 Y-10.5405 G01 F60.00
G01 X10.1945 Y-10.5108 G01 F60.00
G01 X10.4053 Y-10.4111 G01 F60.00
G01 X10.4614 Y-10.3887 G01 F60.00
G01 X10.6463 Y-10.3225 G01 F60.00
G01 X10.6864 Y-10.3093 G01 F60.00
G01 X10.7223 Y-10.2994 G01 F60.00
G01 X10.9339 Y-10.2467 G01 F60.00
G01 X10.9908 Y-10.2362 G01 F60.00
G01 X11.1850 Y-10.2074 G01 F60.00
G01 X11.2233 Y-10.2027 G01 F60.00
G01 X11.2641 Y-10.1996 G01 F60.00
G01 X11.4603 Y-10.1900 G01 F60.00
G01 X11.5000 Y-10.1890 G01 F60.00
G01 X11.5397 Y-10.1900 G01 F60.00
G01 X11.7359 Y-10.1996 G01 F60.00
G01 X11.7767 Y-10.2027 G01 F60.00
G01 X11.8150 Y-10.2074 G01 F60.00
G01 X12.0092 Y-10.2362 G01 F60.00
G01 X12.0661 Y-10.2467 G01 F60.00
G01 X12.2777 Y-10.2994 G01 F60.00
G01 X12.3136 Y-10.3093 G01 F60.00
G01 X12.3537 Y-10.3225 G01 F60.00
G01 X12.5386 Y-10.3887 G01 F60.00
G01 X12.5947 Y-10.4111 G01 F60.00
G01 X12.8055 Y-10.5108 G01 F60.00
G01 X12.8597 Y-10.5405 G01 F60.00
G01 X13.0281 Y-10.6415 G01 F60.00
G01 X13.0610 Y-10.6623 G01 F60.00
G01 X13.0942 Y-10.6856 G01 F60.00
G01 X13.2519 Y-10.8026 G01 F60.00
G01 X13.2966 Y-10.8382 G01 F60.00
G01 X13.3134 Y-10.8530 G01 F60.00
G01 X13.4589 Y-10.9849 G01 F60.00
G01 X13.4583 Y-10.9856 G01 F60.00
G01 X13.4877 Y-11.0123 G01 F60.00
G01 X20.4877 Y-18.0123 G01 F60.00
G01 X20.5151 Y-18.0411 G01 F60.00
G01 X20.6470 Y-18.1866 G01 F60.00
G01 X20.6618 Y-18.2034 G01 F60.00
G01 X20.6974 Y-18.2481 G01 F60.00
G01 X20.8144 Y-18.4058 G01 F60.00
G01 X20.8377 Y-18.4390 G01 F60.00
G01 X20.8585 Y-18.4719 G01 F60.00
G01 X20.9595 Y-18.6403 G01 F60.00
G01 X20.9892 Y-18.6945 G01 F60.00
G01 X21.0889 Y-18.9053 G01 F60.00
G01 X21.1113 Y-18.9614 G01 F60.00
G01 X21.1775 Y-19.1463 G01 F60.00
G01 X21.1907 Y-19.1864 G01 F60.00
G01 X21.2006 Y-19.2223 G01 F60.00
G01 X21.2533 Y-19.4339 G01 F60.00
G01 X21.2638 Y-19.4908 G01 F60.00
G01 X21.2926 Y-19.6850 G01 F60.00
G01 X21.2973 Y-19.7233 G01 F60.00
G01 X21.3004 Y-19.7641 G01 F60.00
G01 X21.3100 Y-19.9603 G01 F60.00
G01 X21.3110 Y-20.0000 G01 F60.00
G01 X21.3110 Y-22.0000 G01 F60.00
G01 X21.3100 Y-22.0397 G01 F60.00
G01 X21.3004 Y-22.2359 G01 F60.00
G01 X21.2973 Y-22.2767 G01 F60.00
G01 X21.2926 Y-22.3150 G01 F60.00
G01 X21.2638 Y-22.5092 G01 F60.00
G01 X21.2533 Y-22.5661 G01 F60.00
G01 X21.2006 Y-22.7777 G01 F60.00
G01 X21.1907 Y-22.8136 G01 F60.00
G01 X21.1775 Y-22.8537 G01 F60.00
G01 X21.1113 Y-23.0386 G01 F60.00
G01 X21.0889 Y-23.0947 G01 F60.00
G01 X21.0809 Y-23.1121 G01 F60.00
G01 X20.9892 Y-23.3055 G01 F60.00
G01 X20.9595 Y-23.3597 G01 F60.00
G01 X20.8585 Y-23.5281 G01 F60.00
G01 X20.8377 Y-23.5610 G01 F60.00
G01 X20.8144 Y-23.5942 G01 F60.00
G01 X20.6974 Y-23.7519 G01 F60.00
G01 X20.6618 Y-23.7966 G01 F60.00
G01 X20.6470 Y-23.8134 G01 F60.00
G01 X20.5151 Y-23.9589 G01 F60.00
G01 X20.4877 Y-23.9877 G01 F60.00
G01 X20.4589 Y-24.0151 G01 F60.00
G01 X20.2966 Y-24.1618 G01 F60.00
G01 X20.2519 Y-24.1974 G01 F60.00
G01 X20.0942 Y-24.3144 G01 F60.00
G01 X20.0610 Y-24.3377 G01 F60.00
G01 X20.0281 Y-24.3585 G01 F60.00
G01 X19.8597 Y-24.4595 G01 F60.00
G01 X19.8055 Y-24.4892 G01 F60.00
G01 X19.5947 Y-24.5889 G01 F60.00
G01 X19.5386 Y-24.6113 G01 F60.00
G01 X19.3537 Y-24.6775 G01 F60.00
G01 X19.3136 Y-24.6907 G01 F60.00
G01 X19.2777 Y-24.7006 G01 F60.00
G01 X19.0661 Y-24.7533 G01 F60.00
G01 X19.0092 Y-24.7638 G01 F60.00
G01 X18.8150 Y-24.7926 G01 F60.00
G01 X18.7767 Y-24.7973 G01 F60.00
G01 X18.7359 Y-24.8004 G01 F60.00
G01 X18.5397 Y-24.8100 G01 F60.00
G01 X18.5000 Y-24.8110 G01 F60.00
G01 X18.4603 Y-24.8100 G01 F60.00
G01 X18.2641 Y-24.8004 G01 F60.00
G01 X18.2233 Y-24.7973 G01 F60.00
G01 X18.1850 Y-24.7926 G01 F60.00
G01 X17.9908 Y-24.7638 G01 F60.00
G01 X17.9339 Y-24.7533 G01 F60.00
G01 X17.7223 Y-24.7006 G01 F60.00
G01 X17.6864 Y-24.6907 G01 F60.00
G01 X17.6463 Y-24.6775 G01 F60.00
G01 X17.4614 Y-24.6113 G01 F60.00
G01 X17.4053 Y-24.5889 G01 F60.00
G01 X17.1945 Y-24.4892 G01 F60.00
G01 X17.1403 Y-24.4595 G01 F60.00
G01 X16.9719 Y-24.3585 G01 F60.00
G01 X16.9390 Y-24.3377 G01 F60.00
G01 X16.9058 Y-24.3144 G01 F60.00
G01 X16.7481 Y-24.1974 G01 F60.00
G01 X16.7034 Y-24.1618 G01 F60.00
G01 X16.6866 Y-24.1470 G01 F60.00
G01 X16.5411 Y-24.0151 G01 F60.00
G01 X16.5123 Y-23.9877 G01 F60.00
G01 X16.4849 Y-23.9589 G01 F60.00
G01 X16.3382 Y-23.7966 G01 F60.00
G01 X16.3026 Y-23.7519 G01 F60.00
G01 X16.1856 Y-23.5942 G01 F60.00
G01 X16.1623 Y-23.5610 G01 F60.00
G01 X16.1415 Y-23.5281 G01 F60.00
G01 X16.0405 Y-23.3597 G01 F60.00
G01 X16.0108 Y-23.3055 G01 F60.00
G01 X16.0030 Y-23.2896 G01 F60.00
G01 X15.9111 Y-23.0947 G01 F60.00
G01 X15.8887 Y-23.0386 G01 F60.00
G01 X15.8225 Y-22.8537 G01 F60.00
G01 X15.8093 Y-22.8136 G01 F60.00
G01 X15.7994 Y-22.7777 G01 F60.00
G01 X15.7467 Y-22.5661 G01 F60.00
G01 X15.7362 Y-22.5092 G01 F60.00
G01 X15.7074 Y-22.3150 G01 F60.00
G01 X15.7027 Y-22.2767 G01 F60.00
G01 X15.6996 Y-22.2359 G01 F60.00
G01 X15.6900 Y-22.0397 G01 F60.00
G01 X15.6890 Y-22.0000 G01 F60.00
G01 X15.6890 Y-21.1644 G01 F60.00
G01 X9.5123 Y-14.9877 G01 F60.00
G01 X9.4856 Y-14.9583 G01 F60.00
G00 Z2.0000
G00 X2.1994 Y-25.0147
G01 F10.00
G01 Z-0.0450
G01 F60.00
G01 X2.1990 Y-14.0000 G01 F60.00
G01 X2.2101 Y-13.7740 G01 F60.00
G01 X2.2407 Y-13.5656 G01 F60.00
G01 X2.2464 Y-13.5367 G01 F60.00
G01 X2.2978 Y-13.3329 G01 F60.00
G01 X2.3689 Y-13.1332 G01 F60.00
G01 X2.3801 Y-13.1060 G01 F60.00
G01 X2.4669 Y-12.9226 G01 F60.00
G01 X2.4780 Y-12.9025 G01 F60.00
G01 X2.5789 Y-12.7341 G01 F60.00
G01 X2.5953 Y-12.7096 G01 F60.00
G01 X2.7122 Y-12.5519 G01 F60.00
G01 X2.7254 Y-12.5353 G01 F60.00
G01 X2.8628 Y-12.3836 G01 F60.00
G01 X3.8729 Y-11.3729 G01 F60.00
G01 X4.0353 Y-11.2254 G01 F60.00
G01 X4.0519 Y-11.2122 G01 F60.00
G01 X4.2219 Y-11.0866 G01 F60.00
G01 X4.4025 Y-10.9780 G01 F60.00
G01 X4.4226 Y-10.9669 G01 F60.00
G01 X4.6060 Y-10.8801 G01 F60.00
G01 X4.6332 Y-10.8689 G01 F60.00
G01 X4.8181 Y-10.8027 G01 F60.00
G01 X4.8462 Y-10.7942 G01 F60.00
G01 X4.9028 Y-10.7800 G01 F60.00
G01 X5.2129 Y-10.4698 G01 F60.00
G01 X5.2310 Y-10.4192 G01 F60.00
G01 X5.2393 Y-10.3984 G01 F60.00
G01 X5.3081 Y-10.2530 G01 F60.00
G01 X5.3191 Y-10.2329 G01 F60.00
G01 X5.4026 Y-10.0944 G01 F60.00
G01 X5.4989 Y-9.9638 G01 F60.00
G01 X5.5121 Y-9.9473 G01 F60.00
G01 X5.6267 Y-9.8213 G01 F60.00
G01 X13.3319 Y-2.1165 G01 F60.00
G01 X13.4473 Y-2.0121 G01 F60.00
G01 X13.4638 Y-1.9989 G01 F60.00
G01 X13.5944 Y-1.9026 G01 F60.00
G01 X13.7329 Y-1.8191 G01 F60.00
G01 X13.7530 Y-1.8081 G01 F60.00
G01 X13.8984 Y-1.7393 G01 F60.00
G01 X13.9192 Y-1.7310 G01 F60.00
G01 X14.0728 Y-1.6765 G01 F60.00
G01 X14.2367 Y-1.6352 G01 F60.00
G01 X14.2578 Y-1.6313 G01 F60.00
G01 X14.4176 Y-1.6080 G01 F60.00
G01 X14.5946 Y-1.5992 G01 F60.00
G01 X54.4054 Y-1.5992 G01 F60.00
G01 X54.5824 Y-1.6080 G01 F60.00
G01 X54.7422 Y-1.6313 G01 F60.00
G01 X54.7633 Y-1.6352 G01 F60.00
G01 X54.9272 Y-1.6765 G01 F60.00
G01 X55.0808 Y-1.7310 G01 F60.00
G01 X55.1016 Y-1.7393 G01 F60.00
G01 X55.2470 Y-1.8081 G01 F60.00
G01 X55.2671 Y-1.8191 G01 F60.00
G01 X55.4056 Y-1.9026 G01 F60.00
G01 X55.5362 Y-1.9989 G01 F60.00
G01 X55.5527 Y-2.0121 G01 F60.00
G01 X55.6681 Y-2.1165 G01 F60.00
G01 X58.3733 Y-4.8213 G01 F60.00
G01 X58.4824 Y-4.9411 G01 F60.00
G01 X58.5011 Y-4.9638 G01 F60.00
G01 X58.5974 Y-5.0944 G01 F60.00
G01 X58.6809 Y-5.2329 G01 F60.00
G01 X58.6947 Y-5.2589 G01 F60.00
G01 X58.7607 Y-5.3984 G01 F60.00
G01 X58.7690 Y-5.4192 G01 F60.00
G01 X58.8186 Y-5.5579 G01 F60.00
G01 X58.8271 Y-5.5861 G01 F60.00
G01 X58.8648 Y-5.7367 G01 F60.00
G01 X58.8687 Y-5.7578 G01 F60.00
G01 X58.8903 Y-5.9035 G01 F60.00
G01 X58.8932 Y-5.9328 G01 F60.00
G01 X58.9008 Y-6.0946 G01 F60.00
G01 X58.9008 Y-15.9054 G01 F60.00
G01 X58.8920 Y-16.0823 G01 F60.00
G01 X58.8687 Y-16.2422 G01 F60.00
G01 X58.8648 Y-16.2633 G01 F60.00
G01 X58.8271 Y-16.4139 G01 F60.00
G01 X58.8186 Y-16.4421 G01 F60.00
G01 X58.7690 Y-16.5808 G01 F60.00
G01 X58.7607 Y-16.6016 G01 F60.00
G01 X58.6919 Y-16.7470 G01 F60.00
G01 X58.6809 Y-16.7671 G01 F60.00
G01 X58.6051 Y-16.8934 G01 F60.00
G01 X58.5888 Y-16.9179 G01 F60.00
G01 X58.5011 Y-17.0362 G01 F60.00
G01 X58.4879 Y-17.0527 G01 F60.00
G01 X58.3835 Y-17.1681 G01 F60.00
G01 X55.6787 Y-19.8733 G01 F60.00
G01 X55.5589 Y-19.9824 G01 F60.00
G01 X55.5362 Y-20.0011 G01 F60.00
G01 X55.4056 Y-20.0974 G01 F60.00
G01 X55.2671 Y-20.1809 G01 F60.00
G01 X55.2411 Y-20.1947 G01 F60.00
G01 X55.1016 Y-20.2607 G01 F60.00
G01 X55.0808 Y-20.2690 G01 F60.00
G01 X54.9272 Y-20.3235 G01 F60.00
G01 X54.7633 Y-20.3648 G01 F60.00
G01 X54.7422 Y-20.3687 G01 F60.00
G01 X54.5965 Y-20.3903 G01 F60.00
G01 X54.5672 Y-20.3932 G01 F60.00
G01 X54.4054 Y-20.4008 G01 F60.00
G01 X50.8010 Y-20.4008 G01 F60.00
G01 X50.8010 Y-20.6990 G01 F60.00
G01 X51.5147 Y-20.6994 G01 F60.00
G01 X51.7260 Y-20.7101 G01 F60.00
G01 X51.9344 Y-20.7407 G01 F60.00
G01 X51.9555 Y-20.7446 G01 F60.00
G01 X52.1671 Y-20.7978 G01 F60.00
G01 X52.3668 Y-20.8689 G01 F60.00
G01 X52.3876 Y-20.8772 G01 F60.00
G01 X52.5774 Y-20.9669 G01 F60.00
G01 X52.5975 Y-20.9780 G01 F60.00
G01 X52.7659 Y-21.0789 G01 F60.00
G01 X52.7904 Y-21.0953 G01 F60.00
G01 X52.9481 Y-21.2122 G01 F60.00
G01 X52.9647 Y-21.2254 G01 F60.00
G01 X53.1271 Y-21.3729 G01 F60.00
G01 X56.4531 Y-24.6990 G01 F60.00
G01 X58.0469 Y-24.6990 G01 F60.00
G01 X59.3729 Y-23.3729 G01 F60.00
G01 X59.5291 Y-23.2309 G01 F60.00
G01 X59.5519 Y-23.2122 G01 F60.00
G01 X59.7096 Y-23.0953 G01 F60.00
G01 X59.7341 Y-23.0789 G01 F60.00
G01 X59.9025 Y-22.9780 G01 F60.00
G01 X59.9226 Y-22.9669 G01 F60.00
G01 X60.1060 Y-22.8801 G01 F60.00
G01 X60.1332 Y-22.8689 G01 F60.00
G01 X60.3329 Y-22.7978 G01 F60.00
G01 X60.5367 Y-22.7464 G01 F60.00
G01 X60.5656 Y-22.7407 G01 F60.00
G01 X60.7740 Y-22.7101 G01 F60.00
G01 X61.0000 Y-22.6990 G01 F60.00
G01 X64.5147 Y-22.6994 G01 F60.00
G01 X64.7260 Y-22.7101 G01 F60.00
G01 X64.9344 Y-22.7407 G01 F60.00
G01 X64.9555 Y-22.7446 G01 F60.00
G01 X65.1671 Y-22.7978 G01 F60.00
G01 X65.3668 Y-22.8689 G01 F60.00
G01 X65.3876 Y-22.8772 G01 F60.00
G01 X65.5774 Y-22.9669 G01 F60.00
G01 X65.5975 Y-22.9780 G01 F60.00
G01 X65.7781 Y-23.0866 G01 F60.00
G01 X65.9481 Y-23.2122 G01 F60.00
G01 X65.9647 Y-23.2254 G01 F60.00
G01 X66.1271 Y-23.3729 G01 F60.00
G01 X66.2746 Y-23.5353 G01 F60.00
G01 X66.2878 Y-23.5519 G01 F60.00
G01 X66.4134 Y-23.7219 G01 F60.00
G01 X66.5220 Y-23.9025 G01 F60.00
G01 X66.5331 Y-23.9226 G01 F60.00
G01 X66.6228 Y-24.1124 G01 F60.00
G01 X66.6311 Y-24.1332 G01 F60.00
G01 X66.7022 Y-24.3329 G01 F60.00
G01 X66.7554 Y-24.5445 G01 F60.00
G01 X66.7593 Y-24.5656 G01 F60.00
G01 X66.7899 Y-24.7740 G01 F60.00
G01 X66.8010 Y-25.0000 G01 F60.00
G01 X66.7910 Y-25.2109 G01 F60.00
G01 X66.7881 Y-25.2402 G01 F60.00
G01 X66.7593 Y-25.4344 G01 F60.00
G01 X66.7554 Y-25.4555 G01 F60.00
G01 X66.7058 Y-25.6538 G01 F60.00
G01 X66.6973 Y-25.6819 G01 F60.00
G01 X66.6311 Y-25.8668 G01 F60.00
G01 X66.6228 Y-25.8876 G01 F60.00
G01 X66.5359 Y-26.0715 G01 F60.00
G01 X66.5220 Y-26.0975 G01 F60.00
G01 X66.4134 Y-26.2781 G01 F60.00
G01 X66.2878 Y-26.4481 G01 F60.00
G01 X66.2691 Y-26.4709 G01 F60.00
G01 X66.1271 Y-26.6271 G01 F60.00
G01 X65.9709 Y-26.7691 G01 F60.00
G01 X65.9481 Y-26.7878 G01 F60.00
G01 X65.7781 Y-26.9134 G01 F60.00
G01 X65.5975 Y-27.0220 G01 F60.00
G01 X65.5715 Y-27.0359 G01 F60.00
G01 X65.3876 Y-27.1228 G01 F60.00
G01 X65.3668 Y-27.1311 G01 F60.00
G01 X65.1671 Y-27.2022 G01 F60.00
G01 X64.9555 Y-27.2554 G01 F60.00
G01 X64.9344 Y-27.2593 G01 F60.00
G01 X64.7260 Y-27.2899 G01 F60.00
G01 X64.5000 Y-27.3010 G01 F60.00
G01 X61.9531 Y-27.3010 G01 F60.00
G01 X60.6271 Y-28.6271 G01 F60.00
G01 X60.4647 Y-28.7746 G01 F60.00
G01 X60.4481 Y-28.7878 G01 F60.00
G01 X60.2781 Y-28.9134 G01 F60.00
G01 X60.0975 Y-29.0220 G01 F60.00
G01 X60.0774 Y-29.0331 G01 F60.00
G01 X59.8876 Y-29.1228 G01 F60.00
G01 X59.8668 Y-29.1311 G01 F60.00
G01 X59.6819 Y-29.1973 G01 F60.00
G01 X59.6538 Y-29.2058 G01 F60.00
G01 X59.4633 Y-29.2536 G01 F60.00
G01 X59.4344 Y-29.2593 G01 F60.00
G01 X59.2260 Y-29.2899 G01 F60.00
G01 X59.0000 Y-29.3010 G01 F60.00
G01 X55.5000 Y-29.3010 G01 F60.00
G01 X55.2891 Y-29.2910 G01 F60.00
G01 X55.2598 Y-29.2881 G01 F60.00
G01 X55.0656 Y-29.2593 G01 F60.00
G01 X55.0445 Y-29.2554 G01 F60.00
G01 X54.8462 Y-29.2058 G01 F60.00
G01 X54.8181 Y-29.1973 G01 F60.00
G01 X54.6332 Y-29.1311 G01 F60.00
G01 X54.6124 Y-29.1228 G01 F60.00
G01 X54.4285 Y-29.0359 G01 F60.00
G01 X54.4025 Y-29.0220 G01 F60.00
G01 X54.2341 Y-28.9211 G01 F60.00
G01 X54.2096 Y-28.9047 G01 F60.00
G01 X54.0519 Y-28.7878 G01 F60.00
G01 X54.0353 Y-28.7746 G01 F60.00
G01 X53.8836 Y-28.6372 G01 F60.00
G01 X50.5469 Y-25.3010 G01 F60.00
G01 X48.5000 Y-25.3010 G01 F60.00
G01 X48.2740 Y-25.2899 G01 F60.00
G01 X48.0656 Y-25.2593 G01 F60.00
G01 X48.0367 Y-25.2536 G01 F60.00
G01 X47.8462 Y-25.2058 G01 F60.00
G01 X47.8181 Y-25.1973 G01 F60.00
G01 X47.6332 Y-25.1311 G01 F60.00
G01 X47.6124 Y-25.1228 G01 F60.00
G01 X47.4226 Y-25.0331 G01 F60.00
G01 X47.4025 Y-25.0220 G01 F60.00
G01 X47.2341 Y-24.9211 G01 F60.00
G01 X47.2096 Y-24.9047 G01 F60.00
G01 X47.0519 Y-24.7878 G01 F60.00
G01 X47.0353 Y-24.7746 G01 F60.00
G01 X46.8729 Y-24.6271 G01 F60.00
G01 X46.7254 Y-24.4647 G01 F60.00
G01 X46.7122 Y-24.4481 G01 F60.00
G01 X46.5953 Y-24.2904 G01 F60.00
G01 X46.5789 Y-24.2659 G01 F60.00
G01 X46.4780 Y-24.0975 G01 F60.00
G01 X46.4669 Y-24.0774 G01 F60.00
G01 X46.3772 Y-23.8876 G01 F60.00
G01 X46.3689 Y-23.8668 G01 F60.00
G01 X46.3027 Y-23.6819 G01 F60.00
G01 X46.2942 Y-23.6538 G01 F60.00
G01 X46.2464 Y-23.4633 G01 F60.00
G01 X46.2407 Y-23.4344 G01 F60.00
G01 X46.2101 Y-23.2260 G01 F60.00
G01 X46.1990 Y-23.0000 G01 F60.00
G01 X46.1990 Y-20.9531 G01 F60.00
G01 X41.5469 Y-16.3010 G01 F60.00
G01 X30.5000 Y-16.3010 G01 F60.00
G01 X30.2740 Y-16.2899 G01 F60.00
G01 X30.0656 Y-16.2593 G01 F60.00
G01 X30.0445 Y-16.2554 G01 F60.00
G01 X29.8462 Y-16.2058 G01 F60.00
G01 X29.8181 Y-16.1973 G01 F60.00
G01 X29.6332 Y-16.1311 G01 F60.00
G01 X29.6124 Y-16.1228 G01 F60.00
G01 X29.4285 Y-16.0359 G01 F60.00
G01 X29.4025 Y-16.0220 G01 F60.00
G01 X29.2219 Y-15.9134 G01 F60.00
G01 X29.0519 Y-15.7878 G01 F60.00
G01 X29.0291 Y-15.7691 G01 F60.00
G01 X28.8836 Y-15.6372 G01 F60.00
G01 X28.8628 Y-15.6164 G01 F60.00
G01 X28.7254 Y-15.4647 G01 F60.00
G01 X28.7122 Y-15.4481 G01 F60.00
G01 X28.5953 Y-15.2904 G01 F60.00
G01 X28.5789 Y-15.2659 G01 F60.00
G01 X28.4780 Y-15.0975 G01 F60.00
G01 X28.4669 Y-15.0774 G01 F60.00
G01 X28.3801 Y-14.8940 G01 F60.00
G01 X28.3689 Y-14.8668 G01 F60.00
G01 X28.3027 Y-14.6819 G01 F60.00
G01 X28.2942 Y-14.6538 G01 F60.00
G01 X28.2446 Y-14.4555 G01 F60.00
G01 X28.2407 Y-14.4344 G01 F60.00
G01 X28.2119 Y-14.2402 G01 F60.00
G01 X28.2090 Y-14.2109 G01 F60.00
G01 X28.1990 Y-14.0000 G01 F60.00
G01 X28.2090 Y-13.7891 G01 F60.00
G01 X28.2119 Y-13.7598 G01 F60.00
G01 X28.2407 Y-13.5656 G01 F60.00
G01 X28.2446 Y-13.5445 G01 F60.00
G01 X28.2978 Y-13.3329 G01 F60.00
G01 X28.3689 Y-13.1332 G01 F60.00
G01 X28.3772 Y-13.1124 G01 F60.00
G01 X28.4669 Y-12.9226 G01 F60.00
G01 X28.4780 Y-12.9025 G01 F60.00
G01 X28.5866 Y-12.7219 G01 F60.00
G01 X28.7122 Y-12.5519 G01 F60.00
G01 X28.7254 Y-12.5353 G01 F60.00
G01 X28.8729 Y-12.3729 G01 F60.00
G01 X29.0291 Y-12.2309 G01 F60.00
G01 X29.0519 Y-12.2122 G01 F60.00
G01 X29.2096 Y-12.0953 G01 F60.00
G01 X29.2341 Y-12.0789 G01 F60.00
G01 X29.4025 Y-11.9780 G01 F60.00
G01 X29.4226 Y-11.9669 G01 F60.00
G01 X29.6060 Y-11.8801 G01 F60.00
G01 X29.6332 Y-11.8689 G01 F60.00
G01 X29.8329 Y-11.7978 G01 F60.00
G01 X30.0445 Y-11.7446 G01 F60.00
G01 X30.0656 Y-11.7407 G01 F60.00
G01 X30.2740 Y-11.7101 G01 F60.00
G01 X30.5000 Y-11.6990 G01 F60.00
G01 X42.5000 Y-11.6990 G01 F60.00
G01 X42.7260 Y-11.7101 G01 F60.00
G01 X42.9344 Y-11.7407 G01 F60.00
G01 X42.9555 Y-11.7446 G01 F60.00
G01 X43.1538 Y-11.7942 G01 F60.00
G01 X43.1819 Y-11.8027 G01 F60.00
G01 X43.3668 Y-11.8689 G01 F60.00
G01 X43.3876 Y-11.8772 G01 F60.00
G01 X43.5774 Y-11.9669 G01 F60.00
G01 X43.5975 Y-11.9780 G01 F60.00
G01 X43.7659 Y-12.0789 G01 F60.00
G01 X43.7904 Y-12.0953 G01 F60.00
G01 X43.9481 Y-12.2122 G01 F60.00
G01 X43.9647 Y-12.2254 G01 F60.00
G01 X44.1271 Y-12.3729 G01 F60.00
G01 X48.5534 Y-16.7992 G01 F60.00
G01 X53.6595 Y-16.7992 G01 F60.00
G01 X55.2992 Y-15.1595 G01 F60.00
G01 X55.2992 Y-6.8405 G01 F60.00
G01 X53.6595 Y-5.2008 G01 F60.00
G01 X15.3405 Y-5.2008 G01 F60.00
G01 X8.5871 Y-11.9542 G01 F60.00
G01 X8.5690 Y-12.0048 G01 F60.00
G01 X8.5607 Y-12.0256 G01 F60.00
G01 X8.4947 Y-12.1651 G01 F60.00
G01 X8.4809 Y-12.1911 G01 F60.00
G01 X8.3974 Y-12.3296 G01 F60.00
G01 X8.3011 Y-12.4602 G01 F60.00
G01 X8.2824 Y-12.4829 G01 F60.00
G01 X8.1733 Y-12.6027 G01 F60.00
G01 X7.8002 Y-12.9759 G01 F60.00
G01 X7.8010 Y-13.0000 G01 F60.00
G01 X7.8006 Y-13.0147 G01 F60.00
G01 X7.7899 Y-13.2260 G01 F60.00
G01 X7.7593 Y-13.4344 G01 F60.00
G01 X7.7536 Y-13.4633 G01 F60.00
G01 X7.7022 Y-13.6671 G01 F60.00
G01 X7.6311 Y-13.8668 G01 F60.00
G01 X7.6199 Y-13.8940 G01 F60.00
G01 X7.5359 Y-14.0715 G01 F60.00
G01 X7.5220 Y-14.0975 G01 F60.00
G01 X7.4134 Y-14.2781 G01 F60.00
G01 X7.2878 Y-14.4481 G01 F60.00
G01 X7.2746 Y-14.4647 G01 F60.00
G01 X7.1271 Y-14.6271 G01 F60.00
G01 X6.8010 Y-14.9531 G01 F60.00
G01 X6.8010 Y-22.6990 G01 F60.00
G01 X11.5000 Y-22.6990 G01 F60.00
G01 X11.7109 Y-22.7090 G01 F60.00
G01 X11.7402 Y-22.7119 G01 F60.00
G01 X11.9344 Y-22.7407 G01 F60.00
G01 X11.9555 Y-22.7446 G01 F60.00
G01 X12.1538 Y-22.7942 G01 F60.00
G01 X12.1819 Y-22.8027 G01 F60.00
G01 X12.3668 Y-22.8689 G01 F60.00
G01 X12.3940 Y-22.8801 G01 F60.00
G01 X12.5774 Y-22.9669 G01 F60.00
G01 X12.5975 Y-22.9780 G01 F60.00
G01 X12.7659 Y-23.0789 G01 F60.00
G01 X12.7904 Y-23.0953 G01 F60.00
G01 X12.9481 Y-23.2122 G01 F60.00
G01 X12.9647 Y-23.2254 G01 F60.00
G01 X13.1164 Y-23.3628 G01 F60.00
G01 X14.1372 Y-24.3836 G01 F60.00
G01 X14.2746 Y-24.5353 G01 F60.00
G01 X14.2878 Y-24.5519 G01 F60.00
G01 X14.4134 Y-24.7219 G01 F60.00
G01 X14.5220 Y-24.9025 G01 F60.00
G01 X14.5331 Y-24.9226 G01 F60.00
G01 X14.6199 Y-25.1060 G01 F60.00
G01 X14.6311 Y-25.1332 G01 F60.00
G01 X14.6973 Y-25.3181 G01 F60.00
G01 X14.7058 Y-25.3462 G01 F60.00
G01 X14.7554 Y-25.5445 G01 F60.00
G01 X14.7593 Y-25.5656 G01 F60.00
G01 X14.7881 Y-25.7598 G01 F60.00
G01 X14.7910 Y-25.7891 G01 F60.00
G01 X14.8010 Y-26.0000 G01 F60.00
G01 X14.7899 Y-26.2260 G01 F60.00
G01 X14.7593 Y-26.4344 G01 F60.00
G01 X14.7536 Y-26.4633 G01 F60.00
G01 X14.7022 Y-26.6671 G01 F60.00
G01 X14.6311 Y-26.8668 G01 F60.00
G01 X14.6199 Y-26.8940 G01 F60.00
G01 X14.5331 Y-27.0774 G01 F60.00
G01 X14.5220 Y-27.0975 G01 F60.00
G01 X14.4134 Y-27.2781 G01 F60.00
G01 X14.2878 Y-27.4481 G01 F60.00
G01 X14.2691 Y-27.4709 G01 F60.00
G01 X14.1271 Y-27.6271 G01 F60.00
G01 X13.9709 Y-27.7691 G01 F60.00
G01 X13.9481 Y-27.7878 G01 F60.00
G01 X13.7781 Y-27.9134 G01 F60.00
G01 X13.5975 Y-28.0220 G01 F60.00
G01 X13.5774 Y-28.0331 G01 F60.00
G01 X13.3940 Y-28.1199 G01 F60.00
G01 X13.3668 Y-28.1311 G01 F60.00
G01 X13.1671 Y-28.2022 G01 F60.00
G01 X12.9633 Y-28.2536 G01 F60.00
G01 X12.9344 Y-28.2593 G01 F60.00
G01 X12.7260 Y-28.2899 G01 F60.00
G01 X12.5000 Y-28.3010 G01 F60.00
G01 X12.2740 Y-28.2899 G01 F60.00
G01 X12.0656 Y-28.2593 G01 F60.00
G01 X12.0367 Y-28.2536 G01 F60.00
G01 X11.8329 Y-28.2022 G01 F60.00
G01 X11.6332 Y-28.1311 G01 F60.00
G01 X11.6060 Y-28.1199 G01 F60.00
G01 X11.4226 Y-28.0331 G01 F60.00
G01 X11.4025 Y-28.0220 G01 F60.00
G01 X11.2219 Y-27.9134 G01 F60.00
G01 X11.0519 Y-27.7878 G01 F60.00
G01 X11.0353 Y-27.7746 G01 F60.00
G01 X10.8729 Y-27.6271 G01 F60.00
G01 X10.5469 Y-27.3010 G01 F60.00
G01 X4.5000 Y-27.3010 G01 F60.00
G01 X4.2740 Y-27.2899 G01 F60.00
G01 X4.0656 Y-27.2593 G01 F60.00
G01 X4.0445 Y-27.2554 G01 F60.00
G01 X3.8329 Y-27.2022 G01 F60.00
G01 X3.6332 Y-27.1311 G01 F60.00
G01 X3.6124 Y-27.1228 G01 F60.00
G01 X3.4226 Y-27.0331 G01 F60.00
G01 X3.4025 Y-27.0220 G01 F60.00
G01 X3.2341 Y-26.9211 G01 F60.00
G01 X3.2096 Y-26.9047 G01 F60.00
G01 X3.0519 Y-26.7878 G01 F60.00
G01 X3.0291 Y-26.7691 G01 F60.00
G01 X2.8729 Y-26.6271 G01 F60.00
G01 X2.7254 Y-26.4647 G01 F60.00
G01 X2.7122 Y-26.4481 G01 F60.00
G01 X2.5866 Y-26.2781 G01 F60.00
G01 X2.4780 Y-26.0975 G01 F60.00
G01 X2.4641 Y-26.0715 G01 F60.00
G01 X2.3801 Y-25.8940 G01 F60.00
G01 X2.3689 Y-25.8668 G01 F60.00
G01 X2.2978 Y-25.6671 G01 F60.00
G01 X2.2446 Y-25.4555 G01 F60.00
G01 X2.2407 Y-25.4344 G01 F60.00
G01 X2.2101 Y-25.2260 G01 F60.00
G01 X2.1994 Y-25.0147 G01 F60.00
G00 Z2.0000
G00 X1.6900 Y-25.0397
G01 F10.00
G01 Z-0.0450
G01 F60.00
G01 X1.6890 Y-25.0000 G01 F60.00
G01 X1.6890 Y-14.0000 G01 F60.00
G01 X1.6900 Y-13.9603 G01 F60.00
G01 X1.6996 Y-13.7641 G01 F60.00
G01 X1.7027 Y-13.7233 G01 F60.00
G01 X1.7074 Y-13.6850 G01 F60.00
G01 X1.7362 Y-13.4908 G01 F60.00
G01 X1.7467 Y-13.4339 G01 F60.00
G01 X1.7994 Y-13.2223 G01 F60.00
G01 X1.8093 Y-13.1864 G01 F60.00
G01 X1.8225 Y-13.1463 G01 F60.00
G01 X1.8887 Y-12.9614 G01 F60.00
G01 X1.9111 Y-12.9053 G01 F60.00
G01 X2.0108 Y-12.6945 G01 F60.00
G01 X2.0405 Y-12.6403 G01 F60.00
G01 X2.1415 Y-12.4719 G01 F60.00
G01 X2.1623 Y-12.4390 G01 F60.00
G01 X2.1856 Y-12.4058 G01 F60.00
G01 X2.3026 Y-12.2481 G01 F60.00
G01 X2.3382 Y-12.2034 G01 F60.00
G01 X2.4849 Y-12.0411 G01 F60.00
G01 X2.4856 Y-12.0417 G01 F60.00
G01 X2.5123 Y-12.0123 G01 F60.00
G01 X3.5123 Y-11.0123 G01 F60.00
G01 X3.5411 Y-10.9849 G01 F60.00
G01 X3.6866 Y-10.8530 G01 F60.00
G01 X3.7034 Y-10.8382 G01 F60.00
G01 X3.7481 Y-10.8026 G01 F60.00
G01 X3.9058 Y-10.6856 G01 F60.00
G01 X3.9390 Y-10.6623 G01 F60.00
G01 X3.9719 Y-10.6415 G01 F60.00
G01 X4.1403 Y-10.5405 G01 F60.00
G01 X4.1945 Y-10.5108 G01 F60.00
G01 X4.4053 Y-10.4111 G01 F60.00
G01 X4.4614 Y-10.3887 G01 F60.00
G01 X4.6349 Y-10.3266 G01 F60.00
G01 X4.7759 Y-10.1856 G01 F60.00
G01 X4.8520 Y-10.0249 G01 F60.00
G01 X4.8817 Y-9.9707 G01 F60.00
G01 X4.9574 Y-9.8444 G01 F60.00
G01 X4.9782 Y-9.8115 G01 F60.00
G01 X5.0016 Y-9.7783 G01 F60.00
G01 X5.0893 Y-9.6600 G01 F60.00
G01 X5.1249 Y-9.6154 G01 F60.00
G01 X5.2386 Y-9.4894 G01 F60.00
G01 X5.2393 Y-9.4901 G01 F60.00
G01 X5.2661 Y-9.4607 G01 F60.00
G01 X12.9607 Y-1.7661 G01 F60.00
G01 X12.9894 Y-1.7386 G01 F60.00
G01 X13.1154 Y-1.6249 G01 F60.00
G01 X13.1600 Y-1.5893 G01 F60.00
G01 X13.2783 Y-1.5016 G01 F60.00
G01 X13.3115 Y-1.4782 G01 F60.00
G01 X13.3444 Y-1.4574 G01 F60.00
G01 X13.4707 Y-1.3817 G01 F60.00
G01 X13.5249 Y-1.3520 G01 F60.00
G01 X13.6913 Y-1.2733 G01 F60.00
G01 X13.7474 Y-1.2508 G01 F60.00
G01 X13.8861 Y-1.2012 G01 F60.00
G01 X13.9262 Y-1.1880 G01 F60.00
G01 X13.9621 Y-1.1781 G01 F60.00
G01 X14.1261 Y-1.1374 G01 F60.00
G01 X14.1830 Y-1.1269 G01 F60.00
G01 X14.3286 Y-1.1052 G01 F60.00
G01 X14.3669 Y-1.1005 G01 F60.00
G01 X14.4078 Y-1.0975 G01 F60.00
G01 X14.5549 Y-1.0902 G01 F60.00
G01 X14.5946 Y-1.0892 G01 F60.00
G01 X54.4054 Y-1.0892 G01 F60.00
G01 X54.4451 Y-1.0902 G01 F60.00
G01 X54.5922 Y-1.0975 G01 F60.00
G01 X54.6331 Y-1.1005 G01 F60.00
G01 X54.6714 Y-1.1052 G01 F60.00
G01 X54.8170 Y-1.1269 G01 F60.00
G01 X54.8739 Y-1.1374 G01 F60.00
G01 X55.0379 Y-1.1781 G01 F60.00
G01 X55.0738 Y-1.1880 G01 F60.00
G01 X55.1139 Y-1.2012 G01 F60.00
G01 X55.2526 Y-1.2508 G01 F60.00
G01 X55.3087 Y-1.2733 G01 F60.00
G01 X55.4751 Y-1.3520 G01 F60.00
G01 X55.5293 Y-1.3817 G01 F60.00
G01 X55.6556 Y-1.4574 G01 F60.00
G01 X55.6885 Y-1.4782 G01 F60.00
G01 X55.7217 Y-1.5016 G01 F60.00
G01 X55.8400 Y-1.5893 G01 F60.00
G01 X55.8846 Y-1.6249 G01 F60.00
G01 X56.0106 Y-1.7386 G01 F60.00
G01 X56.0099 Y-1.7393 G01 F60.00
G01 X56.0393 Y-1.7661 G01 F60.00
G01 X58.7339 Y-4.4607 G01 F60.00
G01 X58.7614 Y-4.4894 G01 F60.00
G01 X58.8603 Y-4.5986 G01 F60.00
G01 X58.8751 Y-4.6154 G01 F60.00
G01 X58.9107 Y-4.6600 G01 F60.00
G01 X58.9984 Y-4.7783 G01 F60.00
G01 X59.0218 Y-4.8115 G01 F60.00
G01 X59.0426 Y-4.8444 G01 F60.00
G01 X59.1183 Y-4.9707 G01 F60.00
G01 X59.1480 Y-5.0249 G01 F60.00
G01 X59.2267 Y-5.1913 G01 F60.00
G01 X59.2492 Y-5.2474 G01 F60.00
G01 X59.2988 Y-5.3861 G01 F60.00
G01 X59.3120 Y-5.4262 G01 F60.00
G01 X59.3219 Y-5.4621 G01 F60.00
G01 X59.3626 Y-5.6261 G01 F60.00
G01 X59.3731 Y-5.6830 G01 F60.00
G01 X59.3948 Y-5.8286 G01 F60.00
G01 X59.3995 Y-5.8669 G01 F60.00
G01 X59.4025 Y-5.9078 G01 F60.00
G01 X59.4098 Y-6.0549 G01 F60.00
G01 X59.4108 Y-6.0946 G01 F60.00
G01 X59.4108 Y-15.9054 G01 F60.00
G01 X59.4098 Y-15.9451 G01 F60.00
G01 X59.4025 Y-16.0922 G01 F60.00
G01 X59.3995 Y-16.1331 G01 F60.00
G01 X59.3948 Y-16.1714 G01 F60.00
G01 X59.3731 Y-16.3170 G01 F60.00
G01 X59.3626 Y-16.3739 G01 F60.00
G01 X59.3219 Y-16.5379 G01 F60.00
G01 X59.3120 Y-16.5738 G01 F60.00
G01 X59.2988 Y-16.6139 G01 F60.00
G01 X59.2492 Y-16.7526 G01 F60.00
G01 X59.2267 Y-16.8087 G01 F60.00
G01 X59.1480 Y-16.9751 G01 F60.00
G01 X59.1183 Y-17.0293 G01 F60.00
G01 X59.0426 Y-17.1556 G01 F60.00
G01 X59.0218 Y-17.1885 G01 F60.00
G01 X58.9984 Y-17.2217 G01 F60.00
G01 X58.9107 Y-17.3400 G01 F60.00
G01 X58.8751 Y-17.3846 G01 F60.00
G01 X58.7614 Y-17.5106 G01 F60.00
G01 X58.7607 Y-17.5099 G01 F60.00
G01 X58.7339 Y-17.5393 G01 F60.00
G01 X56.0393 Y-20.2339 G01 F60.00
G01 X56.0106 Y-20.2614 G01 F60.00
G01 X55.9014 Y-20.3603 G01 F60.00
G01 X55.8846 Y-20.3751 G01 F60.00
G01 X55.8400 Y-20.4107 G01 F60.00
G01 X55.7217 Y-20.4984 G01 F60.00
G01 X55.6885 Y-20.5218 G01 F60.00
G01 X55.6556 Y-20.5426 G01 F60.00
G01 X55.5293 Y-20.6183 G01 F60.00
G01 X55.4751 Y-20.6480 G01 F60.00
G01 X55.3260 Y-20.7187 G01 F60.00
G01 X55.3087 Y-20.7267 G01 F60.00
G01 X55.2526 Y-20.7492 G01 F60.00
G01 X55.1139 Y-20.7988 G01 F60.00
G01 X55.0738 Y-20.8120 G01 F60.00
G01 X55.0379 Y-20.8219 G01 F60.00
G01 X54.8739 Y-20.8626 G01 F60.00
G01 X54.8170 Y-20.8731 G01 F60.00
G01 X54.6714 Y-20.8948 G01 F60.00
G01 X54.6331 Y-20.8995 G01 F60.00
G01 X54.5922 Y-20.9025 G01 F60.00
G01 X54.4451 Y-20.9098 G01 F60.00
G01 X54.4054 Y-20.9108 G01 F60.00
G01 X53.3771 Y-20.9108 G01 F60.00
G01 X53.4589 Y-20.9849 G01 F60.00
G01 X53.4583 Y-20.9856 G01 F60.00
G01 X53.4877 Y-21.0123 G01 F60.00
G01 X56.6644 Y-24.1890 G01 F60.00
G01 X57.8356 Y-24.1890 G01 F60.00
G01 X59.0123 Y-23.0123 G01 F60.00
G01 X59.0411 Y-22.9849 G01 F60.00
G01 X59.1866 Y-22.8530 G01 F60.00
G01 X59.2034 Y-22.8382 G01 F60.00
G01 X59.2481 Y-22.8026 G01 F60.00
G01 X59.4058 Y-22.6856 G01 F60.00
G01 X59.4390 Y-22.6623 G01 F60.00
G01 X59.4719 Y-22.6415 G01 F60.00
G01 X59.6403 Y-22.5405 G01 F60.00
G01 X59.6945 Y-22.5108 G01 F60.00
G01 X59.8879 Y-22.4191 G01 F60.00
G01 X59.9053 Y-22.4111 G01 F60.00
G01 X59.9614 Y-22.3887 G01 F60.00
G01 X60.1463 Y-22.3225 G01 F60.00
G01 X60.1864 Y-22.3093 G01 F60.00
G01 X60.2223 Y-22.2994 G01 F60.00
G01 X60.4128 Y-22.2517 G01 F60.00
G01 X60.4339 Y-22.2467 G01 F60.00
G01 X60.4908 Y-22.2362 G01 F60.00
G01 X60.6850 Y-22.2074 G01 F60.00
G01 X60.7233 Y-22.2027 G01 F60.00
G01 X60.7641 Y-22.1996 G01 F60.00
G01 X60.9603 Y-22.1900 G01 F60.00
G01 X61.0000 Y-22.1890 G01 F60.00
G01 X64.5000 Y-22.1890 G01 F60.00
G01 X64.5397 Y-22.1900 G01 F60.00
G01 X64.7359 Y-22.1996 G01 F60.00
G01 X64.7767 Y-22.2027 G01 F60.00
G01 X64.8150 Y-22.2074 G01 F60.00
G01 X65.0092 Y-22.2362 G01 F60.00
G01 X65.0661 Y-22.2467 G01 F60.00
G01 X65.2777 Y-22.2994 G01 F60.00
G01 X65.3136 Y-22.3093 G01 F60.00
G01 X65.3537 Y-22.3225 G01 F60.00
G01 X65.5386 Y-22.3887 G01 F60.00
G01 X65.5947 Y-22.4111 G01 F60.00
G01 X65.8055 Y-22.5108 G01 F60.00
G01 X65.8597 Y-22.5405 G01 F60.00
G01 X66.0281 Y-22.6415 G01 F60.00
G01 X66.0610 Y-22.6623 G01 F60.00
G01 X66.0942 Y-22.6856 G01 F60.00
G01 X66.2519 Y-22.8026 G01 F60.00
G01 X66.2966 Y-22.8382 G01 F60.00
G01 X66.4589 Y-22.9849 G01 F60.00
G01 X66.4877 Y-23.0123 G01 F60.00
G01 X66.5151 Y-23.0411 G01 F60.00
G01 X66.6470 Y-23.1866 G01 F60.00
G01 X66.6618 Y-23.2034 G01 F60.00
G01 X66.6974 Y-23.2481 G01 F60.00
G01 X66.8144 Y-23.4058 G01 F60.00
G01 X66.8377 Y-23.4390 G01 F60.00
G01 X66.8585 Y-23.4719 G01 F60.00
G01 X66.9595 Y-23.6403 G01 F60.00
G01 X66.9892 Y-23.6945 G01 F60.00
G01 X67.0889 Y-23.9053 G01 F60.00
G01 X67.1113 Y-23.9614 G01 F60.00
G01 X67.1775 Y-24.1463 G01 F60.00
G01 X67.1907 Y-24.1864 G01 F60.00
G01 X67.2006 Y-24.2223 G01 F60.00
G01 X67.2533 Y-24.4339 G01 F60.00
G01 X67.2638 Y-24.4908 G01 F60.00
G01 X67.2926 Y-24.6850 G01 F60.00
G01 X67.2973 Y-24.7233 G01 F60.00
G01 X67.3004 Y-24.7641 G01 F60.00
G01 X67.3100 Y-24.9603 G01 F60.00
G01 X67.3110 Y-25.0000 G01 F60.00
G01 X67.3100 Y-25.0397 G01 F60.00
G01 X67.3004 Y-25.2359 G01 F60.00
G01 X67.2973 Y-25.2767 G01 F60.00
G01 X67.2926 Y-25.3150 G01 F60.00
G01 X67.2638 Y-25.5092 G01 F60.00
G01 X67.2533 Y-25.5661 G01 F60.00
G01 X67.2006 Y-25.7777 G01 F60.00
G01 X67.1907 Y-25.8136 G01 F60.00
G01 X67.1775 Y-25.8537 G01 F60.00
G01 X67.1113 Y-26.0386 G01 F60.00
G01 X67.0889 Y-26.0947 G01 F60.00
G01 X67.0809 Y-26.1121 G01 F60.00
G01 X66.9892 Y-26.3055 G01 F60.00
G01 X66.9595 Y-26.3597 G01 F60.00
G01 X66.8585 Y-26.5281 G01 F60.00
G01 X66.8377 Y-26.5610 G01 F60.00
G01 X66.8144 Y-26.5942 G01 F60.00
G01 X66.6974 Y-26.7519 G01 F60.00
G01 X66.6618 Y-26.7966 G01 F60.00
G01 X66.6470 Y-26.8134 G01 F60.00
G01 X66.5151 Y-26.9589 G01 F60.00
G01 X66.4877 Y-26.9877 G01 F60.00
G01 X66.4589 Y-27.0151 G01 F60.00
G01 X66.2966 Y-27.1618 G01 F60.00
G01 X66.2519 Y-27.1974 G01 F60.00
G01 X66.0942 Y-27.3144 G01 F60.00
G01 X66.0610 Y-27.3377 G01 F60.00
G01 X66.0281 Y-27.3585 G01 F60.00
G01 X65.8597 Y-27.4595 G01 F60.00
G01 X65.8055 Y-27.4892 G01 F60.00
G01 X65.6121 Y-27.5809 G01 F60.00
G01 X65.5947 Y-27.5889 G01 F60.00
G01 X65.5386 Y-27.6113 G01 F60.00
G01 X65.3537 Y-27.6775 G01 F60.00
G01 X65.3136 Y-27.6907 G01 F60.00
G01 X65.2777 Y-27.7006 G01 F60.00
G01 X65.0661 Y-27.7533 G01 F60.00
G01 X65.0092 Y-27.7638 G01 F60.00
G01 X64.8150 Y-27.7926 G01 F60.00
G01 X64.7767 Y-27.7973 G01 F60.00
G01 X64.7359 Y-27.8004 G01 F60.00
G01 X64.5397 Y-27.8100 G01 F60.00
G01 X64.5000 Y-27.8110 G01 F60.00
G01 X62.1644 Y-27.8110 G01 F60.00
G01 X60.9877 Y-28.9877 G01 F60.00
G01 X60.9589 Y-29.0151 G01 F60.00
G01 X60.8134 Y-29.1470 G01 F60.00
G01 X60.7966 Y-29.1618 G01 F60.00
G01 X60.7519 Y-29.1974 G01 F60.00
G01 X60.5942 Y-29.3144 G01 F60.00
G01 X60.5610 Y-29.3377 G01 F60.00
G01 X60.5281 Y-29.3585 G01 F60.00
G01 X60.3597 Y-29.4595 G01 F60.00
G01 X60.3055 Y-29.4892 G01 F60.00
G01 X60.1121 Y-29.5809 G01 F60.00
G01 X60.0947 Y-29.5889 G01 F60.00
G01 X60.0386 Y-29.6113 G01 F60.00
G01 X59.8537 Y-29.6775 G01 F60.00
G01 X59.8136 Y-29.6907 G01 F60.00
G01 X59.7777 Y-29.7006 G01 F60.00
G01 X59.5661 Y-29.7533 G01 F60.00
G01 X59.5092 Y-29.7638 G01 F60.00
G01 X59.3150 Y-29.7926 G01 F60.00
G01 X59.2767 Y-29.7973 G01 F60.00
G01 X59.2359 Y-29.8004 G01 F60.00
G01 X59.0397 Y-29.8100 G01 F60.00
G01 X59.0000 Y-29.8110 G01 F60.00
G01 X55.5000 Y-29.8110 G01 F60.00
G01 X55.4603 Y-29.8100 G01 F60.00
G01 X55.2641 Y-29.8004 G01 F60.00
G01 X55.2233 Y-29.7973 G01 F60.00
G01 X55.1850 Y-29.7926 G01 F60.00
G01 X54.9908 Y-29.7638 G01 F60.00
G01 X54.9339 Y-29.7533 G01 F60.00
G01 X54.7223 Y-29.7006 G01 F60.00
G01 X54.6864 Y-29.6907 G01 F60.00
G01 X54.6463 Y-29.6775 G01 F60.00
G01 X54.4614 Y-29.6113 G01 F60.00
G01 X54.4053 Y-29.5889 G01 F60.00
G01 X54.1945 Y-29.4892 G01 F60.00
G01 X54.1403 Y-29.4595 G01 F60.00
G01 X53.9719 Y-29.3585 G01 F60.00
G01 X53.9390 Y-29.3377 G01 F60.00
G01 X53.9058 Y-29.3144 G01 F60.00
G01 X53.7481 Y-29.1974 G01 F60.00
G01 X53.7034 Y-29.1618 G01 F60.00
G01 X53.6866 Y-29.1470 G01 F60.00
G01 X53.5411 Y-29.0151 G01 F60.00
G01 X53.5417 Y-29.0144 G01 F60.00
G01 X53.5123 Y-28.9877 G01 F60.00
G01 X50.3356 Y-25.8110 G01 F60.00
G01 X48.5000 Y-25.8110 G01 F60.00
G01 X48.4603 Y-25.8100 G01 F60.00
G01 X48.2641 Y-25.8004 G01 F60.00
G01 X48.2233 Y-25.7973 G01 F60.00
G01 X48.1850 Y-25.7926 G01 F60.00
G01 X47.9908 Y-25.7638 G01 F60.00
G01 X47.9339 Y-25.7533 G01 F60.00
G01 X47.7223 Y-25.7006 G01 F60.00
G01 X47.6864 Y-25.6907 G01 F60.00
G01 X47.6463 Y-25.6775 G01 F60.00
G01 X47.4614 Y-25.6113 G01 F60.00
G01 X47.4053 Y-25.5889 G01 F60.00
G01 X47.1945 Y-25.4892 G01 F60.00
G01 X47.1403 Y-25.4595 G01 F60.00
G01 X46.9719 Y-25.3585 G01 F60.00
G01 X46.9390 Y-25.3377 G01 F60.00
G01 X46.9058 Y-25.3144 G01 F60.00
G01 X46.7481 Y-25.1974 G01 F60.00
G01 X46.7034 Y-25.1618 G01 F60.00
G01 X46.5411 Y-25.0151 G01 F60.00
G01 X46.5123 Y-24.9877 G01 F60.00
G01 X46.4849 Y-24.9589 G01 F60.00
G01 X46.3382 Y-24.7966 G01 F60.00
G01 X46.3026 Y-24.7519 G01 F60.00
G01 X46.1856 Y-24.5942 G01 F60.00
G01 X46.1623 Y-24.5610 G01 F60.00
G01 X46.1415 Y-24.5281 G01 F60.00
G01 X46.0405 Y-24.3597 G01 F60.00
G01 X46.0108 Y-24.3055 G01 F60.00
G01 X45.9111 Y-24.0947 G01 F60.00
G01 X45.8887 Y-24.0386 G01 F60.00
G01 X45.8225 Y-23.8537 G01 F60.00
G01 X45.8093 Y-23.8136 G01 F60.00
G01 X45.7994 Y-23.7777 G01 F60.00
G01 X45.7467 Y-23.5661 G01 F60.00
G01 X45.7362 Y-23.5092 G01 F60.00
G01 X45.7074 Y-23.3150 G01 F60.00
G01 X45.7027 Y-23.2767 G01 F60.00
G01 X45.6996 Y-23.2359 G01 F60.00
G01 X45.6900 Y-23.0397 G01 F60.00
G01 X45.6890 Y-23.0000 G01 F60.00
G01 X45.6890 Y-21.1644 G01 F60.00
G01 X41.3356 Y-16.8110 G01 F60.00
G01 X30.5000 Y-16.8110 G01 F60.00
G01 X30.4603 Y-16.8100 G01 F60.00
G01 X30.2641 Y-16.8004 G01 F60.00
G01 X30.2233 Y-16.7973 G01 F60.00
G01 X30.1850 Y-16.7926 G01 F60.00
G01 X29.9908 Y-16.7638 G01 F60.00
G01 X29.9339 Y-16.7533 G01 F60.00
G01 X29.7223 Y-16.7006 G01 F60.00
G01 X29.6864 Y-16.6907 G01 F60.00
G01 X29.6463 Y-16.6775 G01 F60.00
G01 X29.4614 Y-16.6113 G01 F60.00
G01 X29.4053 Y-16.5889 G01 F60.00
G01 X29.1945 Y-16.4892 G01 F60.00
G01 X29.1403 Y-16.4595 G01 F60.00
G01 X28.9719 Y-16.3585 G01 F60.00
G01 X28.9390 Y-16.3377 G01 F60.00
G01 X28.9058 Y-16.3144 G01 F60.00
G01 X28.7481 Y-16.1974 G01 F60.00
G01 X28.7034 Y-16.1618 G01 F60.00
G01 X28.6866 Y-16.1470 G01 F60.00
G01 X28.5411 Y-16.0151 G01 F60.00
G01 X28.5123 Y-15.9877 G01 F60.00
G01 X28.4849 Y-15.9589 G01 F60.00
G01 X28.3382 Y-15.7966 G01 F60.00
G01 X28.3026 Y-15.7519 G01 F60.00
G01 X28.1856 Y-15.5942 G01 F60.00
G01 X28.1623 Y-15.5610 G01 F60.00
G01 X28.1415 Y-15.5281 G01 F60.00
G01 X28.0405 Y-15.3597 G01 F60.00
G01 X28.0108 Y-15.3055 G01 F60.00
G01 X27.9111 Y-15.0947 G01 F60.00
G01 X27.8887 Y-15.0386 G01 F60.00
G01 X27.8225 Y-14.8537 G01 F60.00
G01 X27.8093 Y-14.8136 G01 F60.00
G01 X27.7994 Y-14.7777 G01 F60.00
G01 X27.7467 Y-14.5661 G01 F60.00
G01 X27.7362 Y-14.5092 G01 F60.00
G01 X27.7074 Y-14.3150 G01 F60.00
G01 X27.7027 Y-14.2767 G01 F60.00
G01 X27.6996 Y-14.2359 G01 F60.00
G01 X27.6900 Y-14.0397 G01 F60.00
G01 X27.6890 Y-14.0000 G01 F60.00
G01 X27.6900 Y-13.9603 G01 F60.00
G01 X27.6996 Y-13.7641 G01 F60.00
G01 X27.7027 Y-13.7233 G01 F60.00
G01 X27.7074 Y-13.6850 G01 F60.00
G01 X27.7362 Y-13.4908 G01 F60.00
G01 X27.7467 Y-13.4339 G01 F60.00
G01 X27.7994 Y-13.2223 G01 F60.00
G01 X27.8093 Y-13.1864 G01 F60.00
G01 X27.8225 Y-13.1463 G01 F60.00
G01 X27.8887 Y-12.9614 G01 F60.00
G01 X27.9111 Y-12.9053 G01 F60.00
G01 X28.0108 Y-12.6945 G01 F60.00
G01 X28.0405 Y-12.6403 G01 F60.00
G01 X28.1415 Y-12.4719 G01 F60.00
G01 X28.1623 Y-12.4390 G01 F60.00
G01 X28.1856 Y-12.4058 G01 F60.00
G01 X28.3026 Y-12.2481 G01 F60.00
G01 X28.3382 Y-12.2034 G01 F60.00
G01 X28.4849 Y-12.0411 G01 F60.00
G01 X28.5123 Y-12.0123 G01 F60.00
G01 X28.5411 Y-11.9849 G01 F60.00
G01 X28.7034 Y-11.8382 G01 F60.00
G01 X28.7481 Y-11.8026 G01 F60.00
G01 X28.9058 Y-11.6856 G01 F60.00
G01 X28.9390 Y-11.6623 G01 F60.00
G01 X28.9719 Y-11.6415 G01 F60.00
G01 X29.1403 Y-11.5405 G01 F60.00
G01 X29.1945 Y-11.5108 G01 F60.00
G01 X29.4053 Y-11.4111 G01 F60.00
G01 X29.4614 Y-11.3887 G01 F60.00
G01 X29.6463 Y-11.3225 G01 F60.00
G01 X29.6864 Y-11.3093 G01 F60.00
G01 X29.7223 Y-11.2994 G01 F60.00
G01 X29.9339 Y-11.2467 G01 F60.00
G01 X29.9908 Y-11.2362 G01 F60.00
G01 X30.1850 Y-11.2074 G01 F60.00
G01 X30.2233 Y-11.2027 G01 F60.00
G01 X30.2641 Y-11.1996 G01 F60.00
G01 X30.4603 Y-11.1900 G01 F60.00
G01 X30.5000 Y-11.1890 G01 F60.00
G01 X42.5000 Y-11.1890 G01 F60.00
G01 X42.5397 Y-11.1900 G01 F60.00
G01 X42.7359 Y-11.1996 G01 F60.00
G01 X42.7767 Y-11.2027 G01 F60.00
G01 X42.8150 Y-11.2074 G01 F60.00
G01 X43.0092 Y-11.2362 G01 F60.00
G01 X43.0661 Y-11.2467 G01 F60.00
G01 X43.2777 Y-11.2994 G01 F60.00
G01 X43.3136 Y-11.3093 G01 F60.00
G01 X43.3537 Y-11.3225 G01 F60.00
G01 X43.5386 Y-11.3887 G01 F60.00
G01 X43.5947 Y-11.4111 G01 F60.00
G01 X43.6121 Y-11.4191 G01 F60.00
G01 X43.8055 Y-11.5108 G01 F60.00
G01 X43.8597 Y-11.5405 G01 F60.00
G01 X44.0281 Y-11.6415 G01 F60.00
G01 X44.0610 Y-11.6623 G01 F60.00
G01 X44.0942 Y-11.6856 G01 F60.00
G01 X44.2519 Y-11.8026 G01 F60.00
G01 X44.2966 Y-11.8382 G01 F60.00
G01 X44.4589 Y-11.9849 G01 F60.00
G01 X44.4583 Y-11.9856 G01 F60.00
G01 X44.4877 Y-12.0123 G01 F60.00
G01 X48.7646 Y-16.2892 G01 F60.00
G01 X53.4483 Y-16.2892 G01 F60.00
G01 X54.7892 Y-14.9483 G01 F60.00
G01 X54.7892 Y-7.0517 G01 F60.00
G01 X53.4483 Y-5.7108 G01 F60.00
G01 X15.5517 Y-5.7108 G01 F60.00
G01 X9.0241 Y-12.2384 G01 F60.00
G01 X8.9480 Y-12.3991 G01 F60.00
G01 X8.9183 Y-12.4533 G01 F60.00
G01 X8.8426 Y-12.5796 G01 F60.00
G01 X8.8218 Y-12.6125 G01 F60.00
G01 X8.7984 Y-12.6457 G01 F60.00
G01 X8.7107 Y-12.7640 G01 F60.00
G01 X8.6751 Y-12.8086 G01 F60.00
G01 X8.5614 Y-12.9346 G01 F60.00
G01 X8.5607 Y-12.9339 G01 F60.00
G01 X8.5339 Y-12.9633 G01 F60.00
G01 X8.3024 Y-13.1949 G01 F60.00
G01 X8.3004 Y-13.2359 G01 F60.00
G01 X8.2973 Y-13.2767 G01 F60.00
G01 X8.2926 Y-13.3150 G01 F60.00
G01 X8.2638 Y-13.5092 G01 F60.00
G01 X8.2533 Y-13.5661 G01 F60.00
G01 X8.2483 Y-13.5872 G01 F60.00
G01 X8.2006 Y-13.7777 G01 F60.00
G01 X8.1907 Y-13.8136 G01 F60.00
G01 X8.1775 Y-13.8537 G01 F60.00
G01 X8.1113 Y-14.0386 G01 F60.00
G01 X8.0889 Y-14.0947 G01 F60.00
G01 X7.9892 Y-14.3055 G01 F60.00
G01 X7.9595 Y-14.3597 G01 F60.00
G01 X7.8585 Y-14.5281 G01 F60.00
G01 X7.8377 Y-14.5610 G01 F60.00
G01 X7.8144 Y-14.5942 G01 F60.00
G01 X7.6974 Y-14.7519 G01 F60.00
G01 X7.6618 Y-14.7966 G01 F60.00
G01 X7.5151 Y-14.9589 G01 F60.00
G01 X7.5144 Y-14.9583 G01 F60.00
G01 X7.4877 Y-14.9877 G01 F60.00
G01 X7.3110 Y-15.1644 G01 F60.00
G01 X7.3110 Y-22.1890 G01 F60.00
G01 X11.5000 Y-22.1890 G01 F60.00
G01 X11.5397 Y-22.1900 G01 F60.00
G01 X11.7359 Y-22.1996 G01 F60.00
G01 X11.7767 Y-22.2027 G01 F60.00
G01 X11.8150 Y-22.2074 G01 F60.00
G01 X12.0092 Y-22.2362 G01 F60.00
G01 X12.0661 Y-22.2467 G01 F60.00
G01 X12.0872 Y-22.2517 G01 F60.00
G01 X12.2777 Y-22.2994 G01 F60.00
G01 X12.3136 Y-22.3093 G01 F60.00
G01 X12.3537 Y-22.3225 G01 F60.00
G01 X12.5386 Y-22.3887 G01 F60.00
G01 X12.5947 Y-22.4111 G01 F60.00
G01 X12.8055 Y-22.5108 G01 F60.00
G01 X12.8597 Y-22.5405 G01 F60.00
G01 X13.0281 Y-22.6415 G01 F60.00
G01 X13.0610 Y-22.6623 G01 F60.00
G01 X13.0942 Y-22.6856 G01 F60.00
G01 X13.2519 Y-22.8026 G01 F60.00
G01 X13.2966 Y-22.8382 G01 F60.00
G01 X13.4589 Y-22.9849 G01 F60.00
G01 X13.4583 Y-22.9856 G01 F60.00
G01 X13.4877 Y-23.0123 G01 F60.00
G01 X14.4877 Y-24.0123 G01 F60.00
G01 X14.5151 Y-24.0411 G01 F60.00
G01 X14.6618 Y-24.2034 G01 F60.00
G01 X14.6974 Y-24.2481 G01 F60.00
G01 X14.8144 Y-24.4058 G01 F60.00
G01 X14.8377 Y-24.4390 G01 F60.00
G01 X14.8585 Y-24.4719 G01 F60.00
G01 X14.9595 Y-24.6403 G01 F60.00
G01 X14.9892 Y-24.6945 G01 F60.00
G01 X15.0889 Y-24.9053 G01 F60.00
G01 X15.1113 Y-24.9614 G01 F60.00
G01 X15.1775 Y-25.1463 G01 F60.00
G01 X15.1907 Y-25.1864 G01 F60.00
G01 X15.2006 Y-25.2223 G01 F60.00
G01 X15.2533 Y-25.4339 G01 F60.00
G01 X15.2638 Y-25.4908 G01 F60.00
G01 X15.2926 Y-25.6850 G01 F60.00
G01 X15.2973 Y-25.7233 G01 F60.00
G01 X15.3004 Y-25.7641 G01 F60.00
G01 X15.3100 Y-25.9603 G01 F60.00
G01 X15.3110 Y-26.0000 G01 F60.00
G01 X15.3100 Y-26.0397 G01 F60.00
G01 X15.3004 Y-26.2359 G01 F60.00
G01 X15.2973 Y-26.2767 G01 F60.00
G01 X15.2926 Y-26.3150 G01 F60.00
G01 X15.2638 Y-26.5092 G01 F60.00
G01 X15.2533 Y-26.5661 G01 F60.00
G01 X15.2006 Y-26.7777 G01 F60.00
G01 X15.1907 Y-26.8136 G01 F60.00
G01 X15.1775 Y-26.8537 G01 F60.00
G01 X15.1113 Y-27.0386 G01 F60.00
G01 X15.0889 Y-27.0947 G01 F60.00
G01 X14.9892 Y-27.3055 G01 F60.00
G01 X14.9595 Y-27.3597 G01 F60.00
G01 X14.8585 Y-27.5281 G01 F60.00
G01 X14.8377 Y-27.5610 G01 F60.00
G01 X14.8144 Y-27.5942 G01 F60.00
G01 X14.6974 Y-27.7519 G01 F60.00
G01 X14.6618 Y-27.7966 G01 F60.00
G01 X14.6470 Y-27.8134 G01 F60.00
G01 X14.5151 Y-27.9589 G01 F60.00
G01 X14.4877 Y-27.9877 G01 F60.00
G01 X14.4589 Y-28.0151 G01 F60.00
G01 X14.3134 Y-28.1470 G01 F60.00
G01 X14.2966 Y-28.1618 G01 F60.00
G01 X14.2519 Y-28.1974 G01 F60.00
G01 X14.0942 Y-28.3144 G01 F60.00
G01 X14.0610 Y-28.3377 G01 F60.00
G01 X14.0281 Y-28.3585 G01 F60.00
G01 X13.8597 Y-28.4595 G01 F60.00
G01 X13.8055 Y-28.4892 G01 F60.00
G01 X13.5947 Y-28.5889 G01 F60.00
G01 X13.5386 Y-28.6113 G01 F60.00
G01 X13.3537 Y-28.6775 G01 F60.00
G01 X13.3136 Y-28.6907 G01 F60.00
G01 X13.2777 Y-28.7006 G01 F60.00
G01 X13.0872 Y-28.7483 G01 F60.00
G01 X13.0661 Y-28.7533 G01 F60.00
G01 X13.0092 Y-28.7638 G01 F60.00
G01 X12.8150 Y-28.7926 G01 F60.00
G01 X12.7767 Y-28.7973 G01 F60.00
G01 X12.7359 Y-28.8004 G01 F60.00
G01 X12.5397 Y-28.8100 G01 F60.00
G01 X12.5000 Y-28.8110 G01 F60.00
G01 X12.4603 Y-28.8100 G01 F60.00
G01 X12.2641 Y-28.8004 G01 F60.00
G01 X12.2233 Y-28.7973 G01 F60.00
G01 X12.1850 Y-28.7926 G01 F60.00
G01 X11.9908 Y-28.7638 G01 F60.00
G01 X11.9339 Y-28.7533 G01 F60.00
G01 X11.7223 Y-28.7006 G01 F60.00
G01 X11.6864 Y-28.6907 G01 F60.00
G01 X11.6463 Y-28.6775 G01 F60.00
G01 X11.4614 Y-28.6113 G01 F60.00
G01 X11.4053 Y-28.5889 G01 F60.00
G01 X11.3879 Y-28.5809 G01 F60.00
G01 X11.1945 Y-28.4892 G01 F60.00
G01 X11.1403 Y-28.4595 G01 F60.00
G01 X10.9719 Y-28.3585 G01 F60.00
G01 X10.9390 Y-28.3377 G01 F60.00
G01 X10.9058 Y-28.3144 G01 F60.00
G01 X10.7481 Y-28.1974 G01 F60.00
G01 X10.7034 Y-28.1618 G01 F60.00
G01 X10.6866 Y-28.1470 G01 F60.00
G01 X10.5411 Y-28.0151 G01 F60.00
G01 X10.5417 Y-28.0144 G01 F60.00
G01 X10.5123 Y-27.9877 G01 F60.00
G01 X10.3356 Y-27.8110 G01 F60.00
G01 X4.5000 Y-27.8110 G01 F60.00
G01 X4.4603 Y-27.8100 G01 F60.00
G01 X4.2641 Y-27.8004 G01 F60.00
G01 X4.2233 Y-27.7973 G01 F60.00
G01 X4.1850 Y-27.7926 G01 F60.00
G01 X3.9908 Y-27.7638 G01 F60.00
G01 X3.9339 Y-27.7533 G01 F60.00
G01 X3.7223 Y-27.7006 G01 F60.00
G01 X3.6864 Y-27.6907 G01 F60.00
G01 X3.6463 Y-27.6775 G01 F60.00
G01 X3.4614 Y-27.6113 G01 F60.00
G01 X3.4053 Y-27.5889 G01 F60.00
G01 X3.1945 Y-27.4892 G01 F60.00
G01 X3.1403 Y-27.4595 G01 F60.00
G01 X2.9719 Y-27.3585 G01 F60.00
G01 X2.9390 Y-27.3377 G01 F60.00
G01 X2.9058 Y-27.3144 G01 F60.00
G01 X2.7481 Y-27.1974 G01 F60.00
G01 X2.7034 Y-27.1618 G01 F60.00
G01 X2.6866 Y-27.1470 G01 F60.00
G01 X2.5411 Y-27.0151 G01 F60.00
G01 X2.5123 Y-26.9877 G01 F60.00
G01 X2.4849 Y-26.9589 G01 F60.00
G01 X2.3382 Y-26.7966 G01 F60.00
G01 X2.3026 Y-26.7519 G01 F60.00
G01 X2.1856 Y-26.5942 G01 F60.00
G01 X2.1623 Y-26.5610 G01 F60.00
G01 X2.1415 Y-26.5281 G01 F60.00
G01 X2.0405 Y-26.3597 G01 F60.00
G01 X2.0108 Y-26.3055 G01 F60.00
G01 X1.9191 Y-26.1121 G01 F60.00
G01 X1.9111 Y-26.0947 G01 F60.00
G01 X1.8887 Y-26.0386 G01 F60.00
G01 X1.8225 Y-25.8537 G01 F60.00
G01 X1.8093 Y-25.8136 G01 F60.00
G01 X1.7994 Y-25.7777 G01 F60.00
G01 X1.7467 Y-25.5661 G01 F60.00
G01 X1.7362 Y-25.5092 G01 F60.00
G01 X1.7074 Y-25.3150 G01 F60.00
G01 X1.7027 Y-25.2767 G01 F60.00
G01 X1.6996 Y-25.2359 G01 F60.00
G01 X1.6900 Y-25.0397 G01 F60.00
G00 Z2.0000
G00 X7.0469 Y-33.3010
G01 F10.00
G01 Z-0.0450
G01 F60.00
G01 X4.5000 Y-33.3010 G01 F60.00
G01 X4.2891 Y-33.2910 G01 F60.00
G01 X4.2598 Y-33.2881 G01 F60.00
G01 X4.0656 Y-33.2593 G01 F60.00
G01 X4.0445 Y-33.2554 G01 F60.00
G01 X3.8462 Y-33.2058 G01 F60.00
G01 X3.8181 Y-33.1973 G01 F60.00
G01 X3.6332 Y-33.1311 G01 F60.00
G01 X3.6124 Y-33.1228 G01 F60.00
G01 X3.4226 Y-33.0331 G01 F60.00
G01 X3.4025 Y-33.0220 G01 F60.00
G01 X3.2341 Y-32.9211 G01 F60.00
G01 X3.2096 Y-32.9047 G01 F60.00
G01 X3.0519 Y-32.7878 G01 F60.00
G01 X3.0353 Y-32.7746 G01 F60.00
G01 X2.8729 Y-32.6271 G01 F60.00
G01 X2.7254 Y-32.4647 G01 F60.00
G01 X2.7122 Y-32.4481 G01 F60.00
G01 X2.5866 Y-32.2781 G01 F60.00
G01 X2.4780 Y-32.0975 G01 F60.00
G01 X2.4669 Y-32.0774 G01 F60.00
G01 X2.3772 Y-31.8876 G01 F60.00
G01 X2.3689 Y-31.8668 G01 F60.00
G01 X2.2978 Y-31.6671 G01 F60.00
G01 X2.2446 Y-31.4555 G01 F60.00
G01 X2.2407 Y-31.4344 G01 F60.00
G01 X2.2101 Y-31.2260 G01 F60.00
G01 X2.1990 Y-31.0000 G01 F60.00
G01 X2.2101 Y-30.7740 G01 F60.00
G01 X2.2407 Y-30.5656 G01 F60.00
G01 X2.2446 Y-30.5445 G01 F60.00
G01 X2.2978 Y-30.3329 G01 F60.00
G01 X2.3689 Y-30.1332 G01 F60.00
G01 X2.3772 Y-30.1124 G01 F60.00
G01 X2.4669 Y-29.9226 G01 F60.00
G01 X2.4780 Y-29.9025 G01 F60.00
G01 X2.5866 Y-29.7219 G01 F60.00
G01 X2.7122 Y-29.5519 G01 F60.00
G01 X2.7254 Y-29.5353 G01 F60.00
G01 X2.8729 Y-29.3729 G01 F60.00
G01 X3.0353 Y-29.2254 G01 F60.00
G01 X3.0519 Y-29.2122 G01 F60.00
G01 X3.2219 Y-29.0866 G01 F60.00
G01 X3.4025 Y-28.9780 G01 F60.00
G01 X3.4285 Y-28.9641 G01 F60.00
G01 X3.6124 Y-28.8772 G01 F60.00
G01 X3.6332 Y-28.8689 G01 F60.00
G01 X3.8181 Y-28.8027 G01 F60.00
G01 X3.8462 Y-28.7942 G01 F60.00
G01 X4.0367 Y-28.7464 G01 F60.00
G01 X4.0656 Y-28.7407 G01 F60.00
G01 X4.2740 Y-28.7101 G01 F60.00
G01 X4.5000 Y-28.6990 G01 F60.00
G01 X8.0000 Y-28.6990 G01 F60.00
G01 X8.2260 Y-28.7101 G01 F60.00
G01 X8.4344 Y-28.7407 G01 F60.00
G01 X8.4633 Y-28.7464 G01 F60.00
G01 X8.6671 Y-28.7978 G01 F60.00
G01 X8.8668 Y-28.8689 G01 F60.00
G01 X8.8940 Y-28.8801 G01 F60.00
G01 X9.0774 Y-28.9669 G01 F60.00
G01 X9.0975 Y-28.9780 G01 F60.00
G01 X9.2781 Y-29.0866 G01 F60.00
G01 X9.4481 Y-29.2122 G01 F60.00
G01 X9.4647 Y-29.2254 G01 F60.00
G01 X9.6271 Y-29.3729 G01 F60.00
G01 X9.9531 Y-29.6990 G01 F60.00
G01 X18.5000 Y-29.6990 G01 F60.00
G01 X18.7260 Y-29.7101 G01 F60.00
G01 X18.9344 Y-29.7407 G01 F60.00
G01 X18.9555 Y-29.7446 G01 F60.00
G01 X19.1671 Y-29.7978 G01 F60.00
G01 X19.3668 Y-29.8689 G01 F60.00
G01 X19.3876 Y-29.8772 G01 F60.00
G01 X19.5715 Y-29.9641 G01 F60.00
G01 X19.5975 Y-29.9780 G01 F60.00
G01 X19.7659 Y-30.0789 G01 F60.00
G01 X19.7904 Y-30.0953 G01 F60.00
G01 X19.9481 Y-30.2122 G01 F60.00
G01 X19.9647 Y-30.2254 G01 F60.00
G01 X20.1271 Y-30.3729 G01 F60.00
G01 X20.2746 Y-30.5353 G01 F60.00
G01 X20.2878 Y-30.5519 G01 F60.00
G01 X20.4047 Y-30.7096 G01 F60.00
G01 X20.4211 Y-30.7341 G01 F60.00
G01 X20.5220 Y-30.9025 G01 F60.00
G01 X20.5359 Y-30.9285 G01 F60.00
G01 X20.6228 Y-31.1124 G01 F60.00
G01 X20.6311 Y-31.1332 G01 F60.00
G01 X20.7022 Y-31.3329 G01 F60.00
G01 X20.7554 Y-31.5445 G01 F60.00
G01 X20.7593 Y-31.5656 G01 F60.00
G01 X20.7899 Y-31.7740 G01 F60.00
G01 X20.8010 Y-32.0000 G01 F60.00
G01 X20.7899 Y-32.2260 G01 F60.00
G01 X20.7593 Y-32.4344 G01 F60.00
G01 X20.7554 Y-32.4555 G01 F60.00
G01 X20.7022 Y-32.6671 G01 F60.00
G01 X20.6311 Y-32.8668 G01 F60.00
G01 X20.6228 Y-32.8876 G01 F60.00
G01 X20.5331 Y-33.0774 G01 F60.00
G01 X20.5220 Y-33.0975 G01 F60.00
G01 X20.4134 Y-33.2781 G01 F60.00
G01 X20.2878 Y-33.4481 G01 F60.00
G01 X20.2746 Y-33.4647 G01 F60.00
G01 X20.1271 Y-33.6271 G01 F60.00
G01 X19.9647 Y-33.7746 G01 F60.00
G01 X19.9481 Y-33.7878 G01 F60.00
G01 X19.7781 Y-33.9134 G01 F60.00
G01 X19.5975 Y-34.0220 G01 F60.00
G01 X19.5774 Y-34.0331 G01 F60.00
G01 X19.3876 Y-34.1228 G01 F60.00
G01 X19.3668 Y-34.1311 G01 F60.00
G01 X19.1671 Y-34.2022 G01 F60.00
G01 X18.9555 Y-34.2554 G01 F60.00
G01 X18.9344 Y-34.2593 G01 F60.00
G01 X18.7260 Y-34.2899 G01 F60.00
G01 X18.5000 Y-34.3010 G01 F60.00
G01 X9.0000 Y-34.3010 G01 F60.00
G01 X8.7740 Y-34.2899 G01 F60.00
G01 X8.5656 Y-34.2593 G01 F60.00
G01 X8.5445 Y-34.2554 G01 F60.00
G01 X8.3329 Y-34.2022 G01 F60.00
G01 X8.1332 Y-34.1311 G01 F60.00
G01 X8.1124 Y-34.1228 G01 F60.00
G01 X7.9285 Y-34.0359 G01 F60.00
G01 X7.9025 Y-34.0220 G01 F60.00
G01 X7.7219 Y-33.9134 G01 F60.00
G01 X7.5519 Y-33.7878 G01 F60.00
G01 X7.5353 Y-33.7746 G01 F60.00
G01 X7.3729 Y-33.6271 G01 F60.00
G01 X7.0469 Y-33.3010 G01 F60.00
G00 Z2.0000
G00 X6.8356 Y-33.8110
G01 F10.00
G01 Z-0.0450
G01 F60.00
G01 X4.5000 Y-33.8110 G01 F60.00
G01 X4.4603 Y-33.8100 G01 F60.00
G01 X4.2641 Y-33.8004 G01 F60.00
G01 X4.2233 Y-33.7973 G01 F60.00
G01 X4.1850 Y-33.7926 G01 F60.00
G01 X3.9908 Y-33.7638 G01 F60.00
G01 X3.9339 Y-33.7533 G01 F60.00
G01 X3.7223 Y-33.7006 G01 F60.00
G01 X3.6864 Y-33.6907 G01 F60.00
G01 X3.6463 Y-33.6775 G01 F60.00
G01 X3.4614 Y-33.6113 G01 F60.00
G01 X3.4053 Y-33.5889 G01 F60.00
G01 X3.1945 Y-33.4892 G01 F60.00
G01 X3.1403 Y-33.4595 G01 F60.00
G01 X2.9719 Y-33.3585 G01 F60.00
G01 X2.9390 Y-33.3377 G01 F60.00
G01 X2.9058 Y-33.3144 G01 F60.00
G01 X2.7481 Y-33.1974 G01 F60.00
G01 X2.7034 Y-33.1618 G01 F60.00
G01 X2.6866 Y-33.1470 G01 F60.00
G01 X2.5411 Y-33.0151 G01 F60.00
G01 X2.5123 Y-32.9877 G01 F60.00
G01 X2.4849 Y-32.9589 G01 F60.00
G01 X2.3382 Y-32.7966 G01 F60.00
G01 X2.3026 Y-32.7519 G01 F60.00
G01 X2.1856 Y-32.5942 G01 F60.00
G01 X2.1623 Y-32.5610 G01 F60.00
G01 X2.1415 Y-32.5281 G01 F60.00
G01 X2.0405 Y-32.3597 G01 F60.00
G01 X2.0108 Y-32.3055 G01 F60.00
G01 X1.9111 Y-32.0947 G01 F60.00
G01 X1.8887 Y-32.0386 G01 F60.00
G01 X1.8225 Y-31.8537 G01 F60.00
G01 X1.8093 Y-31.8136 G01 F60.00
G01 X1.7994 Y-31.7777 G01 F60.00
G01 X1.7467 Y-31.5661 G01 F60.00
G01 X1.7362 Y-31.5092 G01 F60.00
G01 X1.7074 Y-31.3150 G01 F60.00
G01 X1.7027 Y-31.2767 G01 F60.00
G01 X1.6996 Y-31.2359 G01 F60.00
G01 X1.6900 Y-31.0397 G01 F60.00
G01 X1.6890 Y-31.0000 G01 F60.00
G01 X1.6900 Y-30.9603 G01 F60.00
G01 X1.6996 Y-30.7641 G01 F60.00
G01 X1.7027 Y-30.7233 G01 F60.00
G01 X1.7074 Y-30.6850 G01 F60.00
G01 X1.7362 Y-30.4908 G01 F60.00
G01 X1.7467 Y-30.4339 G01 F60.00
G01 X1.7994 Y-30.2223 G01 F60.00
G01 X1.8093 Y-30.1864 G01 F60.00
G01 X1.8225 Y-30.1463 G01 F60.00
G01 X1.8887 Y-29.9614 G01 F60.00
G01 X1.9111 Y-29.9053 G01 F60.00
G01 X2.0108 Y-29.6945 G01 F60.00
G01 X2.0405 Y-29.6403 G01 F60.00
G01 X2.1415 Y-29.4719 G01 F60.00
G01 X2.1623 Y-29.4390 G01 F60.00
G01 X2.1856 Y-29.4058 G01 F60.00
G01 X2.3026 Y-29.2481 G01 F60.00
G01 X2.3382 Y-29.2034 G01 F60.00
G01 X2.4849 Y-29.0411 G01 F60.00
G01 X2.5123 Y-29.0123 G01 F60.00
G01 X2.5411 Y-28.9849 G01 F60.00
G01 X2.7034 Y-28.8382 G01 F60.00
G01 X2.7481 Y-28.8026 G01 F60.00
G01 X2.9058 Y-28.6856 G01 F60.00
G01 X2.9390 Y-28.6623 G01 F60.00
G01 X2.9719 Y-28.6415 G01 F60.00
G01 X3.1403 Y-28.5405 G01 F60.00
G01 X3.1945 Y-28.5108 G01 F60.00
G01 X3.4053 Y-28.4111 G01 F60.00
G01 X3.4614 Y-28.3887 G01 F60.00
G01 X3.6463 Y-28.3225 G01 F60.00
G01 X3.6864 Y-28.3093 G01 F60.00
G01 X3.7223 Y-28.2994 G01 F60.00
G01 X3.9339 Y-28.2467 G01 F60.00
G01 X3.9908 Y-28.2362 G01 F60.00
G01 X4.1850 Y-28.2074 G01 F60.00
G01 X4.2233 Y-28.2027 G01 F60.00
G01 X4.2641 Y-28.1996 G01 F60.00
G01 X4.4603 Y-28.1900 G01 F60.00
G01 X4.5000 Y-28.1890 G01 F60.00
G01 X8.0000 Y-28.1890 G01 F60.00
G01 X8.0397 Y-28.1900 G01 F60.00
G01 X8.2359 Y-28.1996 G01 F60.00
G01 X8.2767 Y-28.2027 G01 F60.00
G01 X8.3150 Y-28.2074 G01 F60.00
G01 X8.5092 Y-28.2362 G01 F60.00
G01 X8.5661 Y-28.2467 G01 F60.00
G01 X8.7777 Y-28.2994 G01 F60.00
G01 X8.8136 Y-28.3093 G01 F60.00
G01 X8.8537 Y-28.3225 G01 F60.00
G01 X9.0386 Y-28.3887 G01 F60.00
G01 X9.0947 Y-28.4111 G01 F60.00
G01 X9.1121 Y-28.4191 G01 F60.00
G01 X9.3055 Y-28.5108 G01 F60.00
G01 X9.3597 Y-28.5405 G01 F60.00
G01 X9.5281 Y-28.6415 G01 F60.00
G01 X9.5610 Y-28.6623 G01 F60.00
G01 X9.5942 Y-28.6856 G01 F60.00
G01 X9.7519 Y-28.8026 G01 F60.00
G01 X9.7966 Y-28.8382 G01 F60.00
G01 X9.8134 Y-28.8530 G01 F60.00
G01 X9.9589 Y-28.9849 G01 F60.00
G01 X9.9583 Y-28.9856 G01 F60.00
G01 X9.9877 Y-29.0123 G01 F60.00
G01 X10.1644 Y-29.1890 G01 F60.00
G01 X18.5000 Y-29.1890 G01 F60.00
G01 X18.5397 Y-29.1900 G01 F60.00
G01 X18.7359 Y-29.1996 G01 F60.00
G01 X18.7767 Y-29.2027 G01 F60.00
G01 X18.8150 Y-29.2074 G01 F60.00
G01 X19.0092 Y-29.2362 G01 F60.00
G01 X19.0661 Y-29.2467 G01 F60.00
G01 X19.2777 Y-29.2994 G01 F60.00
G01 X19.3136 Y-29.3093 G01 F60.00
G01 X19.3537 Y-29.3225 G01 F60.00
G01 X19.5386 Y-29.3887 G01 F60.00
G01 X19.5947 Y-29.4111 G01 F60.00
G01 X19.6121 Y-29.4191 G01 F60.00
G01 X19.8055 Y-29.5108 G01 F60.00
G01 X19.8597 Y-29.5405 G01 F60.00
G01 X20.0281 Y-29.6415 G01 F60.00
G01 X20.0610 Y-29.6623 G01 F60.00
G01 X20.0942 Y-29.6856 G01 F60.00
G01 X20.2519 Y-29.8026 G01 F60.00
G01 X20.2966 Y-29.8382 G01 F60.00
G01 X20.4589 Y-29.9849 G01 F60.00
G01 X20.4877 Y-30.0123 G01 F60.00
G01 X20.5151 Y-30.0411 G01 F60.00
G01 X20.6470 Y-30.1866 G01 F60.00
G01 X20.6618 Y-30.2034 G01 F60.00
G01 X20.6974 Y-30.2481 G01 F60.00
G01 X20.8144 Y-30.4058 G01 F60.00
G01 X20.8377 Y-30.4390 G01 F60.00
G01 X20.8585 Y-30.4719 G01 F60.00
G01 X20.9595 Y-30.6403 G01 F60.00
G01 X20.9892 Y-30.6945 G01 F60.00
G01 X21.0889 Y-30.9053 G01 F60.00
G01 X21.1113 Y-30.9614 G01 F60.00
G01 X21.1775 Y-31.1463 G01 F60.00
G01 X21.1907 Y-31.1864 G01 F60.00
G01 X21.2006 Y-31.2223 G01 F60.00
G01 X21.2533 Y-31.4339 G01 F60.00
G01 X21.2638 Y-31.4908 G01 F60.00
G01 X21.2926 Y-31.6850 G01 F60.00
G01 X21.2973 Y-31.7233 G01 F60.00
G01 X21.3004 Y-31.7641 G01 F60.00
G01 X21.3100 Y-31.9603 G01 F60.00
G01 X21.3110 Y-32.0000 G01 F60.00
G01 X21.3100 Y-32.0397 G01 F60.00
G01 X21.3004 Y-32.2359 G01 F60.00
G01 X21.2973 Y-32.2767 G01 F60.00
G01 X21.2926 Y-32.3150 G01 F60.00
G01 X21.2638 Y-32.5092 G01 F60.00
G01 X21.2533 Y-32.5661 G01 F60.00
G01 X21.2006 Y-32.7777 G01 F60.00
G01 X21.1907 Y-32.8136 G01 F60.00
G01 X21.1775 Y-32.8537 G01 F60.00
G01 X21.1113 Y-33.0386 G01 F60.00
G01 X21.0889 Y-33.0947 G01 F60.00
G01 X20.9892 Y-33.3055 G01 F60.00
G01 X20.9595 Y-33.3597 G01 F60.00
G01 X20.8585 Y-33.5281 G01 F60.00
G01 X20.8377 Y-33.5610 G01 F60.00
G01 X20.8144 Y-33.5942 G01 F60.00
G01 X20.6974 Y-33.7519 G01 F60.00
G01 X20.6618 Y-33.7966 G01 F60.00
G01 X20.5151 Y-33.9589 G01 F60.00
G01 X20.4877 Y-33.9877 G01 F60.00
G01 X20.4589 Y-34.0151 G01 F60.00
G01 X20.2966 Y-34.1618 G01 F60.00
G01 X20.2519 Y-34.1974 G01 F60.00
G01 X20.0942 Y-34.3144 G01 F60.00
G01 X20.0610 Y-34.3377 G01 F60.00
G01 X20.0281 Y-34.3585 G01 F60.00
G01 X19.8597 Y-34.4595 G01 F60.00
G01 X19.8055 Y-34.4892 G01 F60.00
G01 X19.5947 Y-34.5889 G01 F60.00
G01 X19.5386 Y-34.6113 G01 F60.00
G01 X19.3537 Y-34.6775 G01 F60.00
G01 X19.3136 Y-34.6907 G01 F60.00
G01 X19.2777 Y-34.7006 G01 F60.00
G01 X19.0872 Y-34.7483 G01 F60.00
G01 X19.0661 Y-34.7533 G01 F60.00
G01 X19.0092 Y-34.7638 G01 F60.00
G01 X18.8150 Y-34.7926 G01 F60.00
G01 X18.7767 Y-34.7973 G01 F60.00
G01 X18.7359 Y-34.8004 G01 F60.00
G01 X18.5397 Y-34.8100 G01 F60.00
G01 X18.5000 Y-34.8110 G01 F60.00
G01 X9.0000 Y-34.8110 G01 F60.00
G01 X8.9603 Y-34.8100 G01 F60.00
G01 X8.7641 Y-34.8004 G01 F60.00
G01 X8.7233 Y-34.7973 G01 F60.00
G01 X8.6850 Y-34.7926 G01 F60.00
G01 X8.4908 Y-34.7638 G01 F60.00
G01 X8.4339 Y-34.7533 G01 F60.00
G01 X8.2223 Y-34.7006 G01 F60.00
G01 X8.1864 Y-34.6907 G01 F60.00
G01 X8.1463 Y-34.6775 G01 F60.00
G01 X7.9614 Y-34.6113 G01 F60.00
G01 X7.9053 Y-34.5889 G01 F60.00
G01 X7.6945 Y-34.4892 G01 F60.00
G01 X7.6403 Y-34.4595 G01 F60.00
G01 X7.4719 Y-34.3585 G01 F60.00
G01 X7.4390 Y-34.3377 G01 F60.00
G01 X7.4058 Y-34.3144 G01 F60.00
G01 X7.2481 Y-34.1974 G01 F60.00
G01 X7.2034 Y-34.1618 G01 F60.00
G01 X7.0411 Y-34.0151 G01 F60.00
G01 X7.0417 Y-34.0144 G01 F60.00
G01 X7.0123 Y-33.9877 G01 F60.00
G01 X6.8356 Y-33.8110 G01 F60.00
G00 Z2.0000
G00 X5.3090 Y-36.9603
G01 F10.00
G01 Z-0.0450
G01 F60.00
G01 X5.3100 Y-37.0000 G01 F60.00
G01 X5.3090 Y-37.0397 G01 F60.00
G01 X5.3018 Y-37.1868 G01 F60.00
G01 X5.2988 Y-37.2276 G01 F60.00
G01 X5.2940 Y-37.2659 G01 F60.00
G01 X5.2724 Y-37.4115 G01 F60.00
G01 X5.2619 Y-37.4684 G01 F60.00
G01 X5.2211 Y-37.6322 G01 F60.00
G01 X5.2113 Y-37.6682 G01 F60.00
G01 X5.1981 Y-37.7083 G01 F60.00
G01 X5.1485 Y-37.8469 G01 F60.00
G01 X5.1260 Y-37.9030 G01 F60.00
G01 X5.0474 Y-38.0693 G01 F60.00
G01 X5.0176 Y-38.1235 G01 F60.00
G01 X4.9420 Y-38.2498 G01 F60.00
G01 X4.9212 Y-38.2827 G01 F60.00
G01 X4.8978 Y-38.3159 G01 F60.00
G01 X4.8101 Y-38.4341 G01 F60.00
G01 X4.7745 Y-38.4787 G01 F60.00
G01 X4.6608 Y-38.6046 G01 F60.00
G01 X4.6334 Y-38.6334 G01 F60.00
G01 X4.6046 Y-38.6608 G01 F60.00
G01 X4.4787 Y-38.7745 G01 F60.00
G01 X4.4341 Y-38.8101 G01 F60.00
G01 X4.3159 Y-38.8978 G01 F60.00
G01 X4.2827 Y-38.9212 G01 F60.00
G01 X4.2498 Y-38.9420 G01 F60.00
G01 X4.1235 Y-39.0176 G01 F60.00
G01 X4.0693 Y-39.0474 G01 F60.00
G01 X3.9030 Y-39.1260 G01 F60.00
G01 X3.8469 Y-39.1485 G01 F60.00
G01 X3.7083 Y-39.1981 G01 F60.00
G01 X3.6682 Y-39.2113 G01 F60.00
G01 X3.6322 Y-39.2211 G01 F60.00
G01 X3.4683 Y-39.2619 G01 F60.00
G01 X3.4115 Y-39.2724 G01 F60.00
G01 X3.2659 Y-39.2940 G01 F60.00
G01 X3.2276 Y-39.2988 G01 F60.00
G01 X3.1868 Y-39.3018 G01 F60.00
G01 X3.0397 Y-39.3090 G01 F60.00
G01 X3.0000 Y-39.3100 G01 F60.00
G01 X2.9603 Y-39.3090 G01 F60.00
G01 X2.8132 Y-39.3018 G01 F60.00
G01 X2.7724 Y-39.2988 G01 F60.00
G01 X2.7341 Y-39.2940 G01 F60.00
G01 X2.5885 Y-39.2724 G01 F60.00
G01 X2.5317 Y-39.2619 G01 F60.00
G01 X2.3678 Y-39.2211 G01 F60.00
G01 X2.3318 Y-39.2113 G01 F60.00
G01 X2.2917 Y-39.1981 G01 F60.00
G01 X2.1531 Y-39.1485 G01 F60.00
G01 X2.0970 Y-39.1260 G01 F60.00
G01 X1.9307 Y-39.0474 G01 F60.00
G01 X1.8765 Y-39.0176 G01 F60.00
G01 X1.7502 Y-38.9420 G01 F60.00
G01 X1.7173 Y-38.9212 G01 F60.00
G01 X1.6841 Y-38.8978 G01 F60.00
G01 X1.5659 Y-38.8101 G01 F60.00
G01 X1.5213 Y-38.7745 G01 F60.00
G01 X1.3954 Y-38.6608 G01 F60.00
G01 X1.3666 Y-38.6334 G01 F60.00
G01 X1.3392 Y-38.6046 G01 F60.00
G01 X1.2255 Y-38.4787 G01 F60.00
G01 X1.1899 Y-38.4341 G01 F60.00
G01 X1.1022 Y-38.3159 G01 F60.00
G01 X1.0788 Y-38.2827 G01 F60.00
G01 X1.0580 Y-38.2498 G01 F60.00
G01 X0.9824 Y-38.1235 G01 F60.00
G01 X0.9526 Y-38.0693 G01 F60.00
G01 X0.8740 Y-37.9030 G01 F60.00
G01 X0.8515 Y-37.8469 G01 F60.00
G01 X0.8019 Y-37.7083 G01 F60.00
G01 X0.7887 Y-37.6682 G01 F60.00
G01 X0.7789 Y-37.6322 G01 F60.00
G01 X0.7381 Y-37.4683 G01 F60.00
G01 X0.7276 Y-37.4115 G01 F60.00
G01 X0.7060 Y-37.2659 G01 F60.00
G01 X0.7012 Y-37.2276 G01 F60.00
G01 X0.6982 Y-37.1868 G01 F60.00
G01 X0.6910 Y-37.0397 G01 F60.00
G01 X0.6900 Y-37.0000 G01 F60.00
G01 X0.6910 Y-36.9603 G01 F60.00
G01 X0.6982 Y-36.8132 G01 F60.00
G01 X0.7012 Y-36.7724 G01 F60.00
G01 X0.7060 Y-36.7341 G01 F60.00
G01 X0.7276 Y-36.5885 G01 F60.00
G01 X0.7381 Y-36.5317 G01 F60.00
G01 X0.7789 Y-36.3678 G01 F60.00
G01 X0.7887 Y-36.3318 G01 F60.00
G01 X0.8019 Y-36.2917 G01 F60.00
G01 X0.8515 Y-36.1531 G01 F60.00
G01 X0.8740 Y-36.0970 G01 F60.00
G01 X0.9526 Y-35.9307 G01 F60.00
G01 X0.9824 Y-35.8765 G01 F60.00
G01 X1.0580 Y-35.7502 G01 F60.00
G01 X1.0788 Y-35.7173 G01 F60.00
G01 X1.1022 Y-35.6841 G01 F60.00
G01 X1.1899 Y-35.5659 G01 F60.00
G01 X1.2255 Y-35.5213 G01 F60.00
G01 X1.3392 Y-35.3954 G01 F60.00
G01 X1.3666 Y-35.3666 G01 F60.00
G01 X1.3954 Y-35.3392 G01 F60.00
G01 X1.5213 Y-35.2255 G01 F60.00
G01 X1.5659 Y-35.1899 G01 F60.00
G01 X1.6841 Y-35.1022 G01 F60.00
G01 X1.7173 Y-35.0788 G01 F60.00
G01 X1.7502 Y-35.0580 G01 F60.00
G01 X1.8765 Y-34.9824 G01 F60.00
G01 X1.9307 Y-34.9526 G01 F60.00
G01 X2.0970 Y-34.8740 G01 F60.00
G01 X2.1531 Y-34.8515 G01 F60.00
G01 X2.2917 Y-34.8019 G01 F60.00
G01 X2.3318 Y-34.7887 G01 F60.00
G01 X2.3678 Y-34.7789 G01 F60.00
G01 X2.5317 Y-34.7381 G01 F60.00
G01 X2.5885 Y-34.7276 G01 F60.00
G01 X2.7341 Y-34.7060 G01 F60.00
G01 X2.7724 Y-34.7012 G01 F60.00
G01 X2.8132 Y-34.6982 G01 F60.00
G01 X2.9603 Y-34.6910 G01 F60.00
G01 X3.0000 Y-34.6900 G01 F60.00
G01 X3.0397 Y-34.6910 G01 F60.00
G01 X3.1868 Y-34.6982 G01 F60.00
G01 X3.2276 Y-34.7012 G01 F60.00
G01 X3.2659 Y-34.7060 G01 F60.00
G01 X3.4115 Y-34.7276 G01 F60.00
G01 X3.4683 Y-34.7381 G01 F60.00
G01 X3.6322 Y-34.7789 G01 F60.00
G01 X3.6682 Y-34.7887 G01 F60.00
G01 X3.7083 Y-34.8019 G01 F60.00
G01 X3.8469 Y-34.8515 G01 F60.00
G01 X3.9030 Y-34.8740 G01 F60.00
G01 X4.0693 Y-34.9526 G01 F60.00
G01 X4.1235 Y-34.9824 G01 F60.00
G01 X4.2498 Y-35.0580 G01 F60.00
G01 X4.2827 Y-35.0788 G01 F60.00
G01 X4.3159 Y-35.1022 G01 F60.00
G01 X4.4341 Y-35.1899 G01 F60.00
G01 X4.4787 Y-35.2255 G01 F60.00
G01 X4.6046 Y-35.3392 G01 F60.00
G01 X4.6334 Y-35.3666 G01 F60.00
G01 X4.6608 Y-35.3954 G01 F60.00
G01 X4.7745 Y-35.5213 G01 F60.00
G01 X4.8101 Y-35.5659 G01 F60.00
G01 X4.8978 Y-35.6841 G01 F60.00
G01 X4.9212 Y-35.7173 G01 F60.00
G01 X4.9420 Y-35.7502 G01 F60.00
G01 X5.0176 Y-35.8765 G01 F60.00
G01 X5.0474 Y-35.9307 G01 F60.00
G01 X5.1260 Y-36.0970 G01 F60.00
G01 X5.1485 Y-36.1531 G01 F60.00
G01 X5.1981 Y-36.2917 G01 F60.00
G01 X5.2113 Y-36.3318 G01 F60.00
G01 X5.2211 Y-36.3678 G01 F60.00
G01 X5.2619 Y-36.5316 G01 F60.00
G01 X5.2724 Y-36.5885 G01 F60.00
G01 X5.2940 Y-36.7341 G01 F60.00
G01 X5.2988 Y-36.7724 G01 F60.00
G01 X5.3018 Y-36.8132 G01 F60.00
G01 X5.3090 Y-36.9603 G01 F60.00
G00 Z2.0000
G00 X4.7996 Y-36.9853
G01 F10.00
G01 Z-0.0450
G01 F60.00
G01 X4.7996 Y-37.0147 G01 F60.00
G01 X4.7913 Y-37.1769 G01 F60.00
G01 X4.7679 Y-37.3367 G01 F60.00
G01 X4.7640 Y-37.3577 G01 F60.00
G01 X4.7228 Y-37.5216 G01 F60.00
G01 X4.6683 Y-37.6751 G01 F60.00
G01 X4.6600 Y-37.6959 G01 F60.00
G01 X4.5912 Y-37.8413 G01 F60.00
G01 X4.5802 Y-37.8613 G01 F60.00
G01 X4.4968 Y-37.9998 G01 F60.00
G01 X4.4005 Y-38.1303 G01 F60.00
G01 X4.3873 Y-38.1468 G01 F60.00
G01 X4.2728 Y-38.2728 G01 F60.00
G01 X4.1468 Y-38.3873 G01 F60.00
G01 X4.1303 Y-38.4005 G01 F60.00
G01 X3.9998 Y-38.4968 G01 F60.00
G01 X3.8613 Y-38.5802 G01 F60.00
G01 X3.8413 Y-38.5912 G01 F60.00
G01 X3.6959 Y-38.6600 G01 F60.00
G01 X3.6751 Y-38.6683 G01 F60.00
G01 X3.5216 Y-38.7228 G01 F60.00
G01 X3.3577 Y-38.7640 G01 F60.00
G01 X3.3367 Y-38.7679 G01 F60.00
G01 X3.1769 Y-38.7913 G01 F60.00
G01 X3.0000 Y-38.8000 G01 F60.00
G01 X2.8231 Y-38.7913 G01 F60.00
G01 X2.6633 Y-38.7679 G01 F60.00
G01 X2.6423 Y-38.7640 G01 F60.00
G01 X2.4784 Y-38.7228 G01 F60.00
G01 X2.3249 Y-38.6683 G01 F60.00
G01 X2.3041 Y-38.6600 G01 F60.00
G01 X2.1587 Y-38.5912 G01 F60.00
G01 X2.1387 Y-38.5802 G01 F60.00
G01 X2.0002 Y-38.4968 G01 F60.00
G01 X1.8697 Y-38.4005 G01 F60.00
G01 X1.8532 Y-38.3873 G01 F60.00
G01 X1.7272 Y-38.2728 G01 F60.00
G01 X1.6127 Y-38.1468 G01 F60.00
G01 X1.5995 Y-38.1303 G01 F60.00
G01 X1.5032 Y-37.9998 G01 F60.00
G01 X1.4198 Y-37.8613 G01 F60.00
G01 X1.4088 Y-37.8413 G01 F60.00
G01 X1.3400 Y-37.6959 G01 F60.00
G01 X1.3317 Y-37.6751 G01 F60.00
G01 X1.2772 Y-37.5216 G01 F60.00
G01 X1.2360 Y-37.3577 G01 F60.00
G01 X1.2321 Y-37.3367 G01 F60.00
G01 X1.2087 Y-37.1769 G01 F60.00
G01 X1.2000 Y-37.0000 G01 F60.00
G01 X1.2087 Y-36.8231 G01 F60.00
G01 X1.2321 Y-36.6633 G01 F60.00
G01 X1.2360 Y-36.6423 G01 F60.00
G01 X1.2772 Y-36.4784 G01 F60.00
G01 X1.3317 Y-36.3249 G01 F60.00
G01 X1.3400 Y-36.3041 G01 F60.00
G01 X1.4088 Y-36.1587 G01 F60.00
G01 X1.4198 Y-36.1387 G01 F60.00
G01 X1.5032 Y-36.0002 G01 F60.00
G01 X1.5995 Y-35.8697 G01 F60.00
G01 X1.6127 Y-35.8532 G01 F60.00
G01 X1.7272 Y-35.7272 G01 F60.00
G01 X1.8532 Y-35.6127 G01 F60.00
G01 X1.8697 Y-35.5995 G01 F60.00
G01 X2.0002 Y-35.5032 G01 F60.00
G01 X2.1387 Y-35.4198 G01 F60.00
G01 X2.1587 Y-35.4088 G01 F60.00
G01 X2.3041 Y-35.3400 G01 F60.00
G01 X2.3249 Y-35.3317 G01 F60.00
G01 X2.4784 Y-35.2772 G01 F60.00
G01 X2.6423 Y-35.2360 G01 F60.00
G01 X2.6633 Y-35.2321 G01 F60.00
G01 X2.8231 Y-35.2087 G01 F60.00
G01 X3.0000 Y-35.2000 G01 F60.00
G01 X3.1769 Y-35.2087 G01 F60.00
G01 X3.3367 Y-35.2321 G01 F60.00
G01 X3.3577 Y-35.2360 G01 F60.00
G01 X3.5216 Y-35.2772 G01 F60.00
G01 X3.6751 Y-35.3317 G01 F60.00
G01 X3.6959 Y-35.3400 G01 F60.00
G01 X3.8413 Y-35.4088 G01 F60.00
G01 X3.8613 Y-35.4198 G01 F60.00
G01 X3.9998 Y-35.5032 G01 F60.00
G01 X4.1303 Y-35.5995 G01 F60.00
G01 X4.1468 Y-35.6127 G01 F60.00
G01 X4.2728 Y-35.7272 G01 F60.00
G01 X4.3873 Y-35.8532 G01 F60.00
G01 X4.4005 Y-35.8697 G01 F60.00
G01 X4.4968 Y-36.0002 G01 F60.00
G01 X4.5802 Y-36.1387 G01 F60.00
G01 X4.5912 Y-36.1587 G01 F60.00
G01 X4.6600 Y-36.3041 G01 F60.00
G01 X4.6683 Y-36.3249 G01 F60.00
G01 X4.7228 Y-36.4784 G01 F60.00
G01 X4.7640 Y-36.6423 G01 F60.00
G01 X4.7679 Y-36.6633 G01 F60.00
G01 X4.7913 Y-36.8231 G01 F60.00
G01 X4.7996 Y-36.9853 G01 F60.00
G00 Z2.0000
G00 X22.1892 Y-34.4026
G01 F10.00
G01 Z-0.0450
G01 F60.00
G01 X22.1892 Y-26.5974 G01 F60.00
G01 X22.1631 Y-26.5604 G01 F60.00
G01 X22.1423 Y-26.5276 G01 F60.00
G01 X22.0414 Y-26.3592 G01 F60.00
G01 X22.0117 Y-26.3050 G01 F60.00
G01 X21.9121 Y-26.0943 G01 F60.00
G01 X21.8896 Y-26.0382 G01 F60.00
G01 X21.8235 Y-25.8535 G01 F60.00
G01 X21.8103 Y-25.8133 G01 F60.00
G01 X21.8004 Y-25.7774 G01 F60.00
G01 X21.7477 Y-25.5659 G01 F60.00
G01 X21.7372 Y-25.5090 G01 F60.00
G01 X21.7084 Y-25.3149 G01 F60.00
G01 X21.7037 Y-25.2766 G01 F60.00
G01 X21.7006 Y-25.2358 G01 F60.00
G01 X21.6910 Y-25.0397 G01 F60.00
G01 X21.6900 Y-25.0000 G01 F60.00
G01 X21.6910 Y-24.9603 G01 F60.00
G01 X21.7006 Y-24.7642 G01 F60.00
G01 X21.7037 Y-24.7234 G01 F60.00
G01 X21.7084 Y-24.6851 G01 F60.00
G01 X21.7372 Y-24.4910 G01 F60.00
G01 X21.7477 Y-24.4341 G01 F60.00
G01 X21.7527 Y-24.4130 G01 F60.00
G01 X21.8004 Y-24.2226 G01 F60.00
G01 X21.8103 Y-24.1867 G01 F60.00
G01 X21.8235 Y-24.1465 G01 F60.00
G01 X21.8896 Y-23.9618 G01 F60.00
G01 X21.9121 Y-23.9057 G01 F60.00
G01 X22.0117 Y-23.6950 G01 F60.00
G01 X22.0414 Y-23.6408 G01 F60.00
G01 X22.1423 Y-23.4724 G01 F60.00
G01 X22.1631 Y-23.4396 G01 F60.00
G01 X22.1865 Y-23.4063 G01 F60.00
G01 X22.3034 Y-23.2487 G01 F60.00
G01 X22.3390 Y-23.2041 G01 F60.00
G01 X22.4856 Y-23.0418 G01 F60.00
G01 X22.5130 Y-23.0130 G01 F60.00
G01 X22.5418 Y-22.9856 G01 F60.00
G01 X22.7041 Y-22.8390 G01 F60.00
G01 X22.7487 Y-22.8034 G01 F60.00
G01 X22.9063 Y-22.6865 G01 F60.00
G01 X22.9396 Y-22.6631 G01 F60.00
G01 X22.9724 Y-22.6423 G01 F60.00
G01 X23.1408 Y-22.5414 G01 F60.00
G01 X23.1950 Y-22.5117 G01 F60.00
G01 X23.4057 Y-22.4121 G01 F60.00
G01 X23.4618 Y-22.3896 G01 F60.00
G01 X23.6465 Y-22.3235 G01 F60.00
G01 X23.6867 Y-22.3103 G01 F60.00
G01 X23.7226 Y-22.3004 G01 F60.00
G01 X23.9341 Y-22.2477 G01 F60.00
G01 X23.9910 Y-22.2372 G01 F60.00
G01 X24.1851 Y-22.2084 G01 F60.00
G01 X24.2234 Y-22.2037 G01 F60.00
G01 X24.2642 Y-22.2006 G01 F60.00
G01 X24.4603 Y-22.1910 G01 F60.00
G01 X24.5000 Y-22.1900 G01 F60.00
G01 X24.5397 Y-22.1910 G01 F60.00
G01 X24.7358 Y-22.2006 G01 F60.00
G01 X24.7766 Y-22.2037 G01 F60.00
G01 X24.8149 Y-22.2084 G01 F60.00
G01 X25.0090 Y-22.2372 G01 F60.00
G01 X25.0659 Y-22.2477 G01 F60.00
G01 X25.0870 Y-22.2527 G01 F60.00
G01 X25.2774 Y-22.3004 G01 F60.00
G01 X25.3133 Y-22.3103 G01 F60.00
G01 X25.3535 Y-22.3235 G01 F60.00
G01 X25.5382 Y-22.3896 G01 F60.00
G01 X25.5943 Y-22.4121 G01 F60.00
G01 X25.7891 Y-22.5039 G01 F60.00
G01 X25.8050 Y-22.5117 G01 F60.00
G01 X25.8592 Y-22.5414 G01 F60.00
G01 X26.0276 Y-22.6423 G01 F60.00
G01 X26.0604 Y-22.6631 G01 F60.00
G01 X26.0937 Y-22.6865 G01 F60.00
G01 X26.2513 Y-22.8034 G01 F60.00
G01 X26.2959 Y-22.8390 G01 F60.00
G01 X26.4582 Y-22.9856 G01 F60.00
G01 X26.4870 Y-23.0130 G01 F60.00
G01 X26.5144 Y-23.0418 G01 F60.00
G01 X26.6462 Y-23.1873 G01 F60.00
G01 X26.6610 Y-23.2041 G01 F60.00
G01 X26.6966 Y-23.2487 G01 F60.00
G01 X26.8135 Y-23.4063 G01 F60.00
G01 X26.8369 Y-23.4396 G01 F60.00
G01 X26.8577 Y-23.4724 G01 F60.00
G01 X26.9586 Y-23.6408 G01 F60.00
G01 X26.9883 Y-23.6950 G01 F60.00
G01 X27.0879 Y-23.9057 G01 F60.00
G01 X27.1104 Y-23.9618 G01 F60.00
G01 X27.1765 Y-24.1465 G01 F60.00
G01 X27.1897 Y-24.1867 G01 F60.00
G01 X27.1996 Y-24.2226 G01 F60.00
G01 X27.2523 Y-24.4341 G01 F60.00
G01 X27.2628 Y-24.4910 G01 F60.00
G01 X27.2916 Y-24.6851 G01 F60.00
G01 X27.2963 Y-24.7234 G01 F60.00
G01 X27.2994 Y-24.7642 G01 F60.00
G01 X27.3090 Y-24.9603 G01 F60.00
G01 X27.3100 Y-25.0000 G01 F60.00
G01 X27.3090 Y-25.0397 G01 F60.00
G01 X27.2994 Y-25.2358 G01 F60.00
G01 X27.2963 Y-25.2766 G01 F60.00
G01 X27.2916 Y-25.3149 G01 F60.00
G01 X27.2628 Y-25.5090 G01 F60.00
G01 X27.2523 Y-25.5659 G01 F60.00
G01 X27.1996 Y-25.7774 G01 F60.00
G01 X27.1897 Y-25.8133 G01 F60.00
G01 X27.1765 Y-25.8535 G01 F60.00
G01 X27.1104 Y-26.0382 G01 F60.00
G01 X27.0879 Y-26.0943 G01 F60.00
G01 X26.9961 Y-26.2891 G01 F60.00
G01 X26.9883 Y-26.3050 G01 F60.00
G01 X26.9586 Y-26.3592 G01 F60.00
G01 X26.8577 Y-26.5276 G01 F60.00
G01 X26.8369 Y-26.5604 G01 F60.00
G01 X26.8108 Y-26.5974 G01 F60.00
G01 X26.8108 Y-34.4026 G01 F60.00
G01 X26.8369 Y-34.4396 G01 F60.00
G01 X26.8577 Y-34.4724 G01 F60.00
G01 X26.9586 Y-34.6408 G01 F60.00
G01 X26.9883 Y-34.6950 G01 F60.00
G01 X26.9961 Y-34.7109 G01 F60.00
G01 X27.0879 Y-34.9057 G01 F60.00
G01 X27.1104 Y-34.9618 G01 F60.00
G01 X27.1765 Y-35.1465 G01 F60.00
G01 X27.1897 Y-35.1867 G01 F60.00
G01 X27.1996 Y-35.2226 G01 F60.00
G01 X27.2523 Y-35.4341 G01 F60.00
G01 X27.2628 Y-35.4910 G01 F60.00
G01 X27.2916 Y-35.6851 G01 F60.00
G01 X27.2963 Y-35.7234 G01 F60.00
G01 X27.2994 Y-35.7642 G01 F60.00
G01 X27.3090 Y-35.9603 G01 F60.00
G01 X27.3100 Y-36.0000 G01 F60.00
G01 X27.3090 Y-36.0397 G01 F60.00
G01 X27.2994 Y-36.2358 G01 F60.00
G01 X27.2963 Y-36.2766 G01 F60.00
G01 X27.2916 Y-36.3149 G01 F60.00
G01 X27.2628 Y-36.5090 G01 F60.00
G01 X27.2523 Y-36.5659 G01 F60.00
G01 X27.1996 Y-36.7774 G01 F60.00
G01 X27.1897 Y-36.8133 G01 F60.00
G01 X27.1765 Y-36.8535 G01 F60.00
G01 X27.1104 Y-37.0382 G01 F60.00
G01 X27.0879 Y-37.0943 G01 F60.00
G01 X27.0800 Y-37.1117 G01 F60.00
G01 X26.9883 Y-37.3050 G01 F60.00
G01 X26.9586 Y-37.3592 G01 F60.00
G01 X26.8577 Y-37.5276 G01 F60.00
G01 X26.8369 Y-37.5604 G01 F60.00
G01 X26.8135 Y-37.5937 G01 F60.00
G01 X26.6966 Y-37.7513 G01 F60.00
G01 X26.6610 Y-37.7959 G01 F60.00
G01 X26.5144 Y-37.9582 G01 F60.00
G01 X26.4870 Y-37.9870 G01 F60.00
G01 X26.4582 Y-38.0144 G01 F60.00
G01 X26.2959 Y-38.1610 G01 F60.00
G01 X26.2513 Y-38.1966 G01 F60.00
G01 X26.0937 Y-38.3135 G01 F60.00
G01 X26.0604 Y-38.3369 G01 F60.00
G01 X26.0276 Y-38.3577 G01 F60.00
G01 X25.8592 Y-38.4586 G01 F60.00
G01 X25.8050 Y-38.4883 G01 F60.00
G01 X25.5943 Y-38.5879 G01 F60.00
G01 X25.5382 Y-38.6104 G01 F60.00
G01 X25.3535 Y-38.6765 G01 F60.00
G01 X25.3133 Y-38.6897 G01 F60.00
G01 X25.2774 Y-38.6996 G01 F60.00
G01 X25.0659 Y-38.7523 G01 F60.00
G01 X25.0090 Y-38.7628 G01 F60.00
G01 X24.8149 Y-38.7916 G01 F60.00
G01 X24.7766 Y-38.7964 G01 F60.00
G01 X24.7358 Y-38.7994 G01 F60.00
G01 X24.5397 Y-38.8090 G01 F60.00
G01 X24.5000 Y-38.8100 G01 F60.00
G01 X24.4603 Y-38.8090 G01 F60.00
G01 X24.2642 Y-38.7994 G01 F60.00
G01 X24.2234 Y-38.7964 G01 F60.00
G01 X24.1851 Y-38.7916 G01 F60.00
G01 X23.9910 Y-38.7628 G01 F60.00
G01 X23.9341 Y-38.7523 G01 F60.00
G01 X23.7226 Y-38.6996 G01 F60.00
G01 X23.6867 Y-38.6897 G01 F60.00
G01 X23.6465 Y-38.6765 G01 F60.00
G01 X23.4618 Y-38.6104 G01 F60.00
G01 X23.4057 Y-38.5879 G01 F60.00
G01 X23.1950 Y-38.4883 G01 F60.00
G01 X23.1408 Y-38.4586 G01 F60.00
G01 X22.9724 Y-38.3577 G01 F60.00
G01 X22.9396 Y-38.3369 G01 F60.00
G01 X22.9063 Y-38.3135 G01 F60.00
G01 X22.7487 Y-38.1966 G01 F60.00
G01 X22.7041 Y-38.1610 G01 F60.00
G01 X22.5418 Y-38.0144 G01 F60.00
G01 X22.5130 Y-37.9870 G01 F60.00
G01 X22.4856 Y-37.9582 G01 F60.00
G01 X22.3390 Y-37.7959 G01 F60.00
G01 X22.3034 Y-37.7513 G01 F60.00
G01 X22.1865 Y-37.5937 G01 F60.00
G01 X22.1631 Y-37.5604 G01 F60.00
G01 X22.1423 Y-37.5276 G01 F60.00
G01 X22.0414 Y-37.3592 G01 F60.00
G01 X22.0117 Y-37.3050 G01 F60.00
G01 X21.9121 Y-37.0943 G01 F60.00
G01 X21.8896 Y-37.0382 G01 F60.00
G01 X21.8235 Y-36.8535 G01 F60.00
G01 X21.8103 Y-36.8133 G01 F60.00
G01 X21.8004 Y-36.7774 G01 F60.00
G01 X21.7477 Y-36.5659 G01 F60.00
G01 X21.7372 Y-36.5090 G01 F60.00
G01 X21.7084 Y-36.3149 G01 F60.00
G01 X21.7037 Y-36.2766 G01 F60.00
G01 X21.7006 Y-36.2358 G01 F60.00
G01 X21.6910 Y-36.0397 G01 F60.00
G01 X21.6900 Y-36.0000 G01 F60.00
G01 X21.6910 Y-35.9603 G01 F60.00
G01 X21.7006 Y-35.7642 G01 F60.00
G01 X21.7037 Y-35.7234 G01 F60.00
G01 X21.7084 Y-35.6851 G01 F60.00
G01 X21.7372 Y-35.4910 G01 F60.00
G01 X21.7477 Y-35.4341 G01 F60.00
G01 X21.8004 Y-35.2226 G01 F60.00
G01 X21.8103 Y-35.1867 G01 F60.00
G01 X21.8235 Y-35.1465 G01 F60.00
G01 X21.8896 Y-34.9618 G01 F60.00
G01 X21.9121 Y-34.9057 G01 F60.00
G01 X22.0117 Y-34.6950 G01 F60.00
G01 X22.0414 Y-34.6408 G01 F60.00
G01 X22.1423 Y-34.4724 G01 F60.00
G01 X22.1631 Y-34.4396 G01 F60.00
G01 X22.1892 Y-34.4026 G01 F60.00
G00 Z2.0000
G00 X22.6992 Y-34.5711
G01 F10.00
G01 Z-0.0450
G01 F60.00
G01 X22.6992 Y-26.4289 G01 F60.00
G01 X22.5874 Y-26.2776 G01 F60.00
G01 X22.4788 Y-26.0970 G01 F60.00
G01 X22.4650 Y-26.0711 G01 F60.00
G01 X22.3810 Y-25.8936 G01 F60.00
G01 X22.3698 Y-25.8664 G01 F60.00
G01 X22.2988 Y-25.6668 G01 F60.00
G01 X22.2474 Y-25.4631 G01 F60.00
G01 X22.2417 Y-25.4342 G01 F60.00
G01 X22.2111 Y-25.2259 G01 F60.00
G01 X22.2000 Y-25.0000 G01 F60.00
G01 X22.2111 Y-24.7741 G01 F60.00
G01 X22.2417 Y-24.5658 G01 F60.00
G01 X22.2456 Y-24.5447 G01 F60.00
G01 X22.2988 Y-24.3332 G01 F60.00
G01 X22.3698 Y-24.1336 G01 F60.00
G01 X22.3781 Y-24.1128 G01 F60.00
G01 X22.4678 Y-23.9230 G01 F60.00
G01 X22.4788 Y-23.9030 G01 F60.00
G01 X22.5874 Y-23.7224 G01 F60.00
G01 X22.7130 Y-23.5525 G01 F60.00
G01 X22.7262 Y-23.5360 G01 F60.00
G01 X22.8737 Y-23.3737 G01 F60.00
G01 X23.0360 Y-23.2262 G01 F60.00
G01 X23.0525 Y-23.2130 G01 F60.00
G01 X23.2224 Y-23.0874 G01 F60.00
G01 X23.4030 Y-22.9788 G01 F60.00
G01 X23.4230 Y-22.9678 G01 F60.00
G01 X23.6128 Y-22.8781 G01 F60.00
G01 X23.6336 Y-22.8698 G01 F60.00
G01 X23.8332 Y-22.7988 G01 F60.00
G01 X24.0447 Y-22.7456 G01 F60.00
G01 X24.0658 Y-22.7417 G01 F60.00
G01 X24.2741 Y-22.7111 G01 F60.00
G01 X24.5000 Y-22.7000 G01 F60.00
G01 X24.7259 Y-22.7111 G01 F60.00
G01 X24.9342 Y-22.7417 G01 F60.00
G01 X24.9553 Y-22.7456 G01 F60.00
G01 X25.1668 Y-22.7988 G01 F60.00
G01 X25.3664 Y-22.8698 G01 F60.00
G01 X25.3936 Y-22.8810 G01 F60.00
G01 X25.5711 Y-22.9650 G01 F60.00
G01 X25.5970 Y-22.9788 G01 F60.00
G01 X25.7776 Y-23.0874 G01 F60.00
G01 X25.9475 Y-23.2130 G01 F60.00
G01 X25.9640 Y-23.2262 G01 F60.00
G01 X26.1263 Y-23.3737 G01 F60.00
G01 X26.2683 Y-23.5297 G01 F60.00
G01 X26.2870 Y-23.5525 G01 F60.00
G01 X26.4039 Y-23.7101 G01 F60.00
G01 X26.4203 Y-23.7346 G01 F60.00
G01 X26.5212 Y-23.9030 G01 F60.00
G01 X26.5322 Y-23.9230 G01 F60.00
G01 X26.6219 Y-24.1128 G01 F60.00
G01 X26.6302 Y-24.1336 G01 F60.00
G01 X26.6963 Y-24.3184 G01 F60.00
G01 X26.7049 Y-24.3465 G01 F60.00
G01 X26.7544 Y-24.5447 G01 F60.00
G01 X26.7583 Y-24.5658 G01 F60.00
G01 X26.7889 Y-24.7741 G01 F60.00
G01 X26.8000 Y-25.0000 G01 F60.00
G01 X26.7889 Y-25.2259 G01 F60.00
G01 X26.7583 Y-25.4342 G01 F60.00
G01 X26.7544 Y-25.4553 G01 F60.00
G01 X26.7012 Y-25.6668 G01 F60.00
G01 X26.6302 Y-25.8664 G01 F60.00
G01 X26.6219 Y-25.8872 G01 F60.00
G01 X26.5322 Y-26.0770 G01 F60.00
G01 X26.5212 Y-26.0970 G01 F60.00
G01 X26.4126 Y-26.2776 G01 F60.00
G01 X26.3008 Y-26.4289 G01 F60.00
G01 X26.3008 Y-34.5711 G01 F60.00
G01 X26.4126 Y-34.7224 G01 F60.00
G01 X26.5212 Y-34.9030 G01 F60.00
G01 X26.5322 Y-34.9230 G01 F60.00
G01 X26.6219 Y-35.1128 G01 F60.00
G01 X26.6302 Y-35.1336 G01 F60.00
G01 X26.6963 Y-35.3184 G01 F60.00
G01 X26.7049 Y-35.3465 G01 F60.00
G01 X26.7526 Y-35.5369 G01 F60.00
G01 X26.7583 Y-35.5658 G01 F60.00
G01 X26.7889 Y-35.7741 G01 F60.00
G01 X26.7996 Y-35.9853 G01 F60.00
G01 X26.7996 Y-36.0147 G01 F60.00
G01 X26.7889 Y-36.2259 G01 F60.00
G01 X26.7583 Y-36.4342 G01 F60.00
G01 X26.7544 Y-36.4553 G01 F60.00
G01 X26.7012 Y-36.6668 G01 F60.00
G01 X26.6302 Y-36.8664 G01 F60.00
G01 X26.6190 Y-36.8936 G01 F60.00
G01 X26.5350 Y-37.0711 G01 F60.00
G01 X26.5212 Y-37.0970 G01 F60.00
G01 X26.4126 Y-37.2776 G01 F60.00
G01 X26.2870 Y-37.4475 G01 F60.00
G01 X26.2738 Y-37.4640 G01 F60.00
G01 X26.1263 Y-37.6263 G01 F60.00
G01 X25.9640 Y-37.7738 G01 F60.00
G01 X25.9475 Y-37.7870 G01 F60.00
G01 X25.7776 Y-37.9126 G01 F60.00
G01 X25.5970 Y-38.0212 G01 F60.00
G01 X25.5770 Y-38.0322 G01 F60.00
G01 X25.3872 Y-38.1219 G01 F60.00
G01 X25.3664 Y-38.1302 G01 F60.00
G01 X25.1668 Y-38.2012 G01 F60.00
G01 X24.9553 Y-38.2544 G01 F60.00
G01 X24.9342 Y-38.2583 G01 F60.00
G01 X24.7259 Y-38.2889 G01 F60.00
G01 X24.5000 Y-38.3000 G01 F60.00
G01 X24.2741 Y-38.2889 G01 F60.00
G01 X24.0658 Y-38.2583 G01 F60.00
G01 X24.0447 Y-38.2544 G01 F60.00
G01 X23.8332 Y-38.2012 G01 F60.00
G01 X23.6336 Y-38.1302 G01 F60.00
G01 X23.6128 Y-38.1219 G01 F60.00
G01 X23.4230 Y-38.0322 G01 F60.00
G01 X23.4030 Y-38.0212 G01 F60.00
G01 X23.2224 Y-37.9126 G01 F60.00
G01 X23.0525 Y-37.7870 G01 F60.00
G01 X23.0360 Y-37.7738 G01 F60.00
G01 X22.8737 Y-37.6263 G01 F60.00
G01 X22.7262 Y-37.4640 G01 F60.00
G01 X22.7130 Y-37.4475 G01 F60.00
G01 X22.5874 Y-37.2776 G01 F60.00
G01 X22.4788 Y-37.0970 G01 F60.00
G01 X22.4678 Y-37.0770 G01 F60.00
G01 X22.3781 Y-36.8872 G01 F60.00
G01 X22.3698 Y-36.8664 G01 F60.00
G01 X22.2988 Y-36.6668 G01 F60.00
G01 X22.2456 Y-36.4553 G01 F60.00
G01 X22.2417 Y-36.4342 G01 F60.00
G01 X22.2111 Y-36.2259 G01 F60.00
G01 X22.2000 Y-36.0000 G01 F60.00
G01 X22.2111 Y-35.7741 G01 F60.00
G01 X22.2417 Y-35.5658 G01 F60.00
G01 X22.2456 Y-35.5447 G01 F60.00
G01 X22.2988 Y-35.3332 G01 F60.00
G01 X22.3698 Y-35.1336 G01 F60.00
G01 X22.3781 Y-35.1128 G01 F60.00
G01 X22.4678 Y-34.9230 G01 F60.00
G01 X22.4788 Y-34.9030 G01 F60.00
G01 X22.5874 Y-34.7224 G01 F60.00
G01 X22.6992 Y-34.5711 G01 F60.00
G00 Z2.0000
G00 X27.4394 Y-26.9072
G01 F10.00
G01 Z-0.0450
G01 F60.00
G01 X27.3390 Y-26.7959 G01 F60.00
G01 X27.3034 Y-26.7513 G01 F60.00
G01 X27.1865 Y-26.5937 G01 F60.00
G01 X27.1631 Y-26.5604 G01 F60.00
G01 X27.1423 Y-26.5276 G01 F60.00
G01 X27.0414 Y-26.3592 G01 F60.00
G01 X27.0117 Y-26.3050 G01 F60.00
G01 X26.9200 Y-26.1117 G01 F60.00
G01 X26.9121 Y-26.0943 G01 F60.00
G01 X26.8896 Y-26.0382 G01 F60.00
G01 X26.8235 Y-25.8535 G01 F60.00
G01 X26.8103 Y-25.8133 G01 F60.00
G01 X26.8004 Y-25.7774 G01 F60.00
G01 X26.7477 Y-25.5659 G01 F60.00
G01 X26.7372 Y-25.5090 G01 F60.00
G01 X26.7084 Y-25.3149 G01 F60.00
G01 X26.7037 Y-25.2766 G01 F60.00
G01 X26.7006 Y-25.2358 G01 F60.00
G01 X26.6910 Y-25.0397 G01 F60.00
G01 X26.6900 Y-25.0000 G01 F60.00
G01 X26.6910 Y-24.9603 G01 F60.00
G01 X26.7006 Y-24.7642 G01 F60.00
G01 X26.7037 Y-24.7234 G01 F60.00
G01 X26.7084 Y-24.6851 G01 F60.00
G01 X26.7372 Y-24.4910 G01 F60.00
G01 X26.7477 Y-24.4341 G01 F60.00
G01 X26.8004 Y-24.2226 G01 F60.00
G01 X26.8103 Y-24.1867 G01 F60.00
G01 X26.8235 Y-24.1465 G01 F60.00
G01 X26.8896 Y-23.9618 G01 F60.00
G01 X26.9121 Y-23.9057 G01 F60.00
G01 X27.0117 Y-23.6950 G01 F60.00
G01 X27.0414 Y-23.6408 G01 F60.00
G01 X27.1423 Y-23.4724 G01 F60.00
G01 X27.1631 Y-23.4396 G01 F60.00
G01 X27.1865 Y-23.4063 G01 F60.00
G01 X27.3034 Y-23.2487 G01 F60.00
G01 X27.3390 Y-23.2041 G01 F60.00
G01 X27.4856 Y-23.0418 G01 F60.00
G01 X27.5130 Y-23.0130 G01 F60.00
G01 X27.5418 Y-22.9856 G01 F60.00
G01 X27.7041 Y-22.8390 G01 F60.00
G01 X27.7487 Y-22.8034 G01 F60.00
G01 X27.9063 Y-22.6865 G01 F60.00
G01 X27.9396 Y-22.6631 G01 F60.00
G01 X27.9724 Y-22.6423 G01 F60.00
G01 X28.1408 Y-22.5414 G01 F60.00
G01 X28.1950 Y-22.5117 G01 F60.00
G01 X28.4057 Y-22.4121 G01 F60.00
G01 X28.4618 Y-22.3896 G01 F60.00
G01 X28.6465 Y-22.3235 G01 F60.00
G01 X28.6867 Y-22.3103 G01 F60.00
G01 X28.7226 Y-22.3004 G01 F60.00
G01 X28.9341 Y-22.2477 G01 F60.00
G01 X28.9910 Y-22.2372 G01 F60.00
G01 X29.1851 Y-22.2084 G01 F60.00
G01 X29.2234 Y-22.2037 G01 F60.00
G01 X29.2642 Y-22.2006 G01 F60.00
G01 X29.4603 Y-22.1910 G01 F60.00
G01 X29.5000 Y-22.1900 G01 F60.00
G01 X29.5397 Y-22.1910 G01 F60.00
G01 X29.7358 Y-22.2006 G01 F60.00
G01 X29.7766 Y-22.2037 G01 F60.00
G01 X29.8149 Y-22.2084 G01 F60.00
G01 X30.0090 Y-22.2372 G01 F60.00
G01 X30.0659 Y-22.2477 G01 F60.00
G01 X30.2774 Y-22.3004 G01 F60.00
G01 X30.3133 Y-22.3103 G01 F60.00
G01 X30.3535 Y-22.3235 G01 F60.00
G01 X30.5382 Y-22.3896 G01 F60.00
G01 X30.5943 Y-22.4121 G01 F60.00
G01 X30.8050 Y-22.5117 G01 F60.00
G01 X30.8592 Y-22.5414 G01 F60.00
G01 X31.0276 Y-22.6423 G01 F60.00
G01 X31.0604 Y-22.6631 G01 F60.00
G01 X31.0937 Y-22.6865 G01 F60.00
G01 X31.2513 Y-22.8034 G01 F60.00
G01 X31.2959 Y-22.8390 G01 F60.00
G01 X31.4582 Y-22.9856 G01 F60.00
G01 X31.4870 Y-23.0130 G01 F60.00
G01 X31.5144 Y-23.0418 G01 F60.00
G01 X31.6610 Y-23.2041 G01 F60.00
G01 X31.6966 Y-23.2487 G01 F60.00
G01 X31.8135 Y-23.4063 G01 F60.00
G01 X31.8369 Y-23.4396 G01 F60.00
G01 X31.8577 Y-23.4724 G01 F60.00
G01 X31.9586 Y-23.6408 G01 F60.00
G01 X31.9883 Y-23.6950 G01 F60.00
G01 X32.0879 Y-23.9057 G01 F60.00
G01 X32.1104 Y-23.9618 G01 F60.00
G01 X32.1765 Y-24.1465 G01 F60.00
G01 X32.1897 Y-24.1867 G01 F60.00
G01 X32.1996 Y-24.2226 G01 F60.00
G01 X32.2473 Y-24.4130 G01 F60.00
G01 X32.2523 Y-24.4341 G01 F60.00
G01 X32.2628 Y-24.4910 G01 F60.00
G01 X32.2916 Y-24.6851 G01 F60.00
G01 X32.2963 Y-24.7234 G01 F60.00
G01 X32.2994 Y-24.7642 G01 F60.00
G01 X32.3090 Y-24.9603 G01 F60.00
G01 X32.3100 Y-25.0000 G01 F60.00
G01 X32.3090 Y-25.0397 G01 F60.00
G01 X32.2994 Y-25.2358 G01 F60.00
G01 X32.2963 Y-25.2766 G01 F60.00
G01 X32.2916 Y-25.3149 G01 F60.00
G01 X32.2628 Y-25.5090 G01 F60.00
G01 X32.2523 Y-25.5659 G01 F60.00
G01 X32.1996 Y-25.7774 G01 F60.00
G01 X32.1897 Y-25.8133 G01 F60.00
G01 X32.1765 Y-25.8535 G01 F60.00
G01 X32.1104 Y-26.0382 G01 F60.00
G01 X32.0879 Y-26.0943 G01 F60.00
G01 X31.9883 Y-26.3050 G01 F60.00
G01 X31.9586 Y-26.3592 G01 F60.00
G01 X31.8577 Y-26.5276 G01 F60.00
G01 X31.8369 Y-26.5604 G01 F60.00
G01 X31.8135 Y-26.5937 G01 F60.00
G01 X31.6966 Y-26.7513 G01 F60.00
G01 X31.6610 Y-26.7959 G01 F60.00
G01 X31.5606 Y-26.9072 G01 F60.00
G01 X31.5606 Y-27.9699 G01 F60.00
G01 X32.0301 Y-28.4394 G01 F60.00
G01 X40.2855 Y-28.4394 G01 F60.00
G01 X40.3252 Y-28.4404 G01 F60.00
G01 X40.4478 Y-28.4464 G01 F60.00
G01 X40.4887 Y-28.4494 G01 F60.00
G01 X40.5269 Y-28.4542 G01 F60.00
G01 X40.6483 Y-28.4722 G01 F60.00
G01 X40.7052 Y-28.4827 G01 F60.00
G01 X40.7263 Y-28.4877 G01 F60.00
G01 X40.8454 Y-28.5175 G01 F60.00
G01 X40.8813 Y-28.5274 G01 F60.00
G01 X40.9214 Y-28.5406 G01 F60.00
G01 X41.0370 Y-28.5819 G01 F60.00
G01 X41.0931 Y-28.6044 G01 F60.00
G01 X41.2373 Y-28.6726 G01 F60.00
G01 X41.2915 Y-28.7023 G01 F60.00
G01 X41.3967 Y-28.7654 G01 F60.00
G01 X41.4296 Y-28.7862 G01 F60.00
G01 X41.4628 Y-28.8095 G01 F60.00
G01 X41.5614 Y-28.8827 G01 F60.00
G01 X41.6060 Y-28.9183 G01 F60.00
G01 X41.6229 Y-28.9331 G01 F60.00
G01 X41.7138 Y-29.0155 G01 F60.00
G01 X41.7132 Y-29.0162 G01 F60.00
G01 X41.7426 Y-29.0429 G01 F60.00
G01 X42.8887 Y-30.1890 G01 F60.00
G01 X61.3356 Y-30.1890 G01 F60.00
G01 X62.5123 Y-29.0123 G01 F60.00
G01 X62.5411 Y-28.9849 G01 F60.00
G01 X62.7034 Y-28.8382 G01 F60.00
G01 X62.7481 Y-28.8026 G01 F60.00
G01 X62.9058 Y-28.6856 G01 F60.00
G01 X62.9390 Y-28.6623 G01 F60.00
G01 X62.9719 Y-28.6415 G01 F60.00
G01 X63.1403 Y-28.5405 G01 F60.00
G01 X63.1945 Y-28.5108 G01 F60.00
G01 X63.3879 Y-28.4191 G01 F60.00
G01 X63.4053 Y-28.4111 G01 F60.00
G01 X63.4614 Y-28.3887 G01 F60.00
G01 X63.6463 Y-28.3225 G01 F60.00
G01 X63.6864 Y-28.3093 G01 F60.00
G01 X63.7223 Y-28.2994 G01 F60.00
G01 X63.9339 Y-28.2467 G01 F60.00
G01 X63.9908 Y-28.2362 G01 F60.00
G01 X64.1850 Y-28.2074 G01 F60.00
G01 X64.2233 Y-28.2027 G01 F60.00
G01 X64.2641 Y-28.1996 G01 F60.00
G01 X64.4603 Y-28.1900 G01 F60.00
G01 X64.5000 Y-28.1890 G01 F60.00
G01 X64.5397 Y-28.1900 G01 F60.00
G01 X64.7359 Y-28.1996 G01 F60.00
G01 X64.7767 Y-28.2027 G01 F60.00
G01 X64.8150 Y-28.2074 G01 F60.00
G01 X65.0092 Y-28.2362 G01 F60.00
G01 X65.0661 Y-28.2467 G01 F60.00
G01 X65.2777 Y-28.2994 G01 F60.00
G01 X65.3136 Y-28.3093 G01 F60.00
G01 X65.3537 Y-28.3225 G01 F60.00
G01 X65.5386 Y-28.3887 G01 F60.00
G01 X65.5947 Y-28.4111 G01 F60.00
G01 X65.8055 Y-28.5108 G01 F60.00
G01 X65.8597 Y-28.5405 G01 F60.00
G01 X66.0281 Y-28.6415 G01 F60.00
G01 X66.0610 Y-28.6623 G01 F60.00
G01 X66.0942 Y-28.6856 G01 F60.00
G01 X66.2519 Y-28.8026 G01 F60.00
G01 X66.2966 Y-28.8382 G01 F60.00
G01 X66.4589 Y-28.9849 G01 F60.00
G01 X66.4877 Y-29.0123 G01 F60.00
G01 X66.5151 Y-29.0411 G01 F60.00
G01 X66.6618 Y-29.2034 G01 F60.00
G01 X66.6974 Y-29.2481 G01 F60.00
G01 X66.8144 Y-29.4058 G01 F60.00
G01 X66.8377 Y-29.4390 G01 F60.00
G01 X66.8585 Y-29.4719 G01 F60.00
G01 X66.9595 Y-29.6403 G01 F60.00
G01 X66.9892 Y-29.6945 G01 F60.00
G01 X67.0889 Y-29.9053 G01 F60.00
G01 X67.1113 Y-29.9614 G01 F60.00
G01 X67.1775 Y-30.1463 G01 F60.00
G01 X67.1907 Y-30.1864 G01 F60.00
G01 X67.2006 Y-30.2223 G01 F60.00
G01 X67.2533 Y-30.4339 G01 F60.00
G01 X67.2638 Y-30.4908 G01 F60.00
G01 X67.2926 Y-30.6850 G01 F60.00
G01 X67.2973 Y-30.7233 G01 F60.00
G01 X67.3004 Y-30.7641 G01 F60.00
G01 X67.3100 Y-30.9603 G01 F60.00
G01 X67.3110 Y-31.0000 G01 F60.00
G01 X67.3100 Y-31.0397 G01 F60.00
G01 X67.3004 Y-31.2359 G01 F60.00
G01 X67.2973 Y-31.2767 G01 F60.00
G01 X67.2926 Y-31.3150 G01 F60.00
G01 X67.2638 Y-31.5092 G01 F60.00
G01 X67.2533 Y-31.5661 G01 F60.00
G01 X67.2006 Y-31.7777 G01 F60.00
G01 X67.1907 Y-31.8136 G01 F60.00
G01 X67.1775 Y-31.8537 G01 F60.00
G01 X67.1113 Y-32.0386 G01 F60.00
G01 X67.0889 Y-32.0947 G01 F60.00
G01 X66.9892 Y-32.3055 G01 F60.00
G01 X66.9595 Y-32.3597 G01 F60.00
G01 X66.8585 Y-32.5281 G01 F60.00
G01 X66.8377 Y-32.5610 G01 F60.00
G01 X66.8144 Y-32.5942 G01 F60.00
G01 X66.6974 Y-32.7519 G01 F60.00
G01 X66.6618 Y-32.7966 G01 F60.00
G01 X66.6470 Y-32.8134 G01 F60.00
G01 X66.5151 Y-32.9589 G01 F60.00
G01 X66.5144 Y-32.9583 G01 F60.00
G01 X66.4877 Y-32.9877 G01 F60.00
G01 X64.4877 Y-34.9877 G01 F60.00
G01 X64.4589 Y-35.0151 G01 F60.00
G01 X64.2966 Y-35.1618 G01 F60.00
G01 X64.2519 Y-35.1974 G01 F60.00
G01 X64.0942 Y-35.3144 G01 F60.00
G01 X64.0610 Y-35.3377 G01 F60.00
G01 X64.0281 Y-35.3585 G01 F60.00
G01 X63.8597 Y-35.4595 G01 F60.00
G01 X63.8055 Y-35.4892 G01 F60.00
G01 X63.5947 Y-35.5889 G01 F60.00
G01 X63.5386 Y-35.6113 G01 F60.00
G01 X63.3537 Y-35.6775 G01 F60.00
G01 X63.3136 Y-35.6907 G01 F60.00
G01 X63.2777 Y-35.7006 G01 F60.00
G01 X63.0661 Y-35.7533 G01 F60.00
G01 X63.0092 Y-35.7638 G01 F60.00
G01 X62.8150 Y-35.7926 G01 F60.00
G01 X62.7767 Y-35.7973 G01 F60.00
G01 X62.7359 Y-35.8004 G01 F60.00
G01 X62.5397 Y-35.8100 G01 F60.00
G01 X62.5000 Y-35.8110 G01 F60.00
G01 X42.5000 Y-35.8110 G01 F60.00
G01 X42.4603 Y-35.8100 G01 F60.00
G01 X42.2641 Y-35.8004 G01 F60.00
G01 X42.2233 Y-35.7973 G01 F60.00
G01 X42.1850 Y-35.7926 G01 F60.00
G01 X41.9908 Y-35.7638 G01 F60.00
G01 X41.9339 Y-35.7533 G01 F60.00
G01 X41.7223 Y-35.7006 G01 F60.00
G01 X41.6864 Y-35.6907 G01 F60.00
G01 X41.6463 Y-35.6775 G01 F60.00
G01 X41.4614 Y-35.6113 G01 F60.00
G01 X41.4053 Y-35.5889 G01 F60.00
G01 X41.1945 Y-35.4892 G01 F60.00
G01 X41.1403 Y-35.4595 G01 F60.00
G01 X40.9719 Y-35.3585 G01 F60.00
G01 X40.9390 Y-35.3377 G01 F60.00
G01 X40.9058 Y-35.3144 G01 F60.00
G01 X40.7481 Y-35.1974 G01 F60.00
G01 X40.7034 Y-35.1618 G01 F60.00
G01 X40.5411 Y-35.0151 G01 F60.00
G01 X40.5123 Y-34.9877 G01 F60.00
G01 X40.4849 Y-34.9589 G01 F60.00
G01 X40.3382 Y-34.7966 G01 F60.00
G01 X40.3026 Y-34.7519 G01 F60.00
G01 X40.1856 Y-34.5942 G01 F60.00
G01 X40.1623 Y-34.5610 G01 F60.00
G01 X40.1415 Y-34.5281 G01 F60.00
G01 X40.0405 Y-34.3597 G01 F60.00
G01 X40.0108 Y-34.3055 G01 F60.00
G01 X39.9111 Y-34.0947 G01 F60.00
G01 X39.8887 Y-34.0386 G01 F60.00
G01 X39.8225 Y-33.8537 G01 F60.00
G01 X39.8093 Y-33.8136 G01 F60.00
G01 X39.7994 Y-33.7777 G01 F60.00
G01 X39.7467 Y-33.5661 G01 F60.00
